public/luts/blade-runner.cube
#Generated with IWLTBAP LUT Generator 2.1.9571.30596
#Website: https://luts.iwltbap.com
TITLE "LUT convert-2"
LUT_3D_SIZE 5
0.000000 0.313725 0.396078
0.125490 0.137255 0.222549
0.501961 0.176471 0.288235
0.923529 0.323529 0.450980
1.000000 0.094118 0.282353
0.085294 0.511765 0.487255
0.151471 0.374265 0.376471
0.580882 0.430392 0.412745
0.960294 0.467402 0.477451
0.981373 0.376471 0.411765
0.000000 0.464706 0.343137
0.115196 0.518627 0.412255
0.350980 0.498039 0.420588
0.748529 0.546569 0.338235
0.982353 0.419608 0.235294
0.252941 0.745098 0.484314
0.103676 0.638971 0.397549
0.417647 0.708333 0.482353
0.647549 0.764216 0.465931
0.969608 0.803922 0.345098
0.694118 1.000000 0.600000
0.499020 0.816667 0.410784
0.647059 0.843137 0.456863
0.749020 0.806863 0.471569
0.964706 0.956863 0.529412
0.000980 0.315686 0.499020
0.320343 0.369363 0.553431
0.536275 0.304902 0.493137
0.738725 0.078922 0.387500
1.000000 0.267647 0.513725
0.001471 0.549020 0.527696
0.117218 0.506495 0.502206
0.437377 0.365564 0.422304
0.834681 0.368934 0.471569
0.944853 0.231618 0.334559
0.000000 0.608824 0.466176
0.028309 0.629534 0.489216
0.383578 0.539706 0.420098
0.752451 0.572304 0.417770
0.980392 0.533824 0.411765
0.009069 0.609069 0.321324
0.157108 0.697181 0.419669
0.456373 0.676838 0.418750
0.583578 0.631863 0.381863
0.999755 0.848284 0.457843
0.713725 0.937255 0.573529
0.618627 0.852206 0.479167
0.716667 0.863725 0.515686
0.850490 0.867157 0.581127
0.984314 0.982353 0.616667
0.172549 0.421569 0.717647
0.438725 0.473529 0.769608
0.568627 0.334314 0.635294
0.831373 0.296078 0.629412
1.000000 0.270588 0.650980
0.345098 0.581373 0.748039
0.446691 0.559191 0.711029
0.588235 0.485784 0.642157
0.748039 0.359191 0.564706
0.987255 0.399510 0.647059
0.084314 0.650000 0.619608
0.300000 0.672304 0.639461
0.556373 0.631863 0.596569
0.732598 0.570098 0.552206
0.998039 0.572549 0.552941
0.048529 0.863725 0.616667
0.000490 0.700000 0.464461
0.392157 0.744363 0.510294
0.839583 0.828309 0.630025
0.984314 0.856863 0.602941
0.513725 0.800000 0.449020
0.789216 0.981863 0.679412
0.858824 0.929412 0.667647
0.869118 0.871078 0.632843
1.000000 0.968627 0.696078
0.399020 0.425490 0.743137
0.588480 0.567647 0.880637
0.613235 0.476961 0.791176
0.721814 0.383824 0.730882
0.997059 0.414706 0.853922
0.549755 0.551961 0.760539
0.632721 0.612745 0.816360
0.763480 0.662623 0.878799
0.778738 0.516605 0.766544
0.868382 0.300735 0.678676
0.604412 0.669118 0.766667
0.586520 0.624387 0.717402
0.733824 0.685294 0.751471
0.866912 0.716054 0.798407
0.969608 0.565196 0.759804
0.610294 0.844853 0.835294
0.586091 0.790319 0.770588
0.642647 0.715074 0.682721
0.877512 0.813725 0.762132
0.968627 0.762745 0.716422
0.421569 0.979412 0.722549
0.381127 0.904412 0.637745
0.666667 0.900980 0.660294
0.908088 0.903676 0.732108
0.944118 0.896078 0.787255
0.725490 0.619608 0.882353
0.803922 0.679412 0.943137
0.852941 0.676471 0.919608
0.891176 0.628431 0.910784
0.831373 0.454902 0.745098
0.659804 0.569608 0.760784
0.715196 0.610539 0.812255
0.836765 0.684314 0.888235
0.811520 0.584314 0.799755
0.923529 0.573529 0.824510
0.737255 0.684314 0.764706
0.862745 0.788235 0.870588
0.852941 0.755882 0.840196
0.924020 0.762745 0.875000
0.988235 0.741176 0.882353
0.723529 0.721569 0.740196
0.900490 0.884804 0.905882
0.866176 0.811765 0.818627
0.925980 0.840441 0.827696
0.862745 0.720588 0.742157
0.745098 0.921569 0.831373
0.612745 0.777451 0.687255
0.749020 0.843137 0.760784
0.931373 0.920588 0.844118
0.984314 0.917647 0.839216
