public/luts/blade-runner.cube
#Generated with IWLTBAP LUT Generator 2.1.9571.30596
#Website: https://luts.iwltbap.com
TITLE "LUT convert-2"
LUT_3D_SIZE 9
0.000000 0.313725 0.396078
0.013725 0.222549 0.301471
0.125490 0.137255 0.222549
0.364706 0.198039 0.299020
0.501961 0.176471 0.288235
0.795098 0.302451 0.414706
0.923529 0.323529 0.450980
0.950980 0.131863 0.296569
1.000000 0.094118 0.282353
0.000000 0.123039 0.167157
0.000000 0.251287 0.284559
0.244240 0.345588 0.396691
0.401409 0.313603 0.356679
0.519118 0.254167 0.321078
0.664583 0.217953 0.296201
0.871691 0.268750 0.355760
0.867341 0.075551 0.245527
0.999510 0.493137 0.538235
0.085294 0.511765 0.487255
0.002941 0.255392 0.230882
0.151471 0.374265 0.376471
0.293137 0.377941 0.370098
0.580882 0.430392 0.412745
0.700368 0.350123 0.350858
0.960294 0.467402 0.477451
0.966544 0.353309 0.377696
0.981373 0.376471 0.411765
0.000000 0.398039 0.324510
0.002512 0.407537 0.347426
0.152941 0.453309 0.403922
0.206311 0.387929 0.352574
0.379902 0.443382 0.358578
0.672120 0.487623 0.378493
0.765931 0.364338 0.273652
0.928799 0.387071 0.313419
1.000000 0.422059 0.354902
0.000000 0.464706 0.343137
0.008578 0.432108 0.322549
0.115196 0.518627 0.412255
0.249020 0.491176 0.405147
0.350980 0.498039 0.420588
0.363480 0.395098 0.241176
0.748529 0.546569 0.338235
0.973775 0.556618 0.359069
0.982353 0.419608 0.235294
0.003922 0.433824 0.272549
0.042770 0.588419 0.419240
0.167770 0.617647 0.447426
0.175123 0.553186 0.392525
0.274510 0.493137 0.355147
0.411703 0.557966 0.379289
0.503799 0.504534 0.240196
0.927451 0.699939 0.378431
0.997059 0.720098 0.403922
0.252941 0.745098 0.484314
0.000000 0.613603 0.362255
0.103676 0.638971 0.397549
0.143382 0.627083 0.375613
0.417647 0.708333 0.482353
0.524142 0.711642 0.492279
0.647549 0.764216 0.465931
0.669975 0.624755 0.225980
0.969608 0.803922 0.345098
0.289216 0.813725 0.450490
0.239767 0.814890 0.464522
0.215441 0.754657 0.407598
0.400735 0.805147 0.467218
0.425245 0.728676 0.409559
0.498468 0.689890 0.379779
0.585417 0.729412 0.375123
0.674632 0.738051 0.318199
0.839216 0.780882 0.276961
0.694118 1.000000 0.600000
0.501471 0.849020 0.432843
0.499020 0.816667 0.410784
0.513725 0.782353 0.376961
0.647059 0.843137 0.456863
0.749510 0.863725 0.507843
0.749020 0.806863 0.471569
0.872059 0.896078 0.540196
0.964706 0.956863 0.529412
0.000000 0.013725 0.163725
0.039461 0.309865 0.474020
0.200858 0.265441 0.413113
0.319424 0.231127 0.382782
0.574755 0.297794 0.461275
0.668934 0.160110 0.372181
0.876593 0.207108 0.419118
0.993260 0.296814 0.453676
0.998039 0.288725 0.454412
0.007292 0.482782 0.559743
0.016575 0.319003 0.387714
0.345389 0.511412 0.591069
0.304649 0.286083 0.380944
0.586550 0.363113 0.474816
0.667479 0.220374 0.374311
0.876593 0.295849 0.428186
0.994424 0.357315 0.484651
0.993137 0.314032 0.427635
0.000368 0.506127 0.490441
0.002895 0.343428 0.337577
0.108609 0.429044 0.426471
0.290395 0.384115 0.399357
0.466544 0.352022 0.370711
0.672733 0.355668 0.379718
0.800735 0.302911 0.344975
0.953094 0.319347 0.377160
0.999755 0.397549 0.450000
0.001777 0.353309 0.271691
0.105576 0.603845 0.521147
0.034161 0.463572 0.388450
0.292547 0.473162 0.419102
0.345006 0.397335 0.343076
0.633678 0.457767 0.371255
0.779427 0.387178 0.324372
0.935463 0.398683 0.352750
0.996569 0.443076 0.396446
0.002206 0.514461 0.375245
0.000490 0.599969 0.444792
0.216544 0.653431 0.510294
0.139124 0.445251 0.316942
0.348162 0.482598 0.382108
0.581556 0.607659 0.458517
0.862377 0.662745 0.459681
0.934712 0.582016 0.407445
0.968137 0.577451 0.415441
0.000674 0.617096 0.398958
0.002918 0.651157 0.443589
0.058487 0.527145 0.324602
0.307552 0.634436 0.438703
0.336673 0.555453 0.377145
0.483073 0.593880 0.414675
0.637837 0.630025 0.377757
0.839920 0.615074 0.298055
0.962377 0.582292 0.275797
0.198897 0.746569 0.456127
0.114400 0.689767 0.415686
0.248223 0.702022 0.429136
0.254596 0.655729 0.381158
0.446507 0.714767 0.462561
0.523912 0.674173 0.440058
0.591146 0.678738 0.395558
0.661719 0.623376 0.232858
0.887623 0.681495 0.228554
0.272120 0.707782 0.344301
0.345933 0.788917 0.431794
0.359712 0.790119 0.421324
0.314216 0.705905 0.344478
0.553186 0.819945 0.475551
0.581909 0.742754 0.422457
0.731005 0.841590 0.504105
0.734559 0.791942 0.380752
0.953248 0.895466 0.425613
0.522059 0.823039 0.416667
0.592831 0.888787 0.478064
0.504902 0.776716 0.384926
0.653676 0.880086 0.487132
0.679902 0.845833 0.483578
0.859620 0.945466 0.616973
0.722549 0.773162 0.447426
0.946998 0.953676 0.606434
0.794608 0.786765 0.351471
0.000980 0.315686 0.499020
0.000123 0.360539 0.543382
0.320343 0.369363 0.553431
0.500368 0.377206 0.557843
0.536275 0.304902 0.493137
0.760172 0.344240 0.556127
0.738725 0.078922 0.387500
0.825490 0.032721 0.326103
1.000000 0.267647 0.513725
0.000000 0.414706 0.499020
0.010401 0.499219 0.588480
0.347304 0.508058 0.621630
0.360187 0.328600 0.447718
0.446507 0.274449 0.415564
0.684727 0.323759 0.495374
0.905852 0.356219 0.539154
0.990533 0.298361 0.497534
0.991544 0.276225 0.468505
0.001471 0.549020 0.527696
0.033701 0.619577 0.607659
0.117218 0.506495 0.502206
0.418444 0.530331 0.540472
0.437377 0.365564 0.422304
0.659038 0.392249 0.474326
0.834681 0.368934 0.471569
0.930607 0.313113 0.425153
0.944853 0.231618 0.334559
0.001716 0.522059 0.436397
0.001823 0.496890 0.417157
0.062684 0.562806 0.494577
0.157874 0.451716 0.396017
0.456679 0.525429 0.475858
0.573468 0.443244 0.411489
0.750031 0.432935 0.406434
0.915058 0.418551 0.402328
0.996936 0.522794 0.499265
0.000000 0.608824 0.466176
0.006373 0.617647 0.474632
0.028309 0.629534 0.489216
0.270466 0.644240 0.506373
0.383578 0.539706 0.420098
0.563542 0.577267 0.471078
0.752451 0.572304 0.417770
0.942341 0.581495 0.437194
0.980392 0.533824 0.411765
0.002941 0.648162 0.438113
0.000873 0.617249 0.401149
0.010509 0.627267 0.422825
0.146998 0.579871 0.375827
0.443076 0.651654 0.457721
0.478431 0.557583 0.386795
0.747365 0.739614 0.524234
0.911765 0.710539 0.437377
0.945956 0.590931 0.331863
0.009069 0.609069 0.321324
0.071569 0.722243 0.441330
0.157108 0.697181 0.419669
0.260172 0.615656 0.339706
0.456373 0.676838 0.418750
0.617433 0.738787 0.495527
0.583578 0.631863 0.381863
0.791299 0.742708 0.421170
0.999755 0.848284 0.457843
0.408088 0.805637 0.448529
0.433042 0.829243 0.474877
0.500123 0.836489 0.497549
0.522059 0.807506 0.474801
0.523162 0.759130 0.424877
0.721768 0.863388 0.552206
0.722917 0.794393 0.494547
0.748422 0.775597 0.415303
0.891912 0.845343 0.413358
0.713725 0.937255 0.573529
0.647794 0.886275 0.524877
0.618627 0.852206 0.479167
0.728309 0.931250 0.562010
0.716667 0.863725 0.515686
0.825613 0.908578 0.586275
0.850490 0.867157 0.581127
0.818995 0.836765 0.505025
0.984314 0.982353 0.616667
0.002451 0.372059 0.629412
0.014400 0.280821 0.538113
0.458946 0.505882 0.765564
0.383824 0.255025 0.505576
0.488971 0.201471 0.454167
0.634252 0.238113 0.488113
0.822549 0.239216 0.524632
0.845711 0.009681 0.414890
1.000000 0.315196 0.598529
0.052635 0.475919 0.659865
0.285317 0.574640 0.756587
0.268352 0.404274 0.589798
0.492624 0.441743 0.625061
0.584069 0.375980 0.567279
0.647832 0.304848 0.507636
0.757552 0.226670 0.477665
0.987010 0.288006 0.546094
0.995956 0.275613 0.529841
0.056250 0.542402 0.627941
0.215334 0.633487 0.703830
0.322426 0.560968 0.632567
0.422595 0.485570 0.564139
0.591850 0.493382 0.589583
0.659758 0.418153 0.540748
0.803248 0.375888 0.528156
0.961688 0.363266 0.535034
0.983211 0.256618 0.430515
0.004596 0.610539 0.578799
0.006962 0.598614 0.574257
0.119164 0.575827 0.544684
0.451846 0.656495 0.627888
0.594148 0.615074 0.596048
0.638718 0.521469 0.532981
0.794332 0.496584 0.534697
0.927727 0.458808 0.499885
0.986520 0.516238 0.541605
0.000000 0.639461 0.510784
0.001869 0.656036 0.530882
0.041054 0.618015 0.500123
0.198529 0.617494 0.503248
0.425368 0.610417 0.503309
0.614246 0.627819 0.530362
0.681985 0.527206 0.434252
0.932904 0.604779 0.506097
0.949755 0.536765 0.433824
0.002635 0.703615 0.510172
0.000069 0.679680 0.482077
0.003094 0.653876 0.463113
0.075391 0.609651 0.416353
0.279289 0.586765 0.401225
0.613634 0.694677 0.523238
0.642907 0.593214 0.431081
0.897250 0.693114 0.477160
0.963787 0.711642 0.505515
0.046569 0.831127 0.553922
0.037960 0.791988 0.517708
0.064982 0.742525 0.465962
0.329335 0.759252 0.496752
0.481924 0.721752 0.470650
0.620987 0.715150 0.485371
0.786213 0.788143 0.566452
0.817678 0.754013 0.484743
0.946446 0.749387 0.417279
0.097120 0.661703 0.308272
0.386481 0.844225 0.499073
0.427420 0.816575 0.485248
0.464943 0.753018 0.426601
0.631710 0.810018 0.500613
0.703707 0.794355 0.521967
0.716376 0.749433 0.483885
0.793199 0.795014 0.490188
0.753002 0.691299 0.300184
0.787255 0.973529 0.652451
0.661029 0.864154 0.518873
0.615564 0.801593 0.458456
0.687194 0.854105 0.517586
0.706127 0.831863 0.507353
0.755208 0.818260 0.522610
0.881618 0.895221 0.652696
0.932843 0.925490 0.645833
0.923529 0.893627 0.560784
0.172549 0.421569 0.717647
0.325735 0.471814 0.762990
0.438725 0.473529 0.769608
0.506127 0.419363 0.706863
0.568627 0.334314 0.635294
0.714706 0.334804 0.637255
0.831373 0.296078 0.629412
0.902206 0.161765 0.564461
1.000000 0.270588 0.650980
0.353431 0.556373 0.804167
0.214645 0.401838 0.644179
0.454963 0.523162 0.756066
0.553431 0.509589 0.745129
0.561152 0.377819 0.628431
0.721017 0.387010 0.651287
0.850000 0.370711 0.647120
0.900919 0.224724 0.561979
0.996324 0.147794 0.559559
0.345098 0.581373 0.748039
0.422917 0.624877 0.772978
0.446691 0.559191 0.711029
0.533395 0.548713 0.692770
0.588235 0.485784 0.642157
0.714461 0.480576 0.655882
0.748039 0.359191 0.564706
0.872672 0.277083 0.538297
0.987255 0.399510 0.647059
0.297549 0.658824 0.729167
0.331158 0.641605 0.720741
0.422978 0.632353 0.694975
0.549142 0.632843 0.689491
0.680147 0.656985 0.708456
0.723744 0.595987 0.657843
0.786152 0.513542 0.610478
0.950490 0.481710 0.611918
0.994363 0.481373 0.613971
0.084314 0.650000 0.619608
0.157230 0.652574 0.617647
0.300000 0.672304 0.639461
0.478799 0.696078 0.662377
0.556373 0.631863 0.596569
0.728309 0.680147 0.642279
0.732598 0.570098 0.552206
0.927451 0.591912 0.595466
0.998039 0.572549 0.552941
0.088235 0.751225 0.622059
0.020098 0.698438 0.573958
0.117953 0.701532 0.567525
0.286673 0.707537 0.575031
0.469485 0.710539 0.577819
0.616513 0.698346 0.563143
0.777328 0.718995 0.592525
0.908640 0.698499 0.563266
0.950000 0.669853 0.528431
0.048529 0.863725 0.616667
0.002083 0.685172 0.446875
0.000490 0.700000 0.464461
0.201287 0.793995 0.552145
0.392157 0.744363 0.510294
0.601225 0.742279 0.524939
0.839583 0.828309 0.630025
0.794914 0.712132 0.501164
0.984314 0.856863 0.602941
0.133824 0.795833 0.451716
0.221844 0.891575 0.560723
0.285539 0.846875 0.519424
0.401317 0.799020 0.478370
0.701961 0.891544 0.630392
0.706710 0.796661 0.531250
0.745282 0.757782 0.510539
0.826961 0.790564 0.544822
0.930147 0.846078 0.533824
0.513725 0.800000 0.449020
0.589951 0.866422 0.515931
0.789216 0.981863 0.679412
0.644118 0.804657 0.498529
0.858824 0.929412 0.667647
0.806863 0.865196 0.593382
0.869118 0.871078 0.632843
0.866912 0.844363 0.616176
1.000000 0.968627 0.696078
0.259804 0.376961 0.675980
0.408333 0.468076 0.778860
0.500245 0.514338 0.817647
0.580331 0.506373 0.825368
0.638971 0.465441 0.782843
0.677390 0.382353 0.708762
0.897549 0.451103 0.807475
0.919363 0.304167 0.703615
1.000000 0.282353 0.747059
0.501471 0.568321 0.834681
0.589721 0.644432 0.890127
0.493229 0.515319 0.779366
0.586336 0.544156 0.804894
0.653768 0.509957 0.788235
0.696890 0.432169 0.728041
0.920221 0.522105 0.831985
0.891077 0.323185 0.685371
0.982537 0.166176 0.649203
0.499755 0.608211 0.799510
0.476501 0.560646 0.751670
0.564553 0.590472 0.784926
0.601532 0.583502 0.766100
0.639890 0.541483 0.735478
0.739721 0.543735 0.757001
0.781373 0.460600 0.699969
0.892142 0.397825 0.685172
0.988235 0.361152 0.714461
0.422733 0.561765 0.700184
0.533142 0.648330 0.779205
0.592203 0.665196 0.783854
0.710041 0.715020 0.825207
0.675306 0.617188 0.717862
0.738871 0.612760 0.724073
0.784589 0.549862 0.689844
0.867226 0.460608 0.654228
0.924020 0.416605 0.662010
0.589706 0.809069 0.874510
0.463695 0.671967 0.727267
0.461213 0.614277 0.671814
0.586979 0.665196 0.707567
0.725000 0.719853 0.752574
0.772733 0.695741 0.717678
0.816667 0.667157 0.707843
0.832016 0.515901 0.615411
0.911765 0.496569 0.625245
0.344792 0.723958 0.696507
0.343244 0.704282 0.672396
0.423177 0.715196 0.689124
0.574334 0.765671 0.739622
0.636060 0.722426 0.689645
0.784628 0.772580 0.725368
0.884911 0.793888 0.737960
0.786543 0.577168 0.545175
0.962316 0.665748 0.631189
0.039583 0.739951 0.608211
0.266667 0.848100 0.719363
0.272273 0.810355 0.671661
0.372197 0.777068 0.640702
0.444914 0.718382 0.580147
0.670941 0.790656 0.657644
0.721998 0.724663 0.586581
0.900613 0.810064 0.668658
0.992525 0.798529 0.636029
0.306679 0.902635 0.711826
0.007881 0.863082 0.588419
0.041468 0.892938 0.612408
0.185600 0.833655 0.553868
0.436642 0.802237 0.527482
0.625919 0.793528 0.541713
0.883532 0.889752 0.719593
0.904036 0.845703 0.665510
0.986152 0.951961 0.739828
0.345588 0.799020 0.451961
0.452696 0.890564 0.543750
0.446078 0.833088 0.492892
0.698100 0.907966 0.629350
0.758333 0.888971 0.615931
0.856127 0.884743 0.655086
0.868382 0.860662 0.651471
0.756801 0.714890 0.534191
1.000000 0.982843 0.831373
0.399020 0.425490 0.743137
0.528309 0.536520 0.850490
0.588480 0.567647 0.880637
0.622794 0.550490 0.865809
0.613235 0.476961 0.791176
0.683456 0.453064 0.780760
0.721814 0.383824 0.730882
0.947794 0.480025 0.852819
0.997059 0.414706 0.853922
0.568505 0.579044 0.849510
0.632230 0.639369 0.903217
0.517953 0.503462 0.775858
0.533732 0.471630 0.750720
0.608272 0.480944 0.761397
0.639292 0.430867 0.724801
0.795680 0.481127 0.797089
0.843827 0.391559 0.747396
0.819853 0.130392 0.628554
0.549755 0.551961 0.760539
0.554657 0.555331 0.755882
0.632721 0.612745 0.816360
0.605147 0.553983 0.758670
0.763480 0.662623 0.878799
0.755453 0.587377 0.812960
0.778738 0.516605 0.766544
0.969363 0.592923 0.873070
0.868382 0.300735 0.678676
0.650980 0.685784 0.838725
0.640947 0.665610 0.821124
0.627237 0.626808 0.771354
0.761443 0.715349 0.851195
0.712071 0.633701 0.767892
0.782721 0.655990 0.803830
0.837806 0.639369 0.808180
0.776333 0.466238 0.671906
0.976225 0.500735 0.776103
0.604412 0.669118 0.766667
0.583211 0.642953 0.738480
0.586520 0.624387 0.717402
0.634559 0.630392 0.717708
0.733824 0.685294 0.751471
0.803431 0.709252 0.776654
0.866912 0.716054 0.798407
0.912684 0.668566 0.790135
0.969608 0.565196 0.759804
0.510417 0.652574 0.695221
0.598468 0.738572 0.788557
0.558793 0.660692 0.706311
0.746906 0.796706 0.832460
0.813174 0.807292 0.829228
0.850368 0.792448 0.794347
0.821691 0.724357 0.727819
0.898024 0.720389 0.753094
1.000000 0.718627 0.794975
0.610294 0.844853 0.835294
0.594516 0.829228 0.810110
0.586091 0.790319 0.770588
0.579197 0.719792 0.695680
0.642647 0.715074 0.682721
0.858548 0.859589 0.815533
0.877512 0.813725 0.762132
0.934130 0.815227 0.755423
0.968627 0.762745 0.716422
0.150245 0.742892 0.629534
0.209988 0.761811 0.640089
0.429596 0.873407 0.755882
0.536780 0.889936 0.776088
0.584988 0.856679 0.721385
0.716391 0.879167 0.742632
0.874602 0.925674 0.775888
0.915196 0.858594 0.715043
0.990319 0.901225 0.748039
0.421569 0.979412 0.722549
0.327574 0.917647 0.646446
0.381127 0.904412 0.637745
0.584191 0.958946 0.718505
0.666667 0.900980 0.660294
0.758456 0.863480 0.642157
0.908088 0.903676 0.732108
0.946324 0.896814 0.752328
0.944118 0.896078 0.787255
0.770098 0.729902 0.992647
0.585662 0.541912 0.838297
0.686397 0.623652 0.912990
0.756189 0.664032 0.957230
0.656863 0.517892 0.817157
0.705760 0.516238 0.817770
0.710539 0.457475 0.751471
0.900368 0.555637 0.885907
0.992157 0.568627 0.929902
0.534314 0.497059 0.754657
0.518405 0.473797 0.735570
0.601716 0.541314 0.800965
0.667839 0.580063 0.841605
0.785631 0.655852 0.912714
0.727597 0.546278 0.818306
0.913848 0.664675 0.955224
0.839637 0.512691 0.820764
0.886765 0.461336 0.811336
0.707843 0.664706 0.863113
0.653830 0.603232 0.813067
0.612929 0.553462 0.757138
0.750123 0.668199 0.884482
0.777757 0.666728 0.872426
0.743336 0.587500 0.814384
0.780760 0.574479 0.806618
0.915748 0.647595 0.890426
0.978799 0.589338 0.879779
0.766360 0.718199 0.868627
0.790334 0.749985 0.882016
0.675582 0.614047 0.763664
0.708502 0.638488 0.788036
0.749540 0.653156 0.809712
0.768788 0.639040 0.793076
0.817800 0.641345 0.814767
0.798767 0.555921 0.754350
0.875919 0.551164 0.791422
0.743873 0.729657 0.847059
0.796844 0.775031 0.893199
0.835846 0.801593 0.896814
0.847488 0.793321 0.892310
0.876838 0.795098 0.881250
0.871232 0.766146 0.864001
0.832414 0.688419 0.797917
0.840380 0.643873 0.768015
0.949755 0.742402 0.890686
0.607230 0.628860 0.705821
0.658035 0.673361 0.743390
0.722135 0.719960 0.792233
0.745343 0.725046 0.783502
0.810907 0.758456 0.806955
0.907008 0.824740 0.862776
0.928355 0.840211 0.878385
0.891138 0.741835 0.809260
0.906005 0.686458 0.784743
0.566912 0.643137 0.688725
0.667678 0.739859 0.776991
0.792770 0.849173 0.881464
0.787056 0.814063 0.835600
0.797426 0.780637 0.800184
0.814124 0.763159 0.762898
0.881036 0.807721 0.787561
0.977788 0.931388 0.917969
0.894363 0.724877 0.750613
0.779289 0.944240 0.923468
0.754496 0.917042 0.891422
0.609360 0.734314 0.709268
0.772947 0.847848 0.834229
0.717678 0.774449 0.741667
0.845688 0.859980 0.817448
0.865257 0.830392 0.789782
0.850659 0.786190 0.725965
0.949816 0.856740 0.790319
0.485784 0.812255 0.718137
0.471385 0.773529 0.689951
0.522059 0.810172 0.713971
0.741238 0.973162 0.878676
0.778431 0.963725 0.860539
0.816912 0.930086 0.830882
0.888725 0.916789 0.829902
0.981985 0.984926 0.868566
1.000000 0.999020 0.999510
0.725490 0.619608 0.882353
0.715686 0.617157 0.879902
0.803922 0.679412 0.943137
0.716176 0.574020 0.838235
0.852941 0.676471 0.919608
0.846569 0.640686 0.903431
0.891176 0.628431 0.910784
0.885294 0.565196 0.837745
0.831373 0.454902 0.745098
0.824020 0.720588 0.961275
0.827941 0.725429 0.969363
0.623284 0.506985 0.759436
0.769730 0.634069 0.876409
0.736765 0.568382 0.812500
0.805208 0.604596 0.854657
0.846691 0.590441 0.841544
0.919301 0.606679 0.876348
0.943627 0.584314 0.867157
0.659804 0.569608 0.760784
0.744363 0.650613 0.844608
0.715196 0.610539 0.812255
0.787500 0.657843 0.866422
0.836765 0.684314 0.888235
0.871936 0.686275 0.895956
0.811520 0.584314 0.799755
0.892525 0.614828 0.848284
0.923529 0.573529 0.824510
0.808333 0.734314 0.875490
0.810907 0.725245 0.866728
0.865196 0.770466 0.916789
0.744179 0.637316 0.779167
0.843382 0.710294 0.866176
0.907598 0.751042 0.905637
0.917892 0.729657 0.887010
0.894730 0.676348 0.850551
0.978922 0.688725 0.890196
0.737255 0.684314 0.764706
0.813971 0.745588 0.838971
0.862745 0.788235 0.870588
0.782353 0.696078 0.783088
0.852941 0.755882 0.840196
0.902206 0.778676 0.868137
0.924020 0.762745 0.875000
0.912010 0.736520 0.858578
0.988235 0.741176 0.882353
0.841667 0.796569 0.848529
0.857659 0.821936 0.862745
0.846446 0.796936 0.842647
0.903860 0.842770 0.884743
0.857353 0.776961 0.815196
0.870466 0.794730 0.825061
0.966544 0.866422 0.911887
0.876164 0.764338 0.828370
0.955882 0.781373 0.856863
0.723529 0.721569 0.740196
0.777574 0.765074 0.790196
0.900490 0.884804 0.905882
0.844485 0.808824 0.821446
0.866176 0.811765 0.818627
0.928676 0.851103 0.856495
0.925980 0.840441 0.827696
0.899877 0.788480 0.794363
0.862745 0.720588 0.742157
0.699020 0.761275 0.750000
0.945098 0.957108 0.957108
0.779657 0.826348 0.815809
0.889583 0.914890 0.897855
0.844853 0.842402 0.816176
0.898836 0.875429 0.838725
0.877206 0.814828 0.761397
0.990074 0.937255 0.881924
0.941667 0.865196 0.806863
0.745098 0.921569 0.831373
0.578922 0.768627 0.688235
0.612745 0.777451 0.687255
0.762255 0.894608 0.823529
0.749020 0.843137 0.760784
0.892157 0.919118 0.838235
0.931373 0.920588 0.844118
0.958824 0.892157 0.820588
0.984314 0.917647 0.839216
