public/luts/blade-runner.cube
#Generated with IWLTBAP LUT Generator 2.1.9571.30596
#Website: https://luts.iwltbap.com
TITLE "LUT convert-2"
LUT_3D_SIZE 33
0.000000 0.313725 0.396078
0.000000 0.264706 0.328064
0.000245 0.083088 0.165441
0.009926 0.184804 0.261152
0.013725 0.222549 0.301471
0.069485 0.210417 0.315319
0.000000 0.075735 0.162010
0.073162 0.131985 0.222181
0.125490 0.137255 0.222549
0.403309 0.359559 0.456985
0.284069 0.191912 0.296569
0.250245 0.131618 0.230760
0.364706 0.198039 0.299020
0.494975 0.291912 0.392279
0.353922 0.147794 0.232108
0.395466 0.119118 0.228431
0.501961 0.176471 0.288235
0.612868 0.248897 0.354534
0.574510 0.155882 0.278431
0.681618 0.225000 0.330147
0.795098 0.302451 0.414706
0.636397 0.051103 0.230882
0.691422 0.067402 0.235049
0.930392 0.311029 0.428554
0.923529 0.323529 0.450980
0.999142 0.333946 0.452941
0.840441 0.033333 0.248284
0.930637 0.129657 0.309804
0.950980 0.131863 0.296569
0.932475 0.025858 0.264828
0.886520 0.000000 0.189461
0.870711 0.011765 0.177941
1.000000 0.094118 0.282353
0.000000 0.095343 0.166176
0.003799 0.231066 0.309386
0.000475 0.279802 0.354665
0.000000 0.273679 0.341693
0.132981 0.342555 0.423499
0.018746 0.208425 0.279665
0.172480 0.310639 0.388289
0.070182 0.178688 0.264254
0.144884 0.194332 0.286458
0.251700 0.245852 0.332809
0.254779 0.208241 0.304190
0.236075 0.148369 0.237588
0.508502 0.377711 0.471906
0.368222 0.201654 0.298028
0.422189 0.205063 0.297587
0.402512 0.162596 0.252815
0.535417 0.241115 0.335846
0.692574 0.351831 0.446078
0.583372 0.194891 0.304274
0.603091 0.167149 0.287814
0.748759 0.265748 0.384268
0.760394 0.242620 0.355817
0.706809 0.087500 0.265794
0.872629 0.240629 0.388703
0.839645 0.165931 0.323652
0.991280 0.316525 0.425536
0.904259 0.158188 0.324579
0.916831 0.127275 0.299188
0.963465 0.161183 0.322089
0.992505 0.318704 0.435114
0.842808 0.026654 0.176118
0.999475 0.089514 0.295703
0.996814 0.269730 0.373529
0.000000 0.137010 0.200735
0.011282 0.409421 0.490472
0.000000 0.237653 0.303646
0.006978 0.355951 0.419133
0.003768 0.296783 0.366422
0.070366 0.300115 0.364047
0.200138 0.361642 0.425077
0.017172 0.183081 0.249885
0.100797 0.177512 0.256189
0.293627 0.319294 0.392907
0.228033 0.193750 0.269853
0.344378 0.278799 0.362224
0.407751 0.306434 0.383211
0.459184 0.316360 0.394600
0.519593 0.323269 0.408425
0.404779 0.178071 0.268612
0.471814 0.196936 0.285294
0.621952 0.292570 0.381847
0.582353 0.207567 0.311029
0.616759 0.196638 0.307805
0.684406 0.216146 0.328094
0.718589 0.200368 0.319761
0.815717 0.270956 0.370083
0.955821 0.367387 0.469110
0.881740 0.233272 0.375123
0.875812 0.191039 0.321883
0.866238 0.103125 0.273009
0.878699 0.097549 0.272158
0.986703 0.197549 0.348805
0.995757 0.410578 0.484796
0.948070 0.028814 0.268934
0.999946 0.217080 0.341636
0.996324 0.087745 0.283824
0.000000 0.322304 0.370466
0.000000 0.301850 0.356051
0.006687 0.199257 0.249173
0.000069 0.243612 0.289518
0.005377 0.198468 0.258487
0.013637 0.272285 0.313649
0.004680 0.217624 0.281855
0.106809 0.273131 0.332847
0.103646 0.168934 0.229994
0.295224 0.348372 0.409647
0.215564 0.219370 0.283218
0.361324 0.319282 0.382893
0.285708 0.198422 0.267831
0.361355 0.237921 0.304956
0.541575 0.373231 0.442555
0.505005 0.289537 0.370251
0.400980 0.137868 0.224632
0.599456 0.289970 0.366690
0.525337 0.152788 0.255622
0.624652 0.213921 0.306419
0.829396 0.363021 0.460677
0.712833 0.196124 0.324380
0.834390 0.287117 0.390104
0.816713 0.220087 0.335290
0.721538 0.073284 0.222855
0.835780 0.157330 0.331545
0.882230 0.167394 0.305637
0.984172 0.341521 0.438634
0.933946 0.129182 0.292080
0.989269 0.184252 0.331576
0.994508 0.316169 0.425490
0.997683 0.286232 0.405825
0.978676 0.019853 0.259069
0.000000 0.123039 0.167157
0.007154 0.071936 0.107751
0.016299 0.359467 0.382629
0.006801 0.146446 0.188297
0.000000 0.251287 0.284559
0.122089 0.351716 0.393444
0.096844 0.299081 0.335754
0.137255 0.286795 0.333900
0.244240 0.345588 0.396691
0.273453 0.324280 0.367218
0.361612 0.365349 0.413051
0.391728 0.345067 0.395037
0.401409 0.313603 0.356679
0.375797 0.242724 0.293995
0.436121 0.266452 0.317310
0.506081 0.294807 0.355683
0.519118 0.254167 0.321078
0.566376 0.258670 0.317387
0.607996 0.260417 0.325337
0.658410 0.257384 0.335830
0.664583 0.217953 0.296201
0.785309 0.302803 0.371967
0.750980 0.213235 0.316605
0.753294 0.155653 0.281434
0.871691 0.268750 0.355760
0.858165 0.198897 0.303814
0.875888 0.200950 0.318444
0.850199 0.048790 0.253631
0.867341 0.075551 0.245527
0.977589 0.186612 0.312760
0.999939 0.486918 0.548192
0.999877 0.360631 0.439767
0.999510 0.493137 0.538235
0.000000 0.306495 0.317402
0.004006 0.235309 0.241031
0.000613 0.250176 0.260432
0.009306 0.332150 0.352903
0.001225 0.244792 0.267417
0.001130 0.250088 0.266904
0.014377 0.217953 0.242325
0.183900 0.366330 0.409823
0.030637 0.149112 0.183027
0.216065 0.327788 0.370508
0.298009 0.354925 0.389629
0.195611 0.195385 0.236144
0.363189 0.318444 0.344776
0.298951 0.200287 0.239396
0.428255 0.298039 0.337722
0.478826 0.295240 0.341035
0.484865 0.247610 0.306556
0.645941 0.369884 0.422009
0.644845 0.316245 0.372710
0.683119 0.306771 0.368298
0.682016 0.252589 0.321967
0.749525 0.284260 0.348369
0.717004 0.198392 0.290089
0.787749 0.238875 0.322484
0.876195 0.295558 0.363021
0.809819 0.161849 0.271584
0.814262 0.108502 0.248415
0.967371 0.327336 0.410218
0.872197 0.082138 0.237331
0.992383 0.224835 0.319194
0.991981 0.197036 0.314982
1.000000 0.323208 0.406713
0.897426 0.060049 0.199510
0.006373 0.297549 0.313480
0.003087 0.367241 0.364721
0.000092 0.296400 0.295328
0.000000 0.227757 0.237163
0.007353 0.239553 0.254044
0.016131 0.258172 0.269907
0.042142 0.368919 0.386259
0.290885 0.506725 0.513810
0.104963 0.293627 0.316728
0.226861 0.367295 0.402014
0.117525 0.220879 0.252037
0.310034 0.364928 0.380002
0.233548 0.230116 0.247672
0.401455 0.337623 0.358425
0.481771 0.378830 0.400414
0.477198 0.324027 0.347480
0.469853 0.263235 0.293015
0.555438 0.304726 0.334605
0.627007 0.329596 0.366360
0.709475 0.360991 0.402328
0.667157 0.255147 0.316697
0.797036 0.361619 0.407820
0.775245 0.282108 0.335708
0.897281 0.374862 0.416483
0.904412 0.337806 0.383701
0.856396 0.252911 0.318643
0.904856 0.262944 0.328493
0.968604 0.303891 0.373721
0.939154 0.234498 0.299969
0.972128 0.245665 0.326547
0.994776 0.320466 0.383058
0.999104 0.280729 0.353554
0.996814 0.311275 0.376471
0.000000 0.279534 0.278186
0.003064 0.339997 0.323058
0.002413 0.384298 0.370711
0.000777 0.353539 0.345458
0.000751 0.358609 0.351639
0.069795 0.423353 0.423755
0.001149 0.313802 0.315112
0.025689 0.311696 0.308525
0.167525 0.371967 0.386979
0.100103 0.260137 0.282801
0.215411 0.339139 0.367892
0.192620 0.305664 0.312672
0.311535 0.374050 0.370205
0.277665 0.278902 0.282399
0.509827 0.441958 0.441199
0.455067 0.330645 0.330503
0.529105 0.358395 0.363787
0.615135 0.378669 0.382713
0.594485 0.328048 0.334926
0.672679 0.358077 0.371293
0.590058 0.228140 0.248330
0.791249 0.375073 0.396592
0.641958 0.175820 0.226141
0.851180 0.346507 0.381932
0.907966 0.358395 0.393045
0.921561 0.385623 0.427122
0.967670 0.364637 0.402183
0.961095 0.299950 0.348357
1.000000 0.404029 0.434972
0.938549 0.246523 0.314970
0.987799 0.231388 0.298093
0.995883 0.212638 0.284773
0.999142 0.406373 0.436765
0.085294 0.511765 0.487255
0.000000 0.425674 0.391912
0.000368 0.280147 0.252451
0.000000 0.398805 0.368015
0.002941 0.255392 0.230882
0.002114 0.361060 0.337010
0.000000 0.371875 0.362623
0.119363 0.381403 0.375705
0.151471 0.374265 0.376471
0.072059 0.264583 0.268444
0.229596 0.382292 0.393321
0.205116 0.332230 0.331618
0.293137 0.377941 0.370098
0.330607 0.361152 0.338388
0.490870 0.469608 0.434007
0.396722 0.306556 0.284926
0.580882 0.430392 0.412745
0.518719 0.313235 0.297365
0.640564 0.387377 0.369914
0.670221 0.370251 0.365012
0.700368 0.350123 0.350858
0.656036 0.263419 0.260355
0.799265 0.366115 0.366850
0.769026 0.288817 0.296599
0.960294 0.467402 0.477451
0.775766 0.207904 0.245312
0.853431 0.261336 0.282537
0.806832 0.148836 0.230790
0.966544 0.353309 0.377696
0.945588 0.252053 0.291820
0.832475 0.029841 0.159191
0.974877 0.339032 0.375705
0.981373 0.376471 0.411765
0.007230 0.219118 0.186520
0.008226 0.406744 0.363871
0.000000 0.283088 0.239346
0.000000 0.371205 0.330201
0.000352 0.331020 0.292448
0.005136 0.453860 0.426337
0.080584 0.454259 0.419876
0.099284 0.420401 0.402738
0.190227 0.432598 0.415717
0.120213 0.339040 0.329128
0.281993 0.442777 0.436910
0.223208 0.367402 0.364319
0.261780 0.380070 0.373836
0.323173 0.402830 0.386041
0.347649 0.375414 0.335493
0.391464 0.360991 0.314897
0.535907 0.444424 0.402390
0.550758 0.396304 0.356258
0.549517 0.327581 0.289959
0.647645 0.377792 0.351448
0.606909 0.300720 0.271538
0.754603 0.392984 0.370102
0.807989 0.396377 0.380047
0.888500 0.461470 0.448514
0.888603 0.394332 0.383915
0.913009 0.382636 0.376260
0.926386 0.356487 0.359865
0.884084 0.266885 0.278347
0.933915 0.302237 0.307230
0.955101 0.335604 0.346971
0.998001 0.460340 0.453952
0.976405 0.284390 0.312795
0.983333 0.247059 0.279902
0.002451 0.410049 0.359804
0.000084 0.478316 0.412646
0.003676 0.397059 0.345757
0.009505 0.460233 0.412056
0.075214 0.485631 0.434069
0.001034 0.373545 0.332246
0.098621 0.486045 0.449740
0.124464 0.434850 0.406641
0.127390 0.379044 0.350735
0.261895 0.482062 0.463503
0.080224 0.311765 0.290686
0.241736 0.403983 0.389369
0.292157 0.424816 0.410110
0.210938 0.326869 0.304481
0.277129 0.357813 0.318796
0.313082 0.341720 0.285218
0.442157 0.402574 0.334436
0.524433 0.421477 0.353018
0.554259 0.381204 0.319256
0.604274 0.380499 0.321285
0.654289 0.375551 0.320435
0.662117 0.335317 0.285823
0.877129 0.495787 0.452405
0.773491 0.356679 0.314108
0.881127 0.442096 0.405821
0.810440 0.307996 0.281028
0.922319 0.380683 0.349433
0.891445 0.306365 0.287155
0.919638 0.308058 0.300919
0.997304 0.463641 0.432077
0.939614 0.283701 0.267096
0.963358 0.283578 0.285654
1.000000 0.277451 0.267892
0.005147 0.361887 0.308211
0.000203 0.402267 0.334295
0.002528 0.433770 0.370833
0.024322 0.555997 0.486267
0.005683 0.434421 0.369853
0.000402 0.467291 0.399571
0.068811 0.497135 0.443206
0.105009 0.469853 0.423652
0.137408 0.450000 0.397978
0.196898 0.444979 0.408146
0.107368 0.357621 0.320941
0.267153 0.450666 0.424946
0.135172 0.294409 0.276654
0.272771 0.406725 0.378523
0.289798 0.400927 0.359651
0.326896 0.394930 0.332881
0.318750 0.333517 0.259681
0.514066 0.464698 0.379113
0.562906 0.453638 0.368712
0.576149 0.405078 0.314679
0.711596 0.474663 0.395343
0.690648 0.396040 0.313431
0.621071 0.269516 0.198790
0.913706 0.517138 0.450226
0.766942 0.328493 0.268045
0.865625 0.392662 0.329377
0.930139 0.426057 0.370749
0.771680 0.212711 0.185547
0.982598 0.470067 0.414583
0.970711 0.387155 0.341295
0.915104 0.321109 0.298093
0.926271 0.289396 0.258908
0.967647 0.334559 0.314216
0.000000 0.398039 0.324510
0.004320 0.516131 0.449004
0.003830 0.495895 0.431403
0.004902 0.428998 0.369914
0.002512 0.407537 0.347426
0.010080 0.437975 0.377956
0.007475 0.341452 0.290717
0.029703 0.364737 0.311351
0.152941 0.453309 0.403922
0.288343 0.559161 0.508257
0.051930 0.318290 0.276225
0.217969 0.428983 0.395267
0.206311 0.387929 0.352574
0.315732 0.458134 0.431265
0.224142 0.353002 0.313695
0.288419 0.395558 0.334191
0.379902 0.443382 0.358578
0.453462 0.452589 0.359589
0.509559 0.445221 0.348070
0.571737 0.453431 0.343781
0.672120 0.487623 0.378493
0.697963 0.458150 0.355086
0.743934 0.446630 0.345037
0.854718 0.501134 0.398039
0.765931 0.364338 0.273652
0.904764 0.458073 0.361627
0.883241 0.415380 0.331005
0.893811 0.382904 0.312132
0.928799 0.387071 0.313419
0.935800 0.354933 0.285156
0.964920 0.363266 0.295741
0.981847 0.442356 0.369393
1.000000 0.422059 0.354902
0.002328 0.533456 0.447917
0.000050 0.376486 0.292417
0.002183 0.523131 0.430369
0.000149 0.490468 0.402424
0.110309 0.528171 0.448652
0.080293 0.492628 0.410137
0.067210 0.458586 0.392517
0.087791 0.481671 0.416992
0.113480 0.440012 0.383211
0.155924 0.466123 0.405833
0.146837 0.429864 0.376294
0.180978 0.421645 0.368091
0.254075 0.444562 0.407935
0.229822 0.403194 0.365273
0.215319 0.368528 0.329305
0.354553 0.484019 0.428527
0.371691 0.456679 0.386029
0.348909 0.391720 0.300088
0.509023 0.499954 0.389300
0.520749 0.455308 0.334896
0.669715 0.544838 0.412561
0.747618 0.566180 0.429121
0.692042 0.452198 0.324387
0.742582 0.440836 0.316563
0.909835 0.545374 0.432077
0.898882 0.531679 0.409911
0.940939 0.488710 0.381541
0.918298 0.425820 0.320401
0.957246 0.449173 0.343168
0.944991 0.436512 0.340763
0.967547 0.390127 0.285179
0.993076 0.417655 0.324303
0.996078 0.482353 0.383578
0.001716 0.567647 0.468627
0.002137 0.498545 0.397909
0.000245 0.491391 0.386106
0.000000 0.536497 0.422044
0.004412 0.405515 0.315104
0.002895 0.474157 0.384926
0.004979 0.418137 0.335463
0.035164 0.471714 0.386665
0.144547 0.505637 0.422488
0.082583 0.424142 0.357116
0.262071 0.535692 0.466284
0.099985 0.390778 0.327405
0.172580 0.396599 0.342770
0.234620 0.421561 0.371147
0.239384 0.401608 0.357292
0.288059 0.435983 0.370512
0.423039 0.540809 0.466422
0.349885 0.430806 0.337646
0.425506 0.468413 0.353952
0.498759 0.482575 0.352183
0.593995 0.517218 0.373989
0.662960 0.522541 0.372809
0.718428 0.528814 0.366115
0.784214 0.528493 0.376417
0.806311 0.493076 0.341850
0.843168 0.485302 0.332996
0.873790 0.458456 0.317708
0.930790 0.485432 0.351164
0.913909 0.410876 0.278646
0.902918 0.369493 0.240502
0.994256 0.488174 0.350061
0.981457 0.401593 0.278707
0.995588 0.548529 0.427696
0.079044 0.647549 0.529902
0.000065 0.499441 0.371841
0.006089 0.491153 0.367846
0.001666 0.535681 0.421002
0.000260 0.534053 0.424157
0.000000 0.435604 0.333563
0.065112 0.528018 0.430499
0.046446 0.483843 0.386263
0.132047 0.512623 0.412714
0.076631 0.439526 0.340958
0.126225 0.453753 0.362079
0.140859 0.452183 0.358479
0.272840 0.511275 0.432353
0.259218 0.471940 0.402321
0.203025 0.384544 0.318260
0.332399 0.482265 0.419045
0.381373 0.512868 0.431311
0.394887 0.503263 0.400326
0.389009 0.463687 0.347564
0.501742 0.529270 0.392161
0.512623 0.485754 0.334881
0.646511 0.558747 0.388545
0.737868 0.593536 0.413434
0.662408 0.462818 0.273752
0.817892 0.563235 0.375766
0.782138 0.469359 0.283804
0.849494 0.491284 0.306403
0.887331 0.463974 0.296695
0.987301 0.584957 0.418398
0.933586 0.433513 0.270933
0.922220 0.437209 0.277688
0.913109 0.383529 0.232629
0.967157 0.398284 0.249020
0.000000 0.464706 0.343137
0.000061 0.475858 0.352757
0.001838 0.442157 0.329779
0.000000 0.519608 0.400735
0.008578 0.432108 0.322549
0.105882 0.575245 0.465012
0.026225 0.460049 0.349020
0.162500 0.549081 0.443015
0.115196 0.518627 0.412255
0.186581 0.541238 0.438664
0.266789 0.591789 0.488480
0.220098 0.525429 0.432537
0.249020 0.491176 0.405147
0.267279 0.507292 0.420588
0.246569 0.439706 0.363848
0.220466 0.384804 0.317463
0.350980 0.498039 0.420588
0.312071 0.444608 0.347733
0.432598 0.542034 0.426225
0.402512 0.473407 0.332966
0.363480 0.395098 0.241176
0.556127 0.532292 0.357047
0.609436 0.514216 0.317892
0.809926 0.650613 0.446385
0.748529 0.546569 0.338235
0.790135 0.526348 0.317892
0.907843 0.595098 0.384926
0.969363 0.618321 0.410172
0.973775 0.556618 0.359069
0.934743 0.488113 0.294730
0.916422 0.431985 0.227696
1.000000 0.541115 0.362316
0.982353 0.419608 0.235294
0.000000 0.463480 0.327206
0.000065 0.542961 0.416165
0.004036 0.398078 0.268880
0.077022 0.528937 0.401731
0.016146 0.527451 0.397595
0.031434 0.530867 0.415219
0.015885 0.436550 0.324349
0.081116 0.517502 0.402777
0.184651 0.546354 0.437377
0.079335 0.422419 0.325073
0.075291 0.445971 0.338251
0.207318 0.539805 0.441173
0.190794 0.498162 0.394256
0.257828 0.506652 0.412868
0.377528 0.591115 0.498660
0.237952 0.429013 0.343961
0.259559 0.431740 0.347672
0.305273 0.461535 0.364116
0.417187 0.550919 0.427742
0.466548 0.570125 0.432269
0.470481 0.534452 0.377099
0.461646 0.475153 0.304002
0.547901 0.515150 0.320542
0.663622 0.565173 0.342352
0.694792 0.541115 0.307077
0.739993 0.533441 0.289170
0.796561 0.537914 0.289484
0.853175 0.544340 0.294187
0.909544 0.562898 0.329151
0.949104 0.602631 0.365453
0.990165 0.560532 0.337967
0.980266 0.492670 0.268202
1.000000 0.520221 0.304534
0.004412 0.549510 0.396569
0.003646 0.535846 0.385915
0.002068 0.474877 0.310478
0.064959 0.568053 0.416759
0.024602 0.495098 0.354565
0.004343 0.484138 0.344278
0.073162 0.560233 0.423162
0.214461 0.631671 0.504948
0.069914 0.477941 0.345895
0.154887 0.553699 0.430346
0.139614 0.531878 0.401731
0.226164 0.582759 0.452811
0.153523 0.463205 0.339185
0.240947 0.516414 0.405086
0.259712 0.498223 0.386994
0.356250 0.558073 0.460608
0.252328 0.433946 0.335539
0.347335 0.513771 0.409942
0.326149 0.479841 0.356020
0.391399 0.516069 0.372419
0.411918 0.506863 0.347089
0.435118 0.493030 0.311880
0.534360 0.543137 0.343244
0.579573 0.531426 0.307146
0.613848 0.514706 0.258027
0.835355 0.662691 0.401677
0.839660 0.626348 0.359819
0.892601 0.614974 0.340763
0.851838 0.535662 0.265104
0.945098 0.585041 0.312301
0.955055 0.595895 0.337224
0.996546 0.607108 0.351585
0.982353 0.662255 0.397059
0.002328 0.415074 0.236887
0.002413 0.623380 0.448503
0.004366 0.573621 0.395159
0.079519 0.632671 0.459892
0.112469 0.612623 0.447901
0.124494 0.575827 0.419118
0.033555 0.540564 0.383977
0.053619 0.547775 0.392827
0.209467 0.624387 0.473346
0.203830 0.595224 0.447549
0.096599 0.481204 0.334513
0.111554 0.530997 0.382043
0.200506 0.541544 0.405009
0.265568 0.576003 0.433532
0.237492 0.505025 0.377742
0.226869 0.471852 0.346549
0.278125 0.479412 0.363235
0.376141 0.546760 0.435643
0.410478 0.573261 0.441153
0.438086 0.585512 0.429385
0.419838 0.542892 0.372089
0.477688 0.562485 0.372461
0.511680 0.559229 0.348307
0.597208 0.594799 0.364894
0.639982 0.588940 0.334712
0.746756 0.627179 0.347266
0.817808 0.648951 0.344638
0.909919 0.682598 0.386294
0.890426 0.621584 0.318214
0.961160 0.653355 0.356051
0.984138 0.635662 0.346592
0.941303 0.552466 0.255725
1.000000 0.625000 0.349510
0.003922 0.433824 0.272549
0.004718 0.613021 0.441314
0.084344 0.603370 0.424112
0.000276 0.499786 0.325490
0.042770 0.588419 0.419240
0.014338 0.568643 0.410539
0.191575 0.652175 0.483487
0.136336 0.593183 0.433532
0.167770 0.617647 0.447426
0.021507 0.522120 0.353768
0.119393 0.554902 0.391667
0.177175 0.589093 0.419256
0.175123 0.553186 0.392525
0.190058 0.543413 0.384298
0.191391 0.499265 0.348713
0.375506 0.634850 0.481419
0.274510 0.493137 0.355147
0.322672 0.515472 0.380959
0.383824 0.553860 0.413511
0.398330 0.559498 0.402512
0.411703 0.557966 0.379289
0.436627 0.549066 0.351869
0.558303 0.643290 0.428186
0.457598 0.493842 0.261259
0.503799 0.504534 0.240196
0.693275 0.637469 0.360907
0.705974 0.591881 0.284743
0.851134 0.670665 0.341422
0.927451 0.699939 0.378431
0.983686 0.769684 0.439507
0.868597 0.550123 0.207935
0.920159 0.647472 0.292494
0.997059 0.720098 0.403922
0.000000 0.524387 0.333333
0.007904 0.601428 0.408663
0.043068 0.602305 0.411305
0.020347 0.555595 0.374219
0.119516 0.633226 0.451639
0.121952 0.623035 0.441889
0.049058 0.566085 0.397189
0.103971 0.593344 0.425157
0.051654 0.490594 0.318995
0.169723 0.632322 0.447710
0.039185 0.503125 0.334896
0.070833 0.528608 0.353405
0.188787 0.581618 0.417249
0.172629 0.536194 0.372438
0.194018 0.517502 0.360348
0.229768 0.521814 0.364668
0.364828 0.605453 0.458211
0.318536 0.514641 0.376501
0.363756 0.550536 0.400513
0.358548 0.534528 0.372813
0.363143 0.523223 0.341131
0.488055 0.620807 0.434214
0.557070 0.660118 0.441422
0.513637 0.585627 0.349989
0.610570 0.634559 0.377114
0.621289 0.594351 0.312906
0.722227 0.655829 0.345404
0.872411 0.733770 0.403274
0.983456 0.838434 0.493581
0.929902 0.691054 0.333253
0.946959 0.685501 0.335585
0.907295 0.595412 0.229305
0.944730 0.655147 0.286887
0.270098 0.786765 0.563235
0.005224 0.438833 0.222197
0.073698 0.642157 0.437500
0.060792 0.628156 0.425498
0.054596 0.613542 0.413695
0.005584 0.535976 0.336244
0.013174 0.512056 0.319317
0.075237 0.626049 0.426815
0.161336 0.661458 0.464583
0.131533 0.610332 0.418183
0.156357 0.614001 0.423775
0.135394 0.584413 0.390388
0.085018 0.542708 0.352083
0.106304 0.487469 0.296684
0.236734 0.572304 0.386320
0.181932 0.499441 0.319593
0.342770 0.601103 0.426838
0.358969 0.582705 0.417632
0.347702 0.544470 0.380653
0.373323 0.561275 0.387286
0.355515 0.531710 0.345588
0.476072 0.632146 0.422534
0.443137 0.569730 0.339951
0.493696 0.587714 0.346101
0.645956 0.714216 0.444730
0.635455 0.649793 0.366069
0.864813 0.834206 0.530239
0.669776 0.591406 0.236535
0.810233 0.676134 0.289308
0.842371 0.656633 0.258349
0.964001 0.734988 0.334375
0.998468 0.742823 0.349671
0.961029 0.657353 0.261765
0.249387 0.775735 0.530515
0.000708 0.585604 0.342015
0.012056 0.579197 0.337232
0.020990 0.600885 0.366468
0.106311 0.653539 0.425429
0.116138 0.602087 0.379783
0.034076 0.463986 0.232085
0.121925 0.634459 0.413752
0.084344 0.635662 0.404013
0.120730 0.645366 0.419148
0.136535 0.596423 0.376333
0.233322 0.692597 0.467720
0.162561 0.621936 0.400705
0.248614 0.634750 0.425276
0.269516 0.621232 0.410133
0.299789 0.620198 0.412952
0.386642 0.662255 0.462623
0.281330 0.552941 0.357736
0.414775 0.631143 0.445795
0.405810 0.595075 0.406629
0.418735 0.597289 0.395527
0.452914 0.610501 0.390292
0.505047 0.651026 0.408571
0.508659 0.629565 0.369941
0.684559 0.765594 0.490349
0.692712 0.741617 0.448606
0.557958 0.571002 0.241590
0.694183 0.655434 0.300804
0.790763 0.697151 0.327558
0.871155 0.726754 0.326160
0.808303 0.634804 0.144631
0.950693 0.728496 0.298177
0.883824 0.617647 0.154289
0.252941 0.745098 0.484314
0.001900 0.639400 0.381832
0.021630 0.613909 0.366728
0.002665 0.647181 0.399112
0.000000 0.613603 0.362255
0.218536 0.761826 0.508364
0.164645 0.663174 0.412255
0.048897 0.581526 0.339400
0.103676 0.638971 0.397549
0.040717 0.525031 0.277665
0.140012 0.672917 0.423162
0.077727 0.600551 0.363817
0.143382 0.627083 0.375613
0.311244 0.701654 0.460049
0.268627 0.641605 0.407843
0.318873 0.644179 0.414277
0.417647 0.708333 0.482353
0.341176 0.602849 0.380362
0.376838 0.609375 0.382659
0.379044 0.582108 0.366820
0.524142 0.711642 0.492279
0.521324 0.696017 0.462592
0.451103 0.603676 0.350368
0.563664 0.694975 0.420466
0.647549 0.764216 0.465931
0.671967 0.748744 0.440962
0.651103 0.687377 0.362623
0.748529 0.743750 0.393750
0.669975 0.624755 0.225980
0.843750 0.756771 0.364583
0.703676 0.572426 0.061642
0.860172 0.669118 0.192371
0.969608 0.803922 0.345098
0.230637 0.760907 0.493873
0.001287 0.670079 0.393225
0.024985 0.570420 0.305645
0.078519 0.713423 0.444838
0.023162 0.466575 0.205392
0.018509 0.650578 0.387887
0.063450 0.665242 0.407966
0.002769 0.633383 0.384804
0.138082 0.702727 0.445374
0.004052 0.619991 0.363477
0.214874 0.743543 0.490916
0.139185 0.628818 0.382594
0.148192 0.631633 0.376746
0.183912 0.615970 0.363944
0.323820 0.697526 0.446821
0.324690 0.670653 0.426777
0.212010 0.539767 0.295343
0.460865 0.731070 0.493796
0.401088 0.648078 0.420152
0.423870 0.643903 0.415594
0.469210 0.671875 0.439583
0.531801 0.716556 0.467122
0.494171 0.668574 0.401203
0.514120 0.662887 0.381284
0.570680 0.695037 0.397028
0.470791 0.570837 0.243838
0.642210 0.713664 0.378937
0.710329 0.732085 0.374445
0.530070 0.517402 0.090947
0.774491 0.718689 0.312883
0.748729 0.638833 0.177543
0.745052 0.600686 0.057747
1.000000 0.837255 0.361520
0.000000 0.554167 0.246814
0.017333 0.693015 0.387477
0.012929 0.581878 0.271124
0.022005 0.685570 0.394286
0.016942 0.613327 0.317402
0.033854 0.689239 0.403952
0.083241 0.714338 0.424112
0.041820 0.628776 0.341276
0.016850 0.582230 0.302941
0.029665 0.645810 0.364468
0.063159 0.654121 0.363143
0.157384 0.685578 0.403853
0.266452 0.714338 0.441115
0.183042 0.640893 0.362385
0.298667 0.692862 0.423912
0.409551 0.763128 0.494593
0.418137 0.730147 0.460539
0.460325 0.747871 0.484812
0.413756 0.669164 0.410754
0.544041 0.769638 0.514422
0.509926 0.710172 0.458456
0.455836 0.651915 0.375169
0.536504 0.715365 0.427589
0.558869 0.728385 0.423100
0.567157 0.709007 0.395159
0.600498 0.717555 0.379205
