public/luts/dune.cube
#Generated with IWLTBAP LUT Generator 2.1.9571.30596
#Website: https://luts.iwltbap.com
TITLE "LUT convert"
LUT_3D_SIZE 33
0.247059 0.180392 0.070588
0.247059 0.187990 0.074387
0.247059 0.188235 0.074510
0.262377 0.195711 0.093750
0.287255 0.196569 0.101471
0.325735 0.202696 0.113113
0.361029 0.203922 0.117647
0.395711 0.218750 0.127696
0.419608 0.225490 0.130392
0.450490 0.227451 0.133333
0.478676 0.237990 0.146569
0.514828 0.243137 0.154167
0.544608 0.248039 0.155392
0.582598 0.254902 0.161520
0.616176 0.258824 0.162500
0.651716 0.266912 0.170956
0.688235 0.272549 0.172549
0.718995 0.280270 0.180392
0.750735 0.285784 0.188235
0.765564 0.293382 0.184314
0.792647 0.304902 0.192157
0.811887 0.308578 0.194853
0.831127 0.322794 0.202451
0.846446 0.329412 0.212868
0.861765 0.335294 0.218627
0.879289 0.349877 0.224387
0.893137 0.361520 0.238235
0.918260 0.377083 0.263358
0.929902 0.389216 0.274020
0.941912 0.404657 0.279167
0.957108 0.419853 0.294363
0.961152 0.431985 0.306618
0.988235 0.466667 0.345098
0.235539 0.211029 0.085907
0.246814 0.222672 0.097426
0.257973 0.234314 0.108946
0.285038 0.242636 0.124866
0.304611 0.246109 0.132721
0.341789 0.243260 0.137952
0.377351 0.239047 0.144462
0.405147 0.250559 0.151865
0.426593 0.249939 0.149020
0.456706 0.254745 0.159559
0.486688 0.261359 0.168758
0.518834 0.265116 0.169857
0.553401 0.267570 0.173943
0.585662 0.270466 0.177941
0.618260 0.278799 0.176348
0.651773 0.282525 0.184486
0.688174 0.288235 0.184314
0.718938 0.295898 0.192099
0.744256 0.303608 0.197794
0.767230 0.311470 0.207081
0.788756 0.324219 0.211688
0.805595 0.326758 0.214461
0.828585 0.338274 0.220833
0.849318 0.348897 0.224774
0.860815 0.354718 0.233211
0.876225 0.363454 0.243899
0.898775 0.377206 0.255637
0.911049 0.389442 0.267892
0.927053 0.404289 0.282338
0.941188 0.412489 0.294240
0.949517 0.427704 0.298415
0.964828 0.443746 0.321818
0.976716 0.478186 0.352941
0.250245 0.242157 0.093873
0.261527 0.253439 0.101593
0.280653 0.258073 0.116682
0.303500 0.254779 0.121224
0.319638 0.258578 0.129167
0.349671 0.261719 0.140234
0.377696 0.258333 0.148131
0.406074 0.262010 0.149824
0.436826 0.260355 0.155699
0.460800 0.265388 0.160470
0.488971 0.268949 0.162500
0.523614 0.270504 0.174877
0.549357 0.275184 0.173192
0.585685 0.278332 0.174334
0.619746 0.285922 0.181756
0.653309 0.292034 0.184069
0.684436 0.297549 0.187990
0.722802 0.307345 0.199755
0.744822 0.311412 0.203922
0.761343 0.322227 0.209482
0.787714 0.330392 0.215165
0.806863 0.337010 0.217854
0.829733 0.344593 0.221967
0.851769 0.353730 0.227206
0.863603 0.359926 0.234436
0.879098 0.373162 0.251348
0.895542 0.382751 0.263235
0.911359 0.399831 0.274916
0.928983 0.408793 0.285784
0.930637 0.420098 0.287010
0.946063 0.434835 0.302466
0.961619 0.451210 0.326088
0.980637 0.482108 0.356863
0.269853 0.261275 0.101593
0.284827 0.272917 0.106016
0.297158 0.276961 0.113113
0.317210 0.281216 0.128711
0.335585 0.277819 0.127114
0.358578 0.280384 0.143620
0.388549 0.278294 0.152206
0.416219 0.277248 0.153719
0.441973 0.274050 0.158548
0.464809 0.277064 0.158521
0.491544 0.280760 0.162117
0.529052 0.284318 0.172070
0.556235 0.288128 0.170006
0.584122 0.295492 0.175885
0.618873 0.299510 0.180676
0.653922 0.303481 0.184337
0.689645 0.309252 0.190380
0.717869 0.316667 0.197894
0.740816 0.324472 0.204082
0.767008 0.330637 0.203772
0.790074 0.337990 0.217249
0.808207 0.345952 0.218256
0.829902 0.358211 0.225751
0.848162 0.365074 0.236029
0.862929 0.372886 0.245251
0.877371 0.387500 0.255392
0.898476 0.392593 0.267103
0.911585 0.404779 0.279289
0.925613 0.415809 0.290319
0.936589 0.427118 0.301628
0.949188 0.439315 0.313848
0.961140 0.455124 0.329645
0.976838 0.485907 0.360417
0.278431 0.272549 0.081373
0.290794 0.276838 0.089461
0.308395 0.286826 0.100031
0.336382 0.288235 0.112331
0.363848 0.295098 0.129044
0.397457 0.295175 0.138940
0.418474 0.295251 0.137960
0.436198 0.294501 0.134835
0.461642 0.288480 0.145221
0.487883 0.290824 0.149847
0.513174 0.290931 0.151072
0.543168 0.294776 0.150368
0.571936 0.297855 0.153431
0.602328 0.298116 0.162010
0.638235 0.303983 0.165472
0.669853 0.306020 0.167540
0.695588 0.312010 0.166176
0.725368 0.314583 0.173775
0.748989 0.321875 0.183303
0.769485 0.329534 0.187086
0.793627 0.336826 0.198162
0.811229 0.340196 0.208012
0.831587 0.349265 0.215411
0.845818 0.360769 0.219271
0.860784 0.366667 0.222059
0.879274 0.374050 0.233961
0.897886 0.381036 0.244853
0.913434 0.396324 0.258931
0.922426 0.407353 0.261703
0.940395 0.419317 0.283532
0.951256 0.430208 0.294363
0.962883 0.446032 0.309406
0.978431 0.471078 0.345588
0.317892 0.321201 0.096201
0.337848 0.341751 0.114970
0.350000 0.345343 0.127045
0.370833 0.348955 0.135662
0.392509 0.346446 0.157184
0.426566 0.345439 0.164610
0.455400 0.341651 0.170090
0.468003 0.335528 0.159325
0.482935 0.333058 0.158119
0.501961 0.328236 0.162550
0.526976 0.323460 0.159138
0.554569 0.319328 0.151593
0.584651 0.320941 0.165885
0.613599 0.322672 0.173162
0.641713 0.326471 0.176616
0.668915 0.331782 0.176758
0.695343 0.334375 0.182659
0.727696 0.339457 0.188480
0.755614 0.342770 0.190219
0.775984 0.349387 0.197672
0.797809 0.351945 0.202681
0.815598 0.358000 0.207633
0.833211 0.367172 0.219799
0.844853 0.372695 0.227769
0.861918 0.380147 0.234988
0.883456 0.388591 0.241142
0.898897 0.396936 0.251838
0.914338 0.411152 0.266667
0.926547 0.422718 0.283272
0.937377 0.430572 0.280400
0.948897 0.439093 0.297917
0.965054 0.455476 0.315667
0.981005 0.482966 0.346936
0.357108 0.364216 0.119363
0.373284 0.380392 0.135539
0.381970 0.382016 0.140349
0.400176 0.377888 0.151838
0.419363 0.371722 0.162347
0.446324 0.370343 0.170466
0.467509 0.367019 0.175597
0.487707 0.362623 0.170665
0.496385 0.365135 0.161458
0.511313 0.364262 0.159727
0.535999 0.358563 0.154856
0.563113 0.355890 0.154067
0.589798 0.349203 0.162561
0.623529 0.350299 0.176593
0.648698 0.352451 0.178600
0.671423 0.355392 0.170443
0.700735 0.359804 0.180392
0.730660 0.360417 0.186006
0.753845 0.362500 0.189951
0.775138 0.366123 0.191858
0.793168 0.372089 0.199357
0.809544 0.379534 0.204649
0.828906 0.383104 0.212990
0.845343 0.390158 0.221446
0.862745 0.397733 0.232721
0.886144 0.403309 0.242685
0.899372 0.414813 0.254764
0.911267 0.426478 0.266544
0.920987 0.432782 0.271752
0.941176 0.439216 0.287745
0.953232 0.449801 0.299066
0.961765 0.466399 0.311987
0.974020 0.494118 0.343382
0.380882 0.388725 0.133824
0.400176 0.402083 0.150149
0.408142 0.405461 0.151225
0.422794 0.401716 0.159149
0.442034 0.397166 0.170221
0.461665 0.396224 0.177719
0.482927 0.392111 0.182024
0.505327 0.391977 0.174943
0.519761 0.394179 0.170374
0.533578 0.392888 0.168252
0.552428 0.394485 0.162600
0.572622 0.391226 0.157747
0.602911 0.389338 0.160064
0.627838 0.385539 0.165403
0.653684 0.379542 0.176103
0.683421 0.375333 0.182598
0.709620 0.376287 0.184988
0.730706 0.383176 0.187990
0.754167 0.387002 0.193398
0.771653 0.389583 0.196975
0.794654 0.391820 0.203998
0.815809 0.393405 0.213308
0.831449 0.400758 0.223039
0.852083 0.407230 0.234681
0.863848 0.409620 0.237837
0.881005 0.418750 0.250793
0.893099 0.424717 0.259153
0.913614 0.437389 0.269619
0.922763 0.445450 0.278171
0.937703 0.452777 0.288928
0.949372 0.464338 0.304465
0.961860 0.477083 0.319118
0.973407 0.501103 0.356005
0.428431 0.416667 0.150980
0.448560 0.431097 0.165411
0.453676 0.428676 0.166667
0.468505 0.424510 0.171109
0.478064 0.426961 0.169730
0.495374 0.423529 0.174877
0.514400 0.421017 0.172794
0.530852 0.416330 0.168627
0.543627 0.423284 0.158088
0.563358 0.423652 0.155729
0.572733 0.420282 0.146814
0.597212 0.426103 0.144455
0.623284 0.423284 0.136642
0.648744 0.412194 0.140564
0.662255 0.406618 0.146569
0.685723 0.400919 0.155484
0.707843 0.397549 0.157353
0.733487 0.400061 0.163266
0.759436 0.396201 0.171630
0.776563 0.398438 0.173162
0.800858 0.402328 0.181985
0.813480 0.404933 0.186642
0.833150 0.407169 0.197610
0.846998 0.412868 0.208487
0.864461 0.412990 0.219608
0.879044 0.421446 0.230484
0.894853 0.429167 0.238971
0.909069 0.442463 0.253646
0.920711 0.448897 0.267647
0.933088 0.458487 0.281036
0.950245 0.465931 0.291789
0.961887 0.477788 0.309406
0.970588 0.493137 0.335294
0.462255 0.454412 0.161397
0.490319 0.488113 0.197917
0.501225 0.493735 0.203539
0.516422 0.490074 0.207353
0.523759 0.485662 0.208946
0.539020 0.473529 0.205637
0.546078 0.465280 0.197840
0.560298 0.456131 0.189223
0.573836 0.454687 0.179289
0.587745 0.456307 0.174885
0.593750 0.457108 0.170565
0.606484 0.459436 0.163281
0.627941 0.461581 0.146324
0.650697 0.457024 0.140074
0.673415 0.447181 0.147174
0.698679 0.436642 0.158578
0.718811 0.430025 0.159375
0.737745 0.427030 0.159287
0.762623 0.426348 0.173162
0.781457 0.422469 0.177616
0.797273 0.425199 0.185738
0.810172 0.425245 0.192402
0.833824 0.425245 0.200123
0.850850 0.427141 0.208464
0.863725 0.433364 0.219179
0.880147 0.439212 0.233330
0.895795 0.445060 0.243390
0.911202 0.452696 0.256618
0.923300 0.457246 0.265181
0.932250 0.466196 0.279063
0.946798 0.469730 0.289254
0.966613 0.484436 0.314216
0.979289 0.500858 0.340074
0.489216 0.481373 0.181863
0.520136 0.512293 0.212783
0.525735 0.517892 0.223775
0.539323 0.516529 0.221446
0.543964 0.508395 0.217647
0.552574 0.498897 0.214461
0.565441 0.488986 0.205438
0.577773 0.482498 0.196032
0.594056 0.480331 0.193995
0.601616 0.479090 0.181028
0.616850 0.484528 0.175460
0.629044 0.489759 0.174020
0.634375 0.488511 0.171324
0.657973 0.496837 0.160195
0.683824 0.491713 0.142065
0.703064 0.476838 0.149226
0.723652 0.465074 0.163971
0.740970 0.457514 0.162906
0.760784 0.451517 0.165196
0.781480 0.447312 0.170818
0.798346 0.441697 0.181097
0.815847 0.444608 0.196500
0.832981 0.443382 0.201225
0.851080 0.447649 0.209291
0.863725 0.452451 0.219547
0.878041 0.456373 0.232230
0.895588 0.463986 0.246798
0.914147 0.466284 0.257161
0.927420 0.474571 0.267647
0.937852 0.480155 0.283946
0.947794 0.481373 0.288971
0.959888 0.497105 0.311604
0.976471 0.520343 0.339706
0.516176 0.512255 0.198529
0.540686 0.535459 0.225651
0.550161 0.539744 0.232636
0.559812 0.537385 0.233831
0.560815 0.526670 0.226915
0.571622 0.521324 0.220098
0.581365 0.514338 0.211887
0.595883 0.508234 0.202378
0.608364 0.509252 0.199571
0.620699 0.505515 0.194730
0.633264 0.512255 0.189882
0.647698 0.516176 0.181277
0.658701 0.520741 0.182889
0.667900 0.520898 0.180335
0.692356 0.524609 0.168237
0.712132 0.519240 0.157230
0.730025 0.507598 0.157537
0.749349 0.493382 0.167241
0.766736 0.487109 0.175391
0.782230 0.474567 0.178562
0.797212 0.469501 0.184482
0.813576 0.469118 0.191816
0.825138 0.468436 0.197426
0.848139 0.468616 0.213002
0.865074 0.472457 0.224540
0.882158 0.476693 0.239511
0.896201 0.478562 0.252459
0.907652 0.484823 0.260872
0.925720 0.489920 0.273989
0.940449 0.493137 0.284678
0.949180 0.499426 0.297021
0.959521 0.509969 0.315483
0.972549 0.529289 0.347549
0.556863 0.525490 0.191176
0.567923 0.539491 0.203707
0.568781 0.538971 0.207322
0.572319 0.540947 0.206909
0.580760 0.537255 0.201838
0.589844 0.532843 0.200980
0.601716 0.528002 0.195159
0.613358 0.525322 0.189951
0.629044 0.524265 0.188480
0.640564 0.526394 0.187454
0.645833 0.528217 0.181127
0.658578 0.532981 0.171461
0.667279 0.538725 0.173529
0.672794 0.537745 0.172258
0.688480 0.540196 0.164553
0.709360 0.543597 0.157690
0.735784 0.534804 0.145588
0.756296 0.522350 0.146982
0.768811 0.513480 0.156955
0.784972 0.503309 0.167096
0.799081 0.497488 0.172978
0.809911 0.487745 0.175352
0.829871 0.485294 0.182108
0.845665 0.482154 0.193459
0.865564 0.484559 0.203309
0.877528 0.490686 0.215319
0.891942 0.490686 0.234069
0.912010 0.494991 0.250613
0.923713 0.498713 0.261029
0.938741 0.506235 0.273238
0.950245 0.509069 0.287010
0.961964 0.518336 0.306725
0.970588 0.529902 0.328431
0.574020 0.546569 0.201471
0.602646 0.575195 0.230097
0.606886 0.581863 0.236765
0.607135 0.579684 0.234586
0.610907 0.571691 0.224050
0.617525 0.564461 0.218750
0.623093 0.559926 0.215127
0.631598 0.552206 0.208127
0.645037 0.548529 0.197763
0.654086 0.544769 0.189947
0.664576 0.547664 0.186864
0.670523 0.552083 0.183088
0.679335 0.555530 0.182307
0.689775 0.555270 0.177554
0.698460 0.556702 0.172672
0.708211 0.562711 0.169217
0.732169 0.565380 0.165012
0.753041 0.553064 0.151337
0.772059 0.543260 0.152451
0.788883 0.533211 0.164269
0.805852 0.527344 0.178278
0.817034 0.517222 0.183766
0.834191 0.510049 0.184314
0.846936 0.504576 0.187174
0.862163 0.503248 0.195864
0.879864 0.502696 0.208192
0.895152 0.506059 0.225437
0.911037 0.514461 0.244114
0.921354 0.515855 0.254289
0.935443 0.518601 0.265441
0.945688 0.518673 0.277229
0.960294 0.526471 0.296936
0.970221 0.539583 0.319240
0.590931 0.569608 0.217892
0.615878 0.592417 0.247112
0.623912 0.600383 0.255285
0.624387 0.596936 0.247840
0.628860 0.591575 0.239124
0.627597 0.585149 0.233578
0.637178 0.577696 0.226486
0.645833 0.571699 0.216651
0.656863 0.567647 0.212745
0.667027 0.565816 0.206618
0.673820 0.571860 0.204121
0.683165 0.572771 0.194148
0.694945 0.577022 0.195251
0.704366 0.573935 0.192525
0.711259 0.579856 0.194577
0.717877 0.582828 0.190671
0.737255 0.590074 0.190074
0.754534 0.589445 0.180829
0.772534 0.579182 0.175245
0.791008 0.566498 0.168505
0.805147 0.558946 0.176072
0.818972 0.550368 0.184804
0.831618 0.540395 0.192111
0.848032 0.532598 0.201463
0.860662 0.526593 0.205025
0.877574 0.524372 0.209291
0.894853 0.528585 0.225398
0.911175 0.533479 0.240709
0.917831 0.531618 0.250460
0.935830 0.535585 0.271002
0.945695 0.537745 0.280882
0.960892 0.541858 0.298951
0.972059 0.555637 0.323284
0.613848 0.590564 0.233701
0.633448 0.609689 0.254902
0.641199 0.613978 0.260922
0.642965 0.610516 0.259241
0.641820 0.608073 0.255407
0.646078 0.603879 0.250900
0.654412 0.600444 0.237768
0.656721 0.592593 0.226471
0.673713 0.590564 0.224877
0.686983 0.591150 0.227941
0.693137 0.591828 0.220581
0.703347 0.594975 0.216016
0.709268 0.599464 0.212791
0.715453 0.602083 0.213994
0.720098 0.606373 0.214216
0.734800 0.605143 0.214825
0.739461 0.604167 0.212010
0.753443 0.607227 0.210417
0.776417 0.613151 0.204534
0.790330 0.600624 0.189805
0.807644 0.590548 0.178554
0.821672 0.581373 0.189668
0.836351 0.573729 0.200689
0.853772 0.562703 0.214610
0.868045 0.557751 0.220650
0.876279 0.552049 0.222848
0.892057 0.549900 0.234827
0.911317 0.552780 0.245833
0.921584 0.547886 0.251134
0.933506 0.551275 0.269512
0.943520 0.553071 0.277214
0.957043 0.557165 0.294478
0.970466 0.566789 0.317647
0.627451 0.596078 0.217647
0.639032 0.605760 0.227328
0.643015 0.607721 0.235172
0.646875 0.608027 0.231924
0.646814 0.607598 0.234559
0.655944 0.605882 0.233027
0.665196 0.604657 0.230147
0.671691 0.605025 0.227880
0.680392 0.602451 0.226471
0.691360 0.598591 0.224081
0.702083 0.605270 0.222304
0.706495 0.608456 0.220282
0.717647 0.610294 0.213971
0.725061 0.616850 0.216850
0.735539 0.617647 0.218505
0.741422 0.617647 0.215564
0.750980 0.618627 0.216667
0.757659 0.619730 0.217647
0.770098 0.624387 0.220956
0.789032 0.630576 0.219179
0.803676 0.622549 0.205882
0.821630 0.608456 0.195466
0.835172 0.601348 0.204412
0.846752 0.595527 0.220404
0.861765 0.592647 0.229412
0.877328 0.585417 0.233333
0.893260 0.573775 0.237990
0.909375 0.571630 0.246324
0.924510 0.568382 0.257598
0.931924 0.566850 0.270956
0.945343 0.570711 0.279044
0.953248 0.576532 0.296446
0.968627 0.584314 0.317647
0.648652 0.609436 0.226961
0.660286 0.628799 0.242459
0.666161 0.630882 0.248522
0.670565 0.629362 0.249020
0.671982 0.623514 0.243168
0.675410 0.624835 0.242279
0.676302 0.618015 0.232161
0.681951 0.615843 0.227872
0.687929 0.616299 0.225214
0.695764 0.615958 0.223487
0.707759 0.616222 0.221775
0.717582 0.615441 0.221362
0.726547 0.622273 0.222718
0.731396 0.625222 0.220064
0.739913 0.630323 0.225123
0.745960 0.635294 0.226831
0.754657 0.632047 0.222243
0.767161 0.634072 0.226360
0.775038 0.635960 0.226294
0.785662 0.643294 0.229890
0.801180 0.647243 0.224464
0.821098 0.639951 0.214725
0.835256 0.629695 0.212132
0.853772 0.618206 0.211125
0.868168 0.615778 0.223468
0.876873 0.610015 0.235049
0.892448 0.602696 0.245810
0.911355 0.597465 0.256821
0.924893 0.592969 0.261535
0.937845 0.585489 0.263090
0.949510 0.582230 0.272917
0.955270 0.584314 0.282786
0.968873 0.597917 0.302206
0.667892 0.636520 0.252206
0.679534 0.646500 0.267172
0.681863 0.648775 0.269608
0.681863 0.650329 0.266498
0.681801 0.643137 0.262469
0.685248 0.635072 0.258333
0.689384 0.635126 0.254412
0.693252 0.631258 0.246569
0.700184 0.632169 0.247855
0.710761 0.630124 0.242371
0.723912 0.632246 0.242295
0.729021 0.632698 0.239093
0.738419 0.637898 0.243290
0.743627 0.642969 0.242233
0.755346 0.649464 0.241131
0.758594 0.650368 0.245550
0.768137 0.648529 0.246569
0.776785 0.652328 0.245305
0.784789 0.655377 0.247044
0.789139 0.658333 0.250697
0.797335 0.661183 0.255208
0.814683 0.663212 0.252574
0.832307 0.659850 0.248085
0.852091 0.647664 0.237485
0.863419 0.643934 0.235968
0.877574 0.639583 0.250866
0.888572 0.632184 0.260049
0.908701 0.624410 0.278140
0.919118 0.621569 0.288297
0.930430 0.614782 0.283862
0.940058 0.608824 0.281863
0.954971 0.601294 0.282054
0.968627 0.607353 0.299755
0.685539 0.652574 0.273039
0.693260 0.658038 0.285271
0.697158 0.661864 0.289315
0.697304 0.662010 0.289461
0.695711 0.656893 0.276302
0.700000 0.650858 0.273775
0.703416 0.652574 0.270152
0.707315 0.648775 0.270201
0.717096 0.648468 0.264951
0.724797 0.648572 0.267076
0.734796 0.649517 0.262278
0.742712 0.651291 0.265629
0.752788 0.651854 0.262347
0.756863 0.660417 0.266877
0.760662 0.665809 0.265518
0.764461 0.667915 0.266433
0.772978 0.667892 0.267953
0.780404 0.669707 0.271802
0.789101 0.673483 0.276961
0.793153 0.673338 0.278554
0.805116 0.673851 0.280469
0.813668 0.677696 0.280637
0.832728 0.682483 0.283571
0.845136 0.679779 0.276922
0.859406 0.675582 0.270925
0.876735 0.667337 0.271569
0.893696 0.662569 0.282054
0.909184 0.654898 0.297664
0.918275 0.646783 0.303952
0.930595 0.641081 0.305526
0.941567 0.633724 0.302229
0.955392 0.628259 0.304462
0.969363 0.629902 0.316176
0.690196 0.657843 0.268627
0.698897 0.664170 0.282077
0.701225 0.666422 0.284559
0.709084 0.666896 0.282062
0.706863 0.665502 0.278493
0.711259 0.666544 0.279289
0.713848 0.665165 0.271814
0.721569 0.664706 0.273529
0.727451 0.663971 0.276103
0.737347 0.661964 0.276471
0.748499 0.666422 0.277696
0.756143 0.667004 0.279887
0.759804 0.669056 0.279718
0.767907 0.676241 0.285064
0.772947 0.679902 0.288725
0.776792 0.682675 0.286596
0.785294 0.686520 0.292402
0.790104 0.686673 0.294516
0.794700 0.687837 0.296324
0.805132 0.691866 0.300184
0.811275 0.690686 0.303064
0.816422 0.692295 0.309819
0.829718 0.695833 0.315778
0.844087 0.703140 0.318260
0.858946 0.700735 0.318137
0.872472 0.694807 0.309926
0.887960 0.687010 0.310233
0.904657 0.681143 0.318597
0.914032 0.677328 0.322365
0.927328 0.667907 0.334773
0.942739 0.665288 0.342984
0.954534 0.657966 0.344975
0.962255 0.660784 0.357843
0.711275 0.677328 0.285294
0.716464 0.682518 0.290483
0.720343 0.686397 0.294363
0.720470 0.683827 0.293141
0.724954 0.679197 0.289583
0.726750 0.679691 0.290231
0.727091 0.677459 0.280155
0.734118 0.676643 0.283261
0.741912 0.673928 0.281801
0.749609 0.671936 0.283322
0.756181 0.675138 0.280584
0.763480 0.677206 0.281127
0.769516 0.683241 0.284589
0.776708 0.687305 0.289453
0.782667 0.691544 0.293650
0.789989 0.694278 0.300490
0.796752 0.700735 0.306679
0.801348 0.704657 0.311359
0.811006 0.705247 0.315663
0.814403 0.706553 0.318015
0.824035 0.708578 0.327129
0.833525 0.709926 0.329998
0.836098 0.710731 0.331687
0.846312 0.716176 0.338480
0.858517 0.723621 0.345251
0.872572 0.717965 0.341226
0.888228 0.709697 0.335057
0.905760 0.701892 0.334593
0.916376 0.699510 0.335095
0.925984 0.693873 0.347794
0.937584 0.688725 0.350812
0.946772 0.682475 0.356005
0.964828 0.686397 0.372672
0.727941 0.692647 0.320098
0.735700 0.700406 0.327857
0.735784 0.700490 0.330392
0.736895 0.700490 0.327941
0.735784 0.696569 0.314124
0.740548 0.692839 0.310784
0.740702 0.693413 0.309559
0.747549 0.692647 0.306863
0.753186 0.691054 0.307047
0.760953 0.690365 0.306051
0.765686 0.692647 0.309559
0.771584 0.695604 0.310447
0.776900 0.700153 0.307629
0.782123 0.701585 0.313971
0.791667 0.703079 0.328523
0.801394 0.708502 0.329167
0.807721 0.717525 0.331618
0.807560 0.717532 0.334237
0.813526 0.720098 0.337163
0.821331 0.721821 0.342655
0.825521 0.723560 0.345619
0.833402 0.724985 0.351049
0.839813 0.726088 0.359911
0.845466 0.731740 0.365564
0.855208 0.733211 0.371875
0.868972 0.738848 0.378041
0.887485 0.736504 0.372748
0.903416 0.729779 0.366720
0.914124 0.724571 0.361029
0.925973 0.717034 0.363971
0.940028 0.709314 0.371569
0.946615 0.701754 0.387010
0.963480 0.705637 0.400980
0.747304 0.712010 0.341667
0.751137 0.715843 0.353274
0.751225 0.715931 0.353431
0.750123 0.714828 0.350123
0.751700 0.712975 0.333839
0.752991 0.706641 0.328627
0.755630 0.705270 0.328592
0.761029 0.708464 0.328558
0.765931 0.705699 0.329626
0.773472 0.705752 0.332410
0.779090 0.705614 0.333824
0.785172 0.710662 0.339216
0.791146 0.713496 0.342739
0.797836 0.718302 0.347959
0.799387 0.719853 0.349510
0.812132 0.721936 0.354412
0.817892 0.724877 0.355392
0.821569 0.729017 0.355270
0.827099 0.733203 0.365809
0.831821 0.734842 0.369033
0.834635 0.732721 0.371369
0.841288 0.737611 0.381851
0.846178 0.742502 0.386742
0.854902 0.742149 0.389518
0.861183 0.744363 0.396722
0.872920 0.748403 0.408330
0.889024 0.756426 0.411933
0.895343 0.751888 0.405687
0.906388 0.746599 0.404672
0.921936 0.738932 0.397407
0.930078 0.730078 0.393926
0.944152 0.728676 0.403309
0.958578 0.725980 0.412255
0.753922 0.723529 0.359804
0.758793 0.728401 0.367616
0.757843 0.727451 0.366667
0.764890 0.725674 0.367831
0.766422 0.728431 0.364706
0.767494 0.723376 0.357629
0.767647 0.723529 0.361642
0.777145 0.724173 0.366667
0.779167 0.725735 0.363725
0.785876 0.728002 0.365686
0.788603 0.726777 0.365686
0.796078 0.727451 0.369608
0.802941 0.728431 0.373039
0.810386 0.732935 0.379013
0.812990 0.735539 0.381618
0.817310 0.739859 0.385938
0.823039 0.745588 0.385294
0.828768 0.747457 0.390074
0.831495 0.749142 0.393137
0.837255 0.751961 0.398039
0.845833 0.753799 0.402328
0.849050 0.754933 0.403952
0.851900 0.757782 0.412684
0.861060 0.760509 0.420282
0.862990 0.761520 0.426471
0.866973 0.763725 0.431036
0.883456 0.764277 0.437990
0.892770 0.770129 0.448039
0.901471 0.770711 0.450000
0.912684 0.764614 0.444393
0.927941 0.759559 0.447059
0.939461 0.754902 0.447243
0.950980 0.758824 0.459804
0.772059 0.744608 0.388603
0.778091 0.750640 0.399265
0.784789 0.748721 0.400368
0.782315 0.746117 0.391464
0.778033 0.744133 0.388235
0.779523 0.743371 0.388224
0.784023 0.743750 0.383249
0.785842 0.743080 0.383824
0.794975 0.745313 0.382292
0.797553 0.745715 0.381376
0.804144 0.744998 0.388526
0.809264 0.742892 0.390541
0.819225 0.747350 0.397396
0.825348 0.750509 0.400820
0.829550 0.753692 0.405530
0.827731 0.759858 0.409034
0.831556 0.764890 0.415870
0.843034 0.769485 0.420554
0.848292 0.769861 0.429542
0.854902 0.770343 0.433088
0.857384 0.777497 0.438480
0.860271 0.781250 0.441226
0.866376 0.778186 0.441789
0.874755 0.780630 0.446810
0.880515 0.781679 0.452788
0.881675 0.780580 0.460539
0.888565 0.783004 0.466912
0.893003 0.790185 0.465062
0.904090 0.797610 0.473146
0.921078 0.786520 0.467034
0.929795 0.779044 0.469907
0.945738 0.773012 0.470274
0.954289 0.779902 0.479657
0.792892 0.764706 0.421814
0.793627 0.765441 0.422549
0.793627 0.765441 0.422549
0.792961 0.764775 0.421883
0.787316 0.759222 0.416054
0.792632 0.754910 0.408088
0.796216 0.757001 0.409452
0.800038 0.758333 0.410784
0.801471 0.758150 0.409681
0.814009 0.759727 0.412132
0.817616 0.758333 0.415426
0.822304 0.760064 0.418635
0.831832 0.763909 0.423529
0.829358 0.766613 0.426907
0.836443 0.766590 0.432276
0.840541 0.770734 0.440931
0.846201 0.776348 0.442647
0.855047 0.781472 0.444907
0.858824 0.781863 0.446722
0.862010 0.781564 0.457705
0.864737 0.788266 0.462868
0.869853 0.789706 0.463986
0.874050 0.790702 0.466682
0.880637 0.789706 0.476922
0.889400 0.792831 0.480576
0.890893 0.793627 0.484934
