public/luts/dune.cube
#Generated with IWLTBAP LUT Generator 2.1.9571.30596
#Website: https://luts.iwltbap.com
TITLE "LUT convert"
LUT_3D_SIZE 9
0.247059 0.180392 0.070588
0.287255 0.196569 0.101471
0.419608 0.225490 0.130392
0.544608 0.248039 0.155392
0.688235 0.272549 0.172549
0.792647 0.304902 0.192157
0.861765 0.335294 0.218627
0.929902 0.389216 0.274020
0.988235 0.466667 0.345098
0.278431 0.272549 0.081373
0.363848 0.295098 0.129044
0.461642 0.288480 0.145221
0.571936 0.297855 0.153431
0.695588 0.312010 0.166176
0.793627 0.336826 0.198162
0.860784 0.366667 0.222059
0.922426 0.407353 0.261703
0.978431 0.471078 0.345588
0.428431 0.416667 0.150980
0.478064 0.426961 0.169730
0.543627 0.423284 0.158088
0.623284 0.423284 0.136642
0.707843 0.397549 0.157353
0.800858 0.402328 0.181985
0.864461 0.412990 0.219608
0.920711 0.448897 0.267647
0.970588 0.493137 0.335294
0.556863 0.525490 0.191176
0.580760 0.537255 0.201838
0.629044 0.524265 0.188480
0.667279 0.538725 0.173529
0.735784 0.534804 0.145588
0.799081 0.497488 0.172978
0.865564 0.484559 0.203309
0.923713 0.498713 0.261029
0.970588 0.529902 0.328431
0.627451 0.596078 0.217647
0.646814 0.607598 0.234559
0.680392 0.602451 0.226471
0.717647 0.610294 0.213971
0.750980 0.618627 0.216667
0.803676 0.622549 0.205882
0.861765 0.592647 0.229412
0.924510 0.568382 0.257598
0.968627 0.584314 0.317647
0.690196 0.657843 0.268627
0.706863 0.665502 0.278493
0.727451 0.663971 0.276103
0.759804 0.669056 0.279718
0.785294 0.686520 0.292402
0.811275 0.690686 0.303064
0.858946 0.700735 0.318137
0.914032 0.677328 0.322365
0.962255 0.660784 0.357843
0.753922 0.723529 0.359804
0.766422 0.728431 0.364706
0.779167 0.725735 0.363725
0.802941 0.728431 0.373039
0.823039 0.745588 0.385294
0.845833 0.753799 0.402328
0.862990 0.761520 0.426471
0.901471 0.770711 0.450000
0.950980 0.758824 0.459804
0.821569 0.794118 0.481373
0.822059 0.794608 0.481434
0.833946 0.792034 0.480392
0.852328 0.797365 0.492341
0.866667 0.802696 0.498775
0.883027 0.815502 0.518137
0.897794 0.822426 0.552328
0.911275 0.829779 0.567586
0.937745 0.836765 0.598039
0.882353 0.862745 0.643137
0.882843 0.863235 0.642647
0.889216 0.865686 0.638235
0.903431 0.868137 0.639706
0.909804 0.870588 0.652941
0.921569 0.878431 0.666667
0.929412 0.882353 0.686275
0.941176 0.885784 0.710294
0.941176 0.886275 0.733333
0.224510 0.222549 0.127941
0.283272 0.238235 0.180025
0.449265 0.261642 0.222672
0.572855 0.303309 0.243627
0.688725 0.335294 0.271078
0.781066 0.374694 0.288235
0.850858 0.401716 0.306863
0.908762 0.453983 0.348529
0.965196 0.516176 0.414216
0.282414 0.340809 0.200919
0.335600 0.362255 0.224211
0.471400 0.350934 0.260585
0.586397 0.367019 0.271684
0.700245 0.379320 0.278615
0.788519 0.397710 0.297817
0.853462 0.426670 0.320190
0.917800 0.471339 0.359781
0.963297 0.528493 0.413174
0.415074 0.476961 0.223775
0.455959 0.481526 0.246247
0.545772 0.470772 0.281036
0.627803 0.463771 0.264507
0.712071 0.444730 0.267463
0.789936 0.447381 0.282368
0.855423 0.469271 0.312132
0.914445 0.500934 0.361979
0.964583 0.545956 0.410294
0.548039 0.575613 0.283701
0.581648 0.587033 0.314522
0.627007 0.569026 0.308548
0.679274 0.569485 0.289805
0.738113 0.565104 0.266268
0.794447 0.524265 0.274655
0.859252 0.521691 0.306756
0.914131 0.544118 0.353140
0.961275 0.571507 0.409314
0.644853 0.636765 0.337745
0.662224 0.648070 0.354657
0.688419 0.640074 0.342341
0.729657 0.637837 0.325797
0.753064 0.645956 0.324632
0.799602 0.647549 0.311213
0.858272 0.617708 0.323652
0.915993 0.597978 0.344730
0.961275 0.618627 0.398775
0.701593 0.690074 0.376164
0.720489 0.696890 0.395358
0.734697 0.695144 0.389568
0.763917 0.694914 0.380254
0.788572 0.700460 0.384314
0.815005 0.711435 0.393704
0.853968 0.718490 0.404779
0.911091 0.700100 0.397426
0.956863 0.684804 0.423223
0.762377 0.745956 0.446078
0.768321 0.753707 0.451164
0.781679 0.750674 0.453156
0.809620 0.749663 0.452237
0.825735 0.754105 0.452267
0.846936 0.762286 0.464522
0.863419 0.775429 0.480270
0.896722 0.782077 0.501409
0.946446 0.770221 0.500368
0.818627 0.806311 0.534926
0.830959 0.806694 0.532123
0.835846 0.809206 0.540288
0.853209 0.807376 0.538136
0.868536 0.815165 0.542157
0.879626 0.824655 0.556694
0.900383 0.831357 0.585662
0.913526 0.835578 0.597917
0.933333 0.846691 0.624142
0.878922 0.867157 0.659314
0.882353 0.870588 0.663603
0.888358 0.867892 0.661642
0.896875 0.871569 0.666667
0.913480 0.874265 0.673284
0.916789 0.877574 0.677574
0.929044 0.882843 0.696324
0.941115 0.889277 0.718015
0.941176 0.894118 0.744118
0.194118 0.292157 0.247059
0.251471 0.308211 0.276716
0.400735 0.296569 0.345343
0.601838 0.332843 0.376716
0.690686 0.368137 0.357843
0.774387 0.413971 0.380392
0.829167 0.482353 0.418627
0.885294 0.545343 0.468260
0.941176 0.583333 0.506863
0.247794 0.404167 0.320098
0.298820 0.405775 0.339890
0.428523 0.393107 0.369485
0.599602 0.395772 0.398805
0.695282 0.419363 0.384865
0.765717 0.463480 0.410110
0.824847 0.521569 0.445313
0.888572 0.552819 0.477819
0.936275 0.593505 0.514093
0.352696 0.513235 0.349755
0.398070 0.521232 0.374050
0.476287 0.515074 0.388358
0.598805 0.498315 0.410815
0.691422 0.510662 0.415809
0.763971 0.524540 0.426777
0.827635 0.548100 0.450919
0.886458 0.577604 0.479228
0.940196 0.604412 0.509804
0.506495 0.597549 0.356005
0.539001 0.610417 0.378814
0.585233 0.600888 0.404197
0.656449 0.590058 0.421369
0.713358 0.590196 0.413725
0.776149 0.568597 0.412898
0.833364 0.581893 0.440380
0.885723 0.600904 0.473223
0.938971 0.624510 0.505025
0.617647 0.656373 0.414216
0.639216 0.666360 0.436336
0.666789 0.663603 0.450368
0.709865 0.657843 0.454044
0.745833 0.659804 0.442157
0.783333 0.668627 0.444485
0.840319 0.647549 0.445221
0.896385 0.640441 0.458027
0.937255 0.657353 0.493627
0.690686 0.709191 0.468627
0.709620 0.713450 0.483027
0.723866 0.712684 0.488143
0.749602 0.709620 0.481664
0.781556 0.711458 0.472855
0.806173 0.722871 0.481480
0.839798 0.736826 0.497886
0.894547 0.716284 0.487653
0.944118 0.705760 0.500980
0.755392 0.757598 0.516667
0.761887 0.764951 0.528891
0.774265 0.760233 0.526164
0.793352 0.764461 0.526869
0.815196 0.763603 0.523652
0.840748 0.774602 0.533058
0.860784 0.779902 0.546752
0.886152 0.795496 0.563450
0.936765 0.781373 0.554412
0.814706 0.816299 0.587500
0.817877 0.813343 0.589752
0.821691 0.815839 0.582567
0.842157 0.816850 0.589108
0.860355 0.817525 0.588848
0.877665 0.827895 0.601103
0.890349 0.834559 0.618627
0.905469 0.839982 0.633349
0.932108 0.852206 0.662990
0.878431 0.870588 0.682353
0.875490 0.871078 0.682843
0.883578 0.871569 0.685539
0.890441 0.873529 0.688603
0.905392 0.874020 0.688725
0.913113 0.881740 0.701348
0.927451 0.884069 0.716176
0.933211 0.887255 0.730760
0.938235 0.896078 0.755882
0.170098 0.357843 0.367647
0.229596 0.364890 0.387377
0.358701 0.358824 0.444363
0.551348 0.368750 0.490931
0.703186 0.385539 0.494608
0.768199 0.432782 0.459252
0.826716 0.501225 0.484436
0.875490 0.562377 0.523836
0.924020 0.625980 0.575000
0.205392 0.432843 0.408272
0.253960 0.428845 0.415472
0.388281 0.427574 0.451685
0.547189 0.418804 0.503087
0.693811 0.445129 0.500980
0.762638 0.478485 0.482728
0.821906 0.535478 0.506618
0.872756 0.585723 0.540548
0.919118 0.640870 0.585110
0.267525 0.533701 0.452574
0.316406 0.532690 0.456357
0.408854 0.524387 0.466820
0.553845 0.506633 0.492923
0.687806 0.529044 0.511091
0.757292 0.551731 0.509804
0.816115 0.593444 0.535202
0.860172 0.630668 0.564874
0.910539 0.662255 0.598039
0.436642 0.605331 0.450368
0.469570 0.610593 0.464813
0.529871 0.609130 0.477834
0.600490 0.612217 0.501065
0.682598 0.603799 0.520558
0.748905 0.617647 0.531449
0.807721 0.636765 0.553508
0.866751 0.652520 0.570780
0.914216 0.671569 0.589154
0.587745 0.672549 0.463480
0.610570 0.676624 0.482261
0.635968 0.677206 0.500858
0.675888 0.676746 0.526501
0.725000 0.673775 0.537990
0.766299 0.681801 0.538143
0.818444 0.671140 0.540748
0.870588 0.681373 0.556863
0.917892 0.695833 0.574755
0.669547 0.720588 0.511887
0.688251 0.727574 0.527972
0.704749 0.725659 0.544593
0.727888 0.722779 0.553117
0.763297 0.723836 0.558303
0.793727 0.732552 0.561719
0.826700 0.746722 0.572426
0.879963 0.732353 0.568122
0.925613 0.725980 0.573407
0.744118 0.769485 0.572181
0.751578 0.773453 0.582215
0.760172 0.773131 0.587316
0.781847 0.771645 0.590334
0.805760 0.772181 0.585355
0.831327 0.779350 0.592479
0.848560 0.790502 0.605790
0.876777 0.801685 0.623238
0.925490 0.790074 0.612255
0.809498 0.821998 0.630699
0.811841 0.821009 0.631549
0.816713 0.823392 0.633073
0.830737 0.821944 0.633900
0.850766 0.824663 0.636765
0.869815 0.832460 0.646844
0.886229 0.836397 0.657077
0.899609 0.841008 0.674303
0.916728 0.857843 0.692341
0.868137 0.872059 0.712255
0.868444 0.874510 0.714706
0.876471 0.871569 0.711029
0.883885 0.875429 0.711887
0.893137 0.875980 0.716422
0.909191 0.877819 0.724877
0.918627 0.885294 0.738971
0.925490 0.893811 0.753554
0.938725 0.895588 0.773039
0.143137 0.403922 0.480392
0.211765 0.405882 0.494118
0.332353 0.399020 0.525980
0.467402 0.373039 0.555637
0.659804 0.434314 0.579412
0.767892 0.453676 0.576225
0.826471 0.517647 0.560784
0.878431 0.573039 0.572549
0.921569 0.627451 0.605882
0.180882 0.449755 0.489216
0.237194 0.450092 0.501011
0.360110 0.447181 0.530944
0.478156 0.423284 0.553676
0.659681 0.473897 0.585662
0.765196 0.501471 0.589093
0.817831 0.547855 0.570772
0.868382 0.595772 0.591912
0.914706 0.645588 0.620343
0.243627 0.522059 0.506373
0.284498 0.524142 0.515502
0.372917 0.512132 0.518750
0.510172 0.513971 0.554841
0.653431 0.537500 0.584559
0.756434 0.565074 0.594485
0.810907 0.597549 0.584436
0.861029 0.635172 0.603493
0.908333 0.673039 0.634314
0.344853 0.617402 0.530147
0.382475 0.620619 0.542647
0.450000 0.617708 0.545098
0.540441 0.606127 0.551716
0.654044 0.606618 0.577206
0.745925 0.631679 0.602328
0.801287 0.653248 0.605882
0.852543 0.672702 0.625429
0.897059 0.704902 0.651471
0.532353 0.672549 0.529412
0.555882 0.677451 0.539338
0.587500 0.677941 0.547304
0.634926 0.679412 0.566176
0.687255 0.680882 0.588725
0.748529 0.684681 0.604289
0.800490 0.699755 0.622304
0.856495 0.712623 0.637132
0.901961 0.727451 0.650980
0.652696 0.728431 0.553922
0.666789 0.732690 0.563450
0.680453 0.732292 0.576348
0.702819 0.733395 0.587898
0.736765 0.734069 0.606985
0.779075 0.738266 0.622825
0.818689 0.750919 0.632659
0.857690 0.740104 0.619608
0.911275 0.748529 0.638480
0.721078 0.779902 0.600980
0.730760 0.781311 0.609252
0.737868 0.781495 0.613235
0.761336 0.782353 0.624632
0.788480 0.779412 0.643137
0.817708 0.783272 0.641054
0.842279 0.795833 0.651471
0.874265 0.805331 0.661091
0.912745 0.800000 0.662255
0.790441 0.827941 0.659314
0.799510 0.826869 0.663419
0.806556 0.825429 0.669975
0.818750 0.829013 0.674510
0.837255 0.828431 0.674877
0.862990 0.832567 0.683824
0.881250 0.841912 0.698775
0.895772 0.847580 0.706189
0.918627 0.863235 0.724020
0.858824 0.874510 0.733333
0.859069 0.874755 0.733578
0.864216 0.876961 0.735294
0.873039 0.877206 0.739461
0.886275 0.877451 0.739216
0.903922 0.884314 0.746569
0.915196 0.887255 0.755392
0.927451 0.892157 0.771569
0.929412 0.896078 0.786275
0.166176 0.435294 0.567647
0.226164 0.434191 0.571630
0.314583 0.419853 0.579289
0.414093 0.390196 0.604105
0.593873 0.434069 0.624510
0.749510 0.524142 0.661213
0.821691 0.533333 0.653186
0.871936 0.577757 0.630699
0.920098 0.630392 0.648529
0.193811 0.466176 0.565502
0.247733 0.465426 0.571967
0.340962 0.463526 0.589001
0.446339 0.439652 0.608195
0.597457 0.469914 0.631036
0.741988 0.553056 0.663649
0.820787 0.564675 0.661229
0.868566 0.597832 0.641046
0.914154 0.648591 0.656679
0.224632 0.515319 0.556005
0.268030 0.516176 0.564874
0.363603 0.514154 0.577328
0.485922 0.518719 0.607721
0.611091 0.533640 0.632292
0.741667 0.596936 0.665518
0.814583 0.610049 0.664124
0.857904 0.636336 0.654534
0.904902 0.675490 0.670343
0.310294 0.591728 0.575551
0.339982 0.593643 0.576624
0.403676 0.588021 0.579672
0.503508 0.585340 0.589691
0.625000 0.602512 0.626379
0.736022 0.643275 0.661826
0.807935 0.661213 0.669822
0.855882 0.678845 0.664706
0.900613 0.705637 0.683946
0.441422 0.684069 0.595343
0.464461 0.685294 0.599632
0.506311 0.682047 0.603738
0.567126 0.678615 0.611703
0.638358 0.669853 0.620833
0.732414 0.690778 0.659436
0.801225 0.706373 0.673775
0.852696 0.719301 0.678738
0.895588 0.741912 0.698284
0.603493 0.726532 0.595098
0.617218 0.725858 0.603186
0.636244 0.728447 0.609007
0.665342 0.732866 0.620121
0.707812 0.735662 0.638572
0.756066 0.740625 0.663013
0.804289 0.748759 0.676256
0.849923 0.759184 0.689645
0.899142 0.771691 0.703309
0.704902 0.784314 0.624755
0.711688 0.785662 0.632123
0.719118 0.785754 0.637653
0.735539 0.785371 0.647580
0.765074 0.791789 0.669056
0.803676 0.794102 0.688434
0.831189 0.798989 0.692923
0.866299 0.804856 0.697932
0.906005 0.797672 0.696691
0.767770 0.829105 0.675858
0.774571 0.832192 0.679741
0.785110 0.832981 0.686857
0.796883 0.836857 0.699112
0.820221 0.837010 0.711642
0.847809 0.835869 0.719225
0.870787 0.842662 0.725965
0.890403 0.849923 0.731641
0.915993 0.860600 0.747488
0.840686 0.879902 0.746569
0.840502 0.879718 0.746385
0.851348 0.879902 0.750123
0.859191 0.881740 0.757721
0.879167 0.881127 0.765441
0.891973 0.882537 0.767831
0.909681 0.889338 0.774142
0.919792 0.895711 0.784681
0.929412 0.898039 0.807843
0.211765 0.457843 0.633333
0.246569 0.451471 0.636275
0.313480 0.440196 0.650245
0.406005 0.425000 0.663603
0.561765 0.462745 0.686275
0.708946 0.539338 0.712255
0.811275 0.594608 0.722304
0.873897 0.589583 0.708578
0.913725 0.635294 0.700000
0.237132 0.484804 0.634436
0.275046 0.484773 0.639706
0.343995 0.473162 0.650858
0.431235 0.463082 0.666667
0.573100 0.487929 0.695159
0.708395 0.561458 0.712347
0.807138 0.617126 0.728646
0.867509 0.609651 0.716774
0.911642 0.651103 0.708946
0.255147 0.522304 0.628186
0.296936 0.524571 0.637040
0.382353 0.527512 0.645282
0.476716 0.527206 0.662010
0.589706 0.543750 0.687377
0.714032 0.599540 0.710938
0.804412 0.645343 0.728309
0.859528 0.643444 0.719577
0.905882 0.677451 0.709804
0.265441 0.573039 0.618873
0.302359 0.572258 0.622963
0.385509 0.576011 0.631005
0.509666 0.592479 0.655545
0.609620 0.603064 0.680208
0.715257 0.640579 0.712377
0.802053 0.680086 0.728523
0.854718 0.684666 0.721415
0.893627 0.705637 0.714828
0.380392 0.659314 0.631373
0.406373 0.662806 0.637990
0.443750 0.660049 0.644240
0.505821 0.651225 0.644301
0.612990 0.660539 0.665931
0.713603 0.681924 0.702880
0.800858 0.718627 0.729167
0.853676 0.724142 0.727574
0.896569 0.741667 0.729902
0.512990 0.745466 0.665686
0.525858 0.748790 0.666973
0.552543 0.745588 0.665441
0.589645 0.740456 0.671553
0.643505 0.736152 0.679350
0.711887 0.726011 0.690993
0.799571 0.755423 0.727298
0.850797 0.767019 0.735692
0.895956 0.780760 0.746446
0.662745 0.782353 0.658578
0.667770 0.780913 0.663143
0.682414 0.782904 0.669547
0.706893 0.784620 0.677911
0.739338 0.790686 0.699510
0.774816 0.794608 0.716299
0.813664 0.796507 0.734498
0.852175 0.801256 0.737960
0.900245 0.812990 0.755392
0.760294 0.839583 0.705025
0.762485 0.837669 0.709268
0.768015 0.840012 0.713266
0.784161 0.842616 0.720312
0.803738 0.843811 0.739216
0.829305 0.848238 0.752803
0.854197 0.844975 0.761397
0.882858 0.856311 0.770650
0.910539 0.863358 0.775123
0.827451 0.880392 0.761765
0.825368 0.883211 0.762377
0.838725 0.884559 0.774755
0.847672 0.886275 0.780392
0.860784 0.887255 0.786765
0.879779 0.887990 0.804534
0.898039 0.890931 0.802206
0.921078 0.898162 0.814951
0.926471 0.899020 0.824510
0.264706 0.483333 0.723039
0.290748 0.485846 0.719547
0.345956 0.478922 0.728064
0.432353 0.469118 0.740074
0.564951 0.506618 0.753676
0.694608 0.567586 0.769853
0.793382 0.627328 0.780515
0.866789 0.655882 0.781801
0.914706 0.660784 0.778922
0.305392 0.509681 0.727451
0.328294 0.507866 0.730568
0.382613 0.503094 0.732889
0.456533 0.502574 0.740380
0.572457 0.525153 0.754350
0.691276 0.582659 0.765196
0.791176 0.645481 0.778554
0.861872 0.669263 0.786696
0.911765 0.672917 0.776777
0.345711 0.550858 0.717647
0.371783 0.556066 0.721676
0.425950 0.555208 0.728707
0.494516 0.554534 0.737822
0.584743 0.562500 0.747794
0.694547 0.609007 0.768367
0.796201 0.666605 0.780086
0.857613 0.694638 0.792601
0.902328 0.696324 0.784191
0.332047 0.589522 0.707843
0.367463 0.597143 0.711305
0.441713 0.602497 0.718428
0.534574 0.612071 0.730944
0.602420 0.615288 0.749510
0.698483 0.645221 0.762646
0.793091 0.694593 0.780270
0.860156 0.720879 0.788955
0.898836 0.723346 0.784130
0.307843 0.643137 0.695098
0.327114 0.642739 0.697396
0.392157 0.643873 0.700368
0.501134 0.651317 0.714583
0.620343 0.667770 0.737990
0.696415 0.679994 0.759467
0.791176 0.722672 0.781434
0.861029 0.751961 0.790165
0.897794 0.755147 0.789216
0.446630 0.736642 0.710662
0.460110 0.734490 0.714484
0.487791 0.730070 0.718627
0.521431 0.721193 0.712929
0.570772 0.705729 0.716513
0.697618 0.723369 0.745795
0.788664 0.750031 0.778615
0.860983 0.791008 0.802359
0.899203 0.794118 0.796262
0.571691 0.812745 0.739828
0.581786 0.809635 0.734528
0.595282 0.811765 0.739063
0.616422 0.803845 0.740610
0.656679 0.797672 0.744485
0.703339 0.790426 0.746415
0.772151 0.787929 0.763480
0.861474 0.823575 0.803447
0.896814 0.829167 0.802451
0.726103 0.842770 0.741299
0.729488 0.840135 0.741667
0.734007 0.845588 0.740809
0.751126 0.841399 0.748958
0.771814 0.844148 0.759161
0.799916 0.846247 0.768405
0.835999 0.852007 0.788787
0.873445 0.858509 0.811726
0.898958 0.866299 0.823468
0.827451 0.889706 0.789216
0.821017 0.889277 0.788787
0.834314 0.889216 0.797304
0.835600 0.890502 0.795650
0.845343 0.892402 0.806618
0.862255 0.892831 0.815319
0.886152 0.898529 0.834926
0.905515 0.898529 0.841176
0.921569 0.905882 0.858824
0.431373 0.572549 0.815686
0.449510 0.575980 0.816176
0.484314 0.569608 0.817647
0.530392 0.577941 0.822549
0.623529 0.596078 0.829412
0.712745 0.648529 0.829902
0.792157 0.688235 0.840196
0.866176 0.738235 0.843627
0.905882 0.756863 0.854902
0.449020 0.590686 0.816667
0.466360 0.587623 0.819118
0.496324 0.586029 0.814093
0.548713 0.590196 0.820895
0.621814 0.610784 0.827451
0.717034 0.654718 0.834498
0.796814 0.696936 0.833333
0.862745 0.745956 0.846507
0.904902 0.758333 0.846569
0.477451 0.625490 0.813725
0.492402 0.623897 0.819608
0.522549 0.624755 0.816422
0.561887 0.625245 0.821446
0.627451 0.636765 0.827451
0.718137 0.670588 0.830882
0.793382 0.713480 0.837255
0.859314 0.759804 0.846078
0.904902 0.769608 0.849020
0.487745 0.660294 0.805392
0.506924 0.664400 0.804902
0.543627 0.662132 0.811887
0.583395 0.665074 0.813848
0.641176 0.668873 0.824020
0.714583 0.695588 0.828431
0.795956 0.734191 0.837990
0.858333 0.768137 0.841299
0.898039 0.786765 0.850000
0.419608 0.686275 0.800000
0.441667 0.686520 0.800000
0.491667 0.688725 0.802451
0.579657 0.700000 0.813235
0.649020 0.709804 0.815686
0.710784 0.718382 0.831863
0.791667 0.751961 0.839706
0.861029 0.790441 0.844853
0.898039 0.803922 0.854902
0.427941 0.749510 0.795098
0.433088 0.748223 0.800980
0.448897 0.739216 0.794730
0.496936 0.730515 0.795466
0.603676 0.735294 0.807843
0.711765 0.754412 0.819363
0.784436 0.772426 0.840441
0.858640 0.815993 0.850123
0.904902 0.835294 0.858824
0.561765 0.828431 0.813725
0.559804 0.826471 0.806618
0.572794 0.822549 0.812500
0.585539 0.813235 0.810784
0.612745 0.805882 0.808824
0.652574 0.786887 0.809926
0.779657 0.808088 0.825980
0.857475 0.831618 0.854657
0.899020 0.859804 0.861765
0.684314 0.889706 0.826961
0.686091 0.889767 0.827451
0.689093 0.886275 0.829534
0.699387 0.881005 0.827941
0.723775 0.879657 0.830882
0.745895 0.873162 0.829596
0.774632 0.861887 0.838113
0.841176 0.859314 0.843260
0.902451 0.890686 0.871078
0.803922 0.894118 0.823529
0.800000 0.898039 0.816667
0.804902 0.900980 0.827451
0.809314 0.896569 0.827451
0.827451 0.898039 0.835294
0.847059 0.901961 0.843137
0.861765 0.901961 0.848039
0.890196 0.901961 0.859804
0.905882 0.909804 0.878431
