public/luts/dune.cube
#Generated with IWLTBAP LUT Generator 2.1.9571.30596
#Website: https://luts.iwltbap.com
TITLE "LUT convert"
LUT_3D_SIZE 5
0.247059 0.180392 0.070588
0.419608 0.225490 0.130392
0.688235 0.272549 0.172549
0.861765 0.335294 0.218627
0.988235 0.466667 0.345098
0.428431 0.416667 0.150980
0.543627 0.423284 0.158088
0.707843 0.397549 0.157353
0.864461 0.412990 0.219608
0.970588 0.493137 0.335294
0.627451 0.596078 0.217647
0.680392 0.602451 0.226471
0.750980 0.618627 0.216667
0.861765 0.592647 0.229412
0.968627 0.584314 0.317647
0.753922 0.723529 0.359804
0.779167 0.725735 0.363725
0.823039 0.745588 0.385294
0.862990 0.761520 0.426471
0.950980 0.758824 0.459804
0.882353 0.862745 0.643137
0.889216 0.865686 0.638235
0.909804 0.870588 0.652941
0.929412 0.882353 0.686275
0.941176 0.886275 0.733333
0.194118 0.292157 0.247059
0.400735 0.296569 0.345343
0.690686 0.368137 0.357843
0.829167 0.482353 0.418627
0.941176 0.583333 0.506863
0.352696 0.513235 0.349755
0.476287 0.515074 0.388358
0.691422 0.510662 0.415809
0.827635 0.548100 0.450919
0.940196 0.604412 0.509804
0.617647 0.656373 0.414216
0.666789 0.663603 0.450368
0.745833 0.659804 0.442157
0.840319 0.647549 0.445221
0.937255 0.657353 0.493627
0.755392 0.757598 0.516667
0.774265 0.760233 0.526164
0.815196 0.763603 0.523652
0.860784 0.779902 0.546752
0.936765 0.781373 0.554412
0.878431 0.870588 0.682353
0.883578 0.871569 0.685539
0.905392 0.874020 0.688725
0.927451 0.884069 0.716176
0.938235 0.896078 0.755882
0.143137 0.403922 0.480392
0.332353 0.399020 0.525980
0.659804 0.434314 0.579412
0.826471 0.517647 0.560784
0.921569 0.627451 0.605882
0.243627 0.522059 0.506373
0.372917 0.512132 0.518750
0.653431 0.537500 0.584559
0.810907 0.597549 0.584436
0.908333 0.673039 0.634314
0.532353 0.672549 0.529412
0.587500 0.677941 0.547304
0.687255 0.680882 0.588725
0.800490 0.699755 0.622304
0.901961 0.727451 0.650980
0.721078 0.779902 0.600980
0.737868 0.781495 0.613235
0.788480 0.779412 0.643137
0.842279 0.795833 0.651471
0.912745 0.800000 0.662255
0.858824 0.874510 0.733333
0.864216 0.876961 0.735294
0.886275 0.877451 0.739216
0.915196 0.887255 0.755392
0.929412 0.896078 0.786275
0.211765 0.457843 0.633333
0.313480 0.440196 0.650245
0.561765 0.462745 0.686275
0.811275 0.594608 0.722304
0.913725 0.635294 0.700000
0.255147 0.522304 0.628186
0.382353 0.527512 0.645282
0.589706 0.543750 0.687377
0.804412 0.645343 0.728309
0.905882 0.677451 0.709804
0.380392 0.659314 0.631373
0.443750 0.660049 0.644240
0.612990 0.660539 0.665931
0.800858 0.718627 0.729167
0.896569 0.741667 0.729902
0.662745 0.782353 0.658578
0.682414 0.782904 0.669547
0.739338 0.790686 0.699510
0.813664 0.796507 0.734498
0.900245 0.812990 0.755392
0.827451 0.880392 0.761765
0.838725 0.884559 0.774755
0.860784 0.887255 0.786765
0.898039 0.890931 0.802206
0.926471 0.899020 0.824510
0.431373 0.572549 0.815686
0.484314 0.569608 0.817647
0.623529 0.596078 0.829412
0.792157 0.688235 0.840196
0.905882 0.756863 0.854902
0.477451 0.625490 0.813725
0.522549 0.624755 0.816422
0.627451 0.636765 0.827451
0.793382 0.713480 0.837255
0.904902 0.769608 0.849020
0.419608 0.686275 0.800000
0.491667 0.688725 0.802451
0.649020 0.709804 0.815686
0.791667 0.751961 0.839706
0.898039 0.803922 0.854902
0.561765 0.828431 0.813725
0.572794 0.822549 0.812500
0.612745 0.805882 0.808824
0.779657 0.808088 0.825980
0.899020 0.859804 0.861765
0.803922 0.894118 0.823529
0.804902 0.900980 0.827451
0.827451 0.898039 0.835294
0.861765 0.901961 0.848039
0.905882 0.909804 0.878431
