public/luts/matrix.cube
#Generated with IWLTBAP LUT Generator 2.1.9571.30596
#Website: https://luts.iwltbap.com
TITLE "LUT convert-3"
LUT_3D_SIZE 5
0.003922 0.141176 0.125490
0.211765 0.031373 0.018627
0.621569 0.184314 0.001961
0.999020 0.395098 0.044118
1.000000 0.298039 0.003922
0.000980 0.453922 0.256863
0.045588 0.412010 0.117647
0.612745 0.479902 0.186275
0.999265 0.587990 0.147794
0.997059 0.543137 0.086275
0.000000 0.798039 0.347059
0.003922 0.846569 0.329902
0.365686 0.857843 0.226471
0.974020 0.810784 0.062255
0.998039 0.701961 0.319608
0.244118 0.977451 0.658824
0.013235 0.981863 0.579167
0.402941 1.000000 0.631373
0.760049 0.997549 0.550000
1.000000 0.987255 0.282353
1.000000 1.000000 0.992157
0.788235 1.000000 0.865686
0.858824 1.000000 0.898039
0.845098 0.997059 0.881373
0.988235 0.996078 0.913725
0.000000 0.058824 0.323529
0.363725 0.032108 0.390441
0.777451 0.096569 0.496078
0.997794 0.023529 0.258333
1.000000 0.488235 0.399020
0.001716 0.444853 0.411029
0.209498 0.459436 0.405331
0.707721 0.457230 0.351103
0.993015 0.516850 0.365319
0.998039 0.426225 0.282353
0.002941 0.909804 0.615196
0.216176 0.930147 0.637500
0.485049 0.872794 0.500000
0.978922 0.831618 0.440686
0.998039 0.802941 0.573529
0.499020 0.975490 0.730637
0.629596 0.998529 0.786765
0.647672 0.990809 0.750000
0.726961 0.987132 0.668934
0.999755 0.994118 0.608088
0.987255 0.999020 0.996078
0.901961 1.000000 0.936275
0.921569 0.997059 0.939706
0.950490 0.997059 0.955882
0.993137 1.000000 0.984314
0.245098 0.115686 0.813725
0.541667 0.148039 0.890196
0.869608 0.000000 0.842157
0.994608 0.207353 0.887745
1.000000 0.537255 0.786275
0.000490 0.549510 0.862745
0.362868 0.551593 0.864828
0.799755 0.412745 0.829902
0.994485 0.511397 0.838235
0.994118 0.683824 0.777451
0.063725 0.850000 0.824510
0.396078 0.877941 0.841667
0.704412 0.861275 0.811275
0.957598 0.866176 0.797059
0.999020 0.880392 0.799020
0.867647 0.999510 0.967647
0.749020 0.992647 0.882230
0.882108 0.990931 0.921569
0.971569 0.998162 0.956373
0.998039 0.993627 0.929902
0.935294 1.000000 0.962745
0.996569 0.998039 0.996569
0.984314 1.000000 0.987255
0.967157 0.998529 0.974510
0.998039 1.000000 0.992157
0.266667 0.272549 0.985294
0.549755 0.364461 0.995588
0.721569 0.245588 0.998529
0.993873 0.003186 0.994363
0.994118 0.506863 1.000000
0.355882 0.565441 0.968627
0.503431 0.587561 0.993995
0.769485 0.583946 0.993382
0.988235 0.403064 0.992831
0.997059 0.522794 0.933824
0.587255 0.843627 0.960294
0.621691 0.825858 0.945098
0.781618 0.864216 0.959069
0.967034 0.846201 0.989583
0.997549 0.863725 0.966176
0.819118 0.989216 0.990931
0.790502 0.976471 0.981740
0.799020 0.958578 0.949632
0.950551 0.984988 0.973836
0.999020 0.976471 0.964706
0.988235 0.999020 1.000000
0.947059 1.000000 0.984559
0.967157 0.999020 0.990196
0.985539 0.997059 0.994608
0.994118 0.994118 0.988235
0.619608 0.647059 1.000000
0.689216 0.667647 0.995098
0.758824 0.605882 0.994118
0.874510 0.442157 1.000000
0.968627 0.215686 0.996078
0.630392 0.724510 0.999020
0.683088 0.746078 0.997794
0.783824 0.751471 0.995588
0.808824 0.575245 0.996814
1.000000 0.463725 0.998039
0.807843 0.880392 0.992157
0.905392 0.945098 0.997059
0.880392 0.918627 0.998039
0.925490 0.895588 0.997059
1.000000 0.809804 0.996078
0.836275 0.955882 0.997059
0.981127 0.993137 0.997794
0.941176 0.977451 0.997059
0.971324 0.983088 0.995588
0.999020 0.929412 1.000000
0.956863 1.000000 1.000000
0.875490 0.999020 0.996078
0.941176 0.998039 1.000000
0.992157 0.997059 0.997059
1.000000 1.000000 1.000000
