public/luts/matrix.cube
#Generated with IWLTBAP LUT Generator 2.1.9571.30596
#Website: https://luts.iwltbap.com
TITLE "LUT convert-3"
LUT_3D_SIZE 33
0.003922 0.141176 0.125490
0.007598 0.102696 0.091176
0.004167 0.002696 0.001961
0.067892 0.057721 0.052696
0.135784 0.082353 0.065196
0.167279 0.075613 0.075000
0.114461 0.003186 0.001471
0.181863 0.021078 0.016299
0.211765 0.031373 0.018627
0.413603 0.196201 0.135049
0.335784 0.091176 0.022059
0.327328 0.066054 0.006495
0.425980 0.134314 0.000000
0.524020 0.204167 0.034926
0.463235 0.116912 0.004412
0.511887 0.127574 0.007353
0.621569 0.184314 0.001961
0.750490 0.268873 0.002083
0.761275 0.226961 0.000000
0.857475 0.271446 0.001593
0.965686 0.344608 0.000000
0.897549 0.215319 0.000000
0.955882 0.221569 0.005392
0.997794 0.381373 0.001103
0.999020 0.395098 0.044118
0.990809 0.414216 0.003064
0.999265 0.276961 0.000000
0.993382 0.317034 0.000000
0.999020 0.322059 0.000000
0.999632 0.282230 0.000000
1.000000 0.224020 0.007353
0.995956 0.152819 0.002451
1.000000 0.298039 0.003922
0.000245 0.006618 0.002206
0.007851 0.063071 0.062607
0.046454 0.105070 0.086566
0.110800 0.106878 0.089641
0.192448 0.156173 0.123637
0.143578 0.073028 0.029174
0.251562 0.145313 0.091391
0.208613 0.070581 0.020994
0.254933 0.095466 0.009804
0.337921 0.146588 0.038925
0.348169 0.122763 0.002727
0.345627 0.104534 0.004170
0.556449 0.263480 0.094424
0.489671 0.175015 0.001716
0.538258 0.188366 0.003171
0.567858 0.165487 0.002018
0.709436 0.253125 0.000000
0.867433 0.337351 0.088867
0.845006 0.264530 0.001938
0.887557 0.262504 0.000245
0.986198 0.343336 0.000046
0.994891 0.333766 0.002654
0.980331 0.271706 0.003799
0.999966 0.365954 0.005584
0.999050 0.322304 0.000061
0.997032 0.410612 0.002995
1.000000 0.332445 0.000712
0.993589 0.316004 0.003263
0.996676 0.340487 0.000015
1.000000 0.435555 0.011041
0.999885 0.177949 0.000827
0.999525 0.312933 0.000237
1.000000 0.440319 0.000000
0.000000 0.048039 0.022059
0.003562 0.206970 0.160654
0.007138 0.101241 0.040686
0.136979 0.190051 0.125797
0.130239 0.146844 0.086029
0.167509 0.156610 0.098231
0.259452 0.202390 0.131817
0.192264 0.099150 0.007537
0.230821 0.106618 0.007353
0.375077 0.203493 0.072220
0.335723 0.139292 0.023300
0.439660 0.203447 0.002528
0.509314 0.238235 0.029963
0.569317 0.258257 0.002091
0.632154 0.284789 0.053768
0.604006 0.205093 0.000705
0.705637 0.244608 0.003799
0.852267 0.327367 0.002214
0.865441 0.292969 0.000138
0.916797 0.298667 0.000245
0.968658 0.305545 0.004136
0.994930 0.318696 0.000329
1.000000 0.370389 0.008088
0.999824 0.439882 0.001310
0.997059 0.361703 0.000000
0.989583 0.346936 0.000383
0.999954 0.311305 0.002987
0.999923 0.316521 0.001976
0.999969 0.369026 0.000643
0.996668 0.532537 0.091291
0.996308 0.289338 0.000000
0.996201 0.394853 0.007475
1.000000 0.327696 0.003922
0.000000 0.173162 0.113725
0.000368 0.166203 0.093627
0.000000 0.103117 0.036520
0.002665 0.126658 0.046040
0.024985 0.097626 0.009436
0.121718 0.163025 0.048686
0.126532 0.128531 0.034252
0.195110 0.165985 0.067375
0.166085 0.106985 0.053309
0.342567 0.245707 0.111654
0.293880 0.165020 0.003240
0.416410 0.240074 0.037381
0.375705 0.173254 0.004136
0.458567 0.210938 0.005993
0.605936 0.312508 0.032636
0.616571 0.280519 0.009609
0.581863 0.199203 0.005331
0.767130 0.312940 0.000000
0.747572 0.252796 0.000207
0.850594 0.299831 0.001444
0.987316 0.416452 0.029151
0.894795 0.320094 0.036137
0.996599 0.384429 0.003554
0.996898 0.347047 0.002999
0.978309 0.257077 0.002053
0.999426 0.349165 0.031131
0.996147 0.328638 0.003186
0.999943 0.443068 0.001486
0.999066 0.332981 0.000000
0.999632 0.354933 0.001333
1.000000 0.455055 0.003355
0.999766 0.436382 0.000023
1.000000 0.292647 0.000000
0.000490 0.089216 0.009804
0.000689 0.052987 0.014890
0.007384 0.233548 0.146201
0.004442 0.101486 0.021308
0.000858 0.175123 0.054228
0.141100 0.245956 0.098208
0.172518 0.212898 0.042188
0.198851 0.202466 0.061627
0.264216 0.244608 0.117892
0.270512 0.225628 0.107966
0.349724 0.270650 0.114400
0.380974 0.271032 0.102206
0.417279 0.256127 0.057782
0.423330 0.239614 0.006342
0.497396 0.266023 0.003217
0.584130 0.304412 0.012546
0.634314 0.297059 0.003676
0.724249 0.311979 0.005744
0.790502 0.332721 0.004075
0.853278 0.339721 0.004013
0.892096 0.336949 0.000368
0.995910 0.400199 0.003002
0.962592 0.355790 0.004320
0.960187 0.328952 0.005714
0.994853 0.388848 0.000735
0.998866 0.365564 0.002681
0.996477 0.381924 0.023315
0.998928 0.328064 0.002895
0.993934 0.319792 0.004412
1.000000 0.378998 0.004075
0.993536 0.593689 0.136489
1.000000 0.501808 0.003324
1.000000 0.586765 0.168627
0.000000 0.231250 0.102574
0.003412 0.186520 0.040744
0.004251 0.206878 0.036144
0.006553 0.245393 0.094765
0.000000 0.189093 0.014292
0.011106 0.208889 0.018842
0.053041 0.197403 0.014614
0.237400 0.296756 0.061849
0.129963 0.162531 0.017310
0.277332 0.274173 0.052332
0.330568 0.287416 0.090847
0.262305 0.194956 0.037454
0.415319 0.299249 0.106510
0.391429 0.244853 0.046308
0.532338 0.325544 0.072434
0.610505 0.347924 0.019822
0.649939 0.324449 0.059681
0.817203 0.428968 0.058127
0.858532 0.411826 0.014683
0.936432 0.424039 0.015843
0.945052 0.398606 0.000230
0.989947 0.416682 0.001137
0.980852 0.373231 0.000766
0.994363 0.395079 0.002914
0.997059 0.436795 0.004749
0.997415 0.366590 0.009459
0.993015 0.354894 0.000996
0.999483 0.474334 0.005584
0.999050 0.341100 0.007108
0.993390 0.407495 0.001421
0.993796 0.382138 0.004328
1.000000 0.479768 0.004193
0.999387 0.253922 0.014706
0.006373 0.268382 0.107353
0.009260 0.313840 0.130476
0.000092 0.268811 0.082200
0.003186 0.221530 0.014867
0.001042 0.233732 0.026317
0.003416 0.257996 0.033157
0.020037 0.331311 0.090656
0.259184 0.436443 0.173338
0.197181 0.303676 0.018995
0.320274 0.362768 0.066544
0.274035 0.273974 0.040671
0.404236 0.369187 0.106311
0.357629 0.292616 0.027574
0.472894 0.364177 0.121538
0.560784 0.409375 0.155270
0.606549 0.395167 0.099203
0.640686 0.376471 0.031373
0.753332 0.421216 0.037845
0.843153 0.440334 0.023698
0.946515 0.486680 0.078562
0.931495 0.436152 0.011305
0.994041 0.497794 0.042302
0.977267 0.454733 0.033364
0.998575 0.504488 0.007989
0.999203 0.477819 0.003860
0.998445 0.437577 0.002489
1.000000 0.430653 0.003784
0.995450 0.464062 0.000230
0.998805 0.433272 0.000276
1.000000 0.418176 0.000896
0.999403 0.485263 0.004366
0.993827 0.464974 0.000199
0.996814 0.492647 0.015931
0.000858 0.271324 0.097059
0.005936 0.313948 0.125494
0.006740 0.343635 0.154665
0.005714 0.320964 0.118945
0.002849 0.322656 0.113741
0.005170 0.380909 0.181556
0.005139 0.313986 0.071936
0.024893 0.323227 0.056062
0.154136 0.373744 0.065778
0.181614 0.311382 0.035329
0.323951 0.386068 0.029381
0.330863 0.340200 0.012971
0.421415 0.393107 0.081495
0.396657 0.344516 0.054753
0.547610 0.442632 0.183709
0.520492 0.389802 0.115885
0.610049 0.427390 0.143934
0.706158 0.448740 0.134911
0.744983 0.437860 0.060991
0.839997 0.470642 0.064400
0.811366 0.404871 0.005362
0.977968 0.508774 0.073962
0.901570 0.396377 0.006127
0.997315 0.503056 0.025613
0.997702 0.507935 0.006740
0.996749 0.532004 0.090954
0.998851 0.506694 0.000858
0.997147 0.474923 0.002650
0.999893 0.530898 0.003002
1.000000 0.446381 0.022135
0.997128 0.437301 0.002872
0.994064 0.410141 0.000000
0.996936 0.553186 0.057721
0.000980 0.453922 0.256863
0.000000 0.405882 0.203401
0.003922 0.305821 0.099387
0.005331 0.381924 0.161121
0.000368 0.291422 0.054534
0.000460 0.366942 0.130025
0.005331 0.384681 0.153554
0.002298 0.405116 0.130147
0.045588 0.412010 0.117647
0.084559 0.357138 0.029596
0.283395 0.436581 0.089461
0.323866 0.407445 0.014154
0.409436 0.437745 0.066789
0.437714 0.424112 0.076256
0.551716 0.490074 0.166299
0.489553 0.401103 0.068168
0.612745 0.479902 0.186275
0.581189 0.414828 0.105453
0.696324 0.476593 0.162255
0.767004 0.489032 0.131250
0.824877 0.489583 0.088971
0.840472 0.450337 0.003707
0.953370 0.509436 0.089522
0.966360 0.474632 0.012684
0.999265 0.587990 0.147794
1.000000 0.442647 0.003830
0.997855 0.463542 0.005882
0.997886 0.429657 0.019026
0.998284 0.517647 0.016422
0.998836 0.461550 0.005147
0.994301 0.357108 0.002083
0.998100 0.524020 0.044730
0.997059 0.543137 0.086275
0.005637 0.334314 0.084804
0.005461 0.477409 0.227371
0.002888 0.404726 0.134490
0.000000 0.457709 0.177704
0.000965 0.437806 0.140855
0.003087 0.515349 0.218949
0.001425 0.521362 0.227083
0.000000 0.498713 0.191249
0.004320 0.526716 0.200735
0.037347 0.469853 0.108628
0.274318 0.553332 0.157751
0.323974 0.508609 0.063159
0.419010 0.513205 0.016222
0.516946 0.537875 0.077880
0.528554 0.511918 0.067417
0.571446 0.503064 0.042907
0.670098 0.555882 0.159804
0.692513 0.530434 0.146144
0.698575 0.497963 0.116222
0.781644 0.536883 0.168896
0.799188 0.499801 0.090824
0.926957 0.573369 0.182200
0.962171 0.581556 0.156886
0.990177 0.619527 0.171446
0.999173 0.585539 0.122855
1.000000 0.574349 0.116238
0.992601 0.567318 0.103608
1.000000 0.507108 0.005404
1.000000 0.524862 0.024877
1.000000 0.545393 0.102175
0.996477 0.642693 0.177849
0.995133 0.503608 0.026631
0.997181 0.467034 0.000000
0.000000 0.555392 0.253186
0.001271 0.615357 0.294891
0.005055 0.568275 0.237653
0.002221 0.603316 0.273529
0.007077 0.621661 0.292096
0.002275 0.547250 0.181847
0.000230 0.626869 0.266330
0.001915 0.582590 0.233915
0.001654 0.546814 0.170895
0.038986 0.633785 0.250184
0.026961 0.530132 0.062117
0.287760 0.603822 0.119547
0.413021 0.613021 0.098529
0.447021 0.560754 0.002696
0.563909 0.589721 0.004718
0.604213 0.568222 0.020182
0.684436 0.595221 0.042279
0.754021 0.611497 0.102282
0.768781 0.580025 0.091146
0.810800 0.584796 0.130568
0.844332 0.580729 0.155944
0.858624 0.556066 0.136328
0.976716 0.663036 0.253385
0.969233 0.577826 0.148039
0.993260 0.642341 0.199571
0.978140 0.557690 0.093566
0.997503 0.599540 0.157261
0.998966 0.553025 0.066100
0.999663 0.557537 0.076379
0.999747 0.652053 0.217241
0.999831 0.526164 0.047978
0.998813 0.520305 0.050697
1.000000 0.503676 0.026961
0.000000 0.531985 0.214461
0.000123 0.591081 0.252574
0.002413 0.624265 0.272894
0.001222 0.693137 0.346324
0.000000 0.614691 0.259559
0.002593 0.622231 0.252765
0.005277 0.646821 0.273920
0.000563 0.628052 0.257020
0.001930 0.615196 0.239032
0.000969 0.615686 0.220447
0.000000 0.574387 0.138235
0.200506 0.645075 0.202482
0.197702 0.550551 0.024050
0.404653 0.626199 0.080741
0.492057 0.616552 0.039032
0.573453 0.619313 0.014534
0.598346 0.569118 0.006066
0.724506 0.648422 0.082682
0.760470 0.635256 0.065028
0.764315 0.596128 0.053558
0.862316 0.652099 0.186903
0.839001 0.590269 0.133988
0.803830 0.526149 0.054105
0.982372 0.679159 0.290993
0.934007 0.564032 0.126379
0.988894 0.617348 0.186784
0.999517 0.629174 0.199502
0.963699 0.515062 0.061271
0.999341 0.661213 0.237408
0.999874 0.603125 0.148104
0.999916 0.573721 0.094501
0.997388 0.547534 0.070014
0.998652 0.557721 0.124877
0.000000 0.590196 0.251961
0.000000 0.673422 0.335218
0.002298 0.675797 0.333119
0.000000 0.625934 0.269378
0.008946 0.606127 0.249939
0.002482 0.625659 0.256602
0.001195 0.558303 0.164491
0.000322 0.585386 0.183104
0.003799 0.636765 0.247059
0.000000 0.709130 0.317080
0.001532 0.562377 0.126501
0.069485 0.637347 0.196063
0.134436 0.615012 0.123468
0.340794 0.673254 0.172580
0.356863 0.605116 0.057384
0.480806 0.625414 0.021645
0.608824 0.657843 0.042892
0.692356 0.669393 0.018612
0.726164 0.655637 0.070037
0.775766 0.652696 0.090395
0.836703 0.673897 0.143995
0.851563 0.650827 0.141192
0.882047 0.646109 0.156066
0.957261 0.679519 0.236887
0.906740 0.596324 0.152328
0.991958 0.657077 0.245818
0.982782 0.638511 0.224786
1.000000 0.617907 0.177344
0.999816 0.619424 0.177145
0.996446 0.599403 0.140165
0.990349 0.607782 0.130055
1.000000 0.661320 0.212178
1.000000 0.632843 0.216667
0.001593 0.754534 0.372794
0.000123 0.689055 0.259815
0.000000 0.790686 0.370665
0.001892 0.768934 0.340093
0.002191 0.785355 0.360846
0.003929 0.755059 0.320512
0.001471 0.729994 0.278339
0.000000 0.747112 0.275820
0.000000 0.717187 0.260723
0.002413 0.723334 0.272181
0.001095 0.710103 0.245167
0.002623 0.707992 0.214403
0.071661 0.736305 0.219945
0.219244 0.716931 0.141008
0.338212 0.694853 0.090709
0.520964 0.767341 0.143145
0.609252 0.752941 0.057475
0.661684 0.710137 0.003332
0.816506 0.775038 0.027987
0.814737 0.724383 0.036294
0.916805 0.776838 0.125766
0.953619 0.780457 0.187768
0.922741 0.700414 0.128784
0.936102 0.686623 0.163844
0.993321 0.750613 0.282537
0.973740 0.752302 0.295136
0.999701 0.727474 0.311726
0.996442 0.683900 0.282843
0.996569 0.694347 0.297718
0.998338 0.691349 0.290882
0.998361 0.660539 0.252512
0.999927 0.667812 0.282322
0.998407 0.712377 0.332598
0.007353 0.860294 0.426961
0.003799 0.841950 0.389162
0.001746 0.842494 0.377451
0.009796 0.865464 0.399456
0.002206 0.785692 0.303278
0.001792 0.827152 0.337584
0.004994 0.779979 0.274648
0.003546 0.808096 0.301049
0.001654 0.836336 0.319118
0.003791 0.781993 0.266184
0.001762 0.852497 0.346752
0.002206 0.757276 0.222457
0.002665 0.773652 0.192463
0.076968 0.802604 0.203822
0.272488 0.792325 0.158073
0.443972 0.811581 0.130959
0.628309 0.873039 0.196691
0.656411 0.794815 0.011949
0.761979 0.817678 0.023162
0.861972 0.815342 0.001915
0.922335 0.818107 0.003401
0.943781 0.801287 0.091406
0.965502 0.789246 0.144148
0.966720 0.781556 0.183050
0.999020 0.757843 0.213113
0.976838 0.739920 0.224127
0.999586 0.727543 0.250628
0.997871 0.746645 0.318329
0.998070 0.702696 0.303064
1.000000 0.671438 0.280316
0.995864 0.742754 0.365671
0.999946 0.687347 0.310401
0.993382 0.793137 0.417892
0.000000 0.923039 0.480147
0.002133 0.831794 0.361393
0.002083 0.838848 0.373545
0.000000 0.871320 0.391590
0.002543 0.870803 0.386811
0.002696 0.804213 0.310704
0.000000 0.859383 0.364415
0.001628 0.830442 0.309873
0.001501 0.843719 0.316360
0.004615 0.787952 0.247116
0.000574 0.811665 0.283425
0.001264 0.803845 0.272078
0.001563 0.850659 0.308869
0.052390 0.832288 0.261003
0.111190 0.783410 0.160555
0.352248 0.845355 0.221109
0.498407 0.862194 0.201348
0.590548 0.845090 0.119830
0.653983 0.810884 0.035792
0.778971 0.842727 0.070776
0.833640 0.808517 0.006710
0.923100 0.833092 0.053929
0.965556 0.848522 0.097465
0.922005 0.736129 0.000000
0.969853 0.807384 0.142371
0.963695 0.733981 0.119707
0.977604 0.738856 0.157828
0.986941 0.728309 0.225100
0.998162 0.798713 0.353401
0.998112 0.708935 0.279592
0.997917 0.709498 0.321507
0.999935 0.683954 0.301206
0.996324 0.690809 0.317525
0.000000 0.798039 0.347059
0.003799 0.818199 0.357721
0.001838 0.794608 0.321078
0.005331 0.850613 0.382047
0.001716 0.797304 0.318627
0.001654 0.890870 0.406985
0.002696 0.810172 0.316299
0.000858 0.862990 0.355331
0.003922 0.846569 0.329902
0.006189 0.858824 0.325797
0.000000 0.890196 0.364338
0.001287 0.849449 0.323100
0.002451 0.837010 0.297794
0.005515 0.844424 0.297304
0.007230 0.816422 0.227819
0.081127 0.786029 0.147917
0.365686 0.857843 0.226471
0.450490 0.818076 0.112990
0.599510 0.867034 0.191912
0.634252 0.822120 0.028370
0.674020 0.763480 0.003431
0.844730 0.841667 0.041238
0.894608 0.823897 0.001961
0.992770 0.891850 0.114645
0.974020 0.810784 0.062255
0.988419 0.793382 0.094363
0.990196 0.817647 0.212500
0.997120 0.828615 0.280699
1.000000 0.783824 0.275490
0.999816 0.744363 0.252512
1.000000 0.703922 0.245833
0.995895 0.790319 0.379167
0.998039 0.701961 0.319608
0.001838 0.838480 0.368627
0.000057 0.906909 0.428968
0.007024 0.821270 0.334352
0.000391 0.899403 0.408100
0.001838 0.903110 0.406066
0.003102 0.903864 0.403604
0.003730 0.843321 0.334298
0.004500 0.893080 0.377064
0.000460 0.911029 0.380913
0.000000 0.836949 0.281725
0.001264 0.855790 0.289407
0.006824 0.914311 0.375873
0.000000 0.882996 0.339108
0.001237 0.906932 0.359180
0.081388 0.948805 0.393811
0.001107 0.861309 0.259321
0.225368 0.868873 0.238603
0.404102 0.889158 0.234256
0.561535 0.923277 0.257368
0.669876 0.942980 0.237106
0.727160 0.902742 0.134681
0.769604 0.860432 0.061363
0.873185 0.877489 0.003845
0.976677 0.892567 0.000517
0.968627 0.860018 0.047763
0.971354 0.836083 0.086818
0.991345 0.829228 0.108387
0.996783 0.817536 0.182433
0.998131 0.832950 0.270052
0.999828 0.850000 0.349973
0.998047 0.826172 0.366705
0.999812 0.786347 0.361175
0.998162 0.811152 0.443015
0.000000 0.935539 0.455637
0.000245 0.939040 0.451287
0.001608 0.895803 0.413128
0.000207 0.953018 0.475460
0.000276 0.918658 0.434161
0.000613 0.917249 0.421729
0.001149 0.954657 0.455576
0.000000 0.987132 0.501930
0.001287 0.909314 0.379718
0.003171 0.955967 0.425237
0.000000 0.931939 0.398545
0.001348 0.968428 0.437263
0.000000 0.917188 0.367739
0.003056 0.940334 0.409582
0.005377 0.926241 0.383839
0.081533 0.976808 0.415142
0.137623 0.902819 0.312255
0.374916 0.929534 0.340418
0.460616 0.914767 0.268107
0.581756 0.932935 0.268313
0.652175 0.925123 0.218321
0.725015 0.897541 0.157047
0.821155 0.909268 0.173055
0.900651 0.912891 0.059804
0.952941 0.879412 0.027757
0.998660 0.957077 0.178470
0.998606 0.902941 0.190349
0.999655 0.884873 0.250559
1.000000 0.826164 0.211489
1.000000 0.858686 0.325460
0.999786 0.850582 0.364445
0.998338 0.867157 0.419539
1.000000 0.896078 0.491912
0.002328 0.848897 0.361029
0.002256 0.991674 0.516169
0.002987 0.967770 0.499096
0.000448 0.984011 0.534846
0.002237 0.961657 0.501210
0.000728 0.936458 0.471703
0.004220 0.943267 0.447641
0.006127 0.941582 0.438641
0.001777 0.960815 0.498070
0.001674 0.973238 0.454282
0.001823 0.910715 0.371661
0.002646 0.933065 0.394661
0.001471 0.947886 0.407996
0.006177 0.963454 0.431978
0.001310 0.927505 0.391736
0.000747 0.913791 0.354197
0.036520 0.921446 0.352451
0.309291 0.952888 0.374376
0.429305 0.946936 0.358464
0.521293 0.969003 0.337466
0.580193 0.939675 0.272901
0.680737 0.947181 0.249594
0.738611 0.933134 0.188174
0.841433 0.934957 0.159578
0.903738 0.929933 0.080576
0.951620 0.927888 0.130201
0.993888 0.940732 0.106541
0.996691 0.935712 0.191157
1.000000 0.877175 0.202711
0.997890 0.897212 0.282985
0.990365 0.883134 0.304458
0.999851 0.810983 0.286715
1.000000 0.869363 0.396936
0.002941 0.860294 0.370588
0.000046 0.972886 0.491085
0.000306 0.954626 0.478799
0.004580 0.906556 0.419516
0.007047 0.961458 0.474203
0.000613 0.951149 0.453018
0.001991 0.978033 0.500000
0.002558 0.959819 0.451991
0.001103 0.980882 0.468260
0.000689 0.925996 0.395175
0.005392 0.925766 0.412224
0.001348 0.973177 0.426762
0.003676 0.951287 0.403248
0.002328 0.926547 0.394056
0.001654 0.912623 0.375153
0.112224 0.956939 0.471048
0.004412 0.912990 0.356618
0.087086 0.930699 0.355116
0.309038 0.957690 0.363174
0.417846 0.957001 0.342570
0.490931 0.943199 0.290931
0.567907 0.932001 0.252895
0.707230 0.973039 0.293015
0.681235 0.881602 0.119439
0.754167 0.876471 0.072426
0.914170 0.944853 0.112531
0.953523 0.912469 0.015993
0.997549 0.938082 0.054856
0.996569 0.946324 0.166850
0.997105 0.977390 0.298683
1.000000 0.827543 0.105423
0.995251 0.888205 0.292034
0.998529 0.939706 0.407843
0.000000 0.933578 0.455392
0.000161 0.982468 0.523809
0.004825 0.973208 0.528470
0.001474 0.963262 0.489518
0.000322 0.987209 0.563051
0.046320 0.968796 0.547783
0.002597 0.966108 0.498468
0.003359 0.984800 0.511512
0.000000 0.923713 0.432384
0.002662 0.980021 0.521906
0.002612 0.935547 0.431212
0.001348 0.961397 0.455978
0.003217 0.981710 0.478600
0.004404 0.960543 0.455147
0.003401 0.942057 0.450789
0.006024 0.950011 0.466877
0.190012 0.992892 0.515502
0.217869 0.962688 0.445937
0.372174 0.949441 0.458379
0.411634 0.963136 0.424391
0.473039 0.954917 0.380438
0.613634 0.998311 0.421940
0.710539 0.993145 0.425314
0.727662 0.944570 0.330124
0.816299 0.969608 0.316330
0.852845 0.961236 0.256093
0.954144 0.972955 0.261581
0.993176 0.992773 0.308402
1.000000 0.989951 0.388863
0.992762 0.950659 0.237508
0.999839 0.946055 0.300950
0.997426 0.869650 0.274468
1.000000 0.910662 0.385049
0.102941 1.000000 0.709314
0.002650 0.892134 0.483341
0.073683 0.999755 0.626088
0.035907 0.987094 0.604358
0.001072 0.989491 0.597794
0.005584 0.971952 0.546461
0.007813 0.938787 0.512760
0.066850 0.992341 0.595205
0.002022 1.000000 0.613848
0.000000 0.989369 0.587155
0.092172 0.980070 0.578631
0.002451 0.973315 0.550789
0.000460 0.976900 0.535937
0.073231 0.938871 0.501049
0.181388 0.986535 0.567417
0.183517 0.951662 0.521929
0.403922 0.982843 0.600490
0.447143 0.974341 0.578462
0.448713 0.954442 0.544654
0.488748 0.985623 0.521446
0.502359 0.943842 0.478493
0.631036 0.999073 0.525574
0.614828 0.960570 0.444332
0.664522 0.982644 0.419845
0.850368 0.994975 0.500429
0.834023 0.994018 0.410524
0.971706 0.996324 0.527589
0.891636 0.969600 0.246201
0.947304 0.984498 0.269240
0.997327 0.950720 0.210286
0.998851 0.975015 0.312439
0.997304 0.984513 0.353929
0.997304 0.917157 0.364706
0.254779 0.998897 0.704657
0.000123 0.978274 0.569838
0.006564 0.976838 0.572051
0.000264 0.983674 0.586562
0.000352 0.987669 0.625199
0.127880 0.955055 0.590430
0.032973 0.900996 0.487921
0.002585 0.981028 0.597587
0.000827 0.993168 0.598070
0.015855 0.998415 0.612117
0.154511 0.958241 0.577972
0.275100 0.985834 0.627700
0.096890 0.985080 0.583655
0.168670 0.987182 0.593130
0.214285 0.976563 0.592065
0.293252 0.976229 0.591923
0.410968 1.000000 0.619730
0.310597 0.946036 0.557724
0.481357 0.977168 0.596722
0.467651 0.987366 0.553899
0.503263 0.989691 0.532399
0.544719 0.988201 0.517264
0.623775 0.990556 0.509949
0.643700 0.982188 0.471243
0.840533 0.985570 0.556740
0.845960 0.997557 0.502784
0.723284 0.958548 0.303676
0.860884 0.985057 0.343616
0.947105 0.991207 0.333686
0.992371 0.983973 0.307698
0.999755 0.944141 0.118834
0.999789 0.955572 0.255461
0.993260 0.870956 0.194485
0.244118 0.977451 0.658824
0.002941 0.993321 0.594669
0.011765 0.980331 0.574939
0.010662 0.995037 0.598805
0.000000 0.987132 0.564951
0.227482 0.995650 0.668658
0.000000 0.972488 0.598591
0.016146 0.962469 0.554442
0.013235 0.981863 0.579167
0.014920 0.929259 0.494884
0.098407 0.997672 0.607904
0.045680 0.975827 0.543842
0.027574 0.978676 0.576103
0.213848 0.996415 0.612163
0.191176 0.982169 0.582843
0.238511 0.998621 0.583762
0.402941 1.000000 0.631373
0.291115 0.955729 0.563235
0.391115 0.987990 0.574571
0.389737 0.975521 0.537623
0.596078 0.974020 0.611642
0.604473 0.996722 0.587592
0.521875 0.981801 0.484252
0.646415 0.997641 0.534283
0.760049 0.997549 0.550000
0.767525 0.998713 0.499387
0.756311 0.990441 0.424020
0.866789 0.998009 0.439369
0.797059 0.976225 0.264828
0.942647 0.992004 0.368505
0.829534 0.960355 0.084252
0.996109 0.970711 0.075184
1.000000 0.987255 0.282353
0.370711 0.993995 0.718627
0.260750 0.997285 0.664465
0.110034 0.973001 0.605224
0.312370 0.998445 0.696542
0.051072 0.938450 0.517325
0.207472 0.999464 0.652907
0.308333 0.991069 0.682744
0.238668 0.994838 0.648587
0.389063 0.999357 0.700980
0.254113 0.996553 0.635597
0.499870 0.999410 0.731510
0.307966 0.987826 0.642406
0.366176 1.000000 0.643444
0.339629 0.992528 0.637014
0.513212 0.998177 0.699648
0.523805 0.994256 0.699851
0.364400 0.978125 0.604044
0.679201 0.995485 0.756315
0.600460 0.990824 0.701256
0.618409 0.993777 0.695753
0.666529 1.000000 0.691621
0.721684 0.996641 0.711271
0.672227 0.998775 0.660118
0.670263 0.999035 0.620427
0.748284 0.997702 0.640380
0.612443 0.987362 0.502221
0.797633 0.997350 0.586841
0.837129 0.999142 0.565694
0.640043 0.985846 0.345879
0.895301 0.999713 0.479243
0.853309 0.994256 0.360378
0.864185 0.989434 0.231752
1.000000 0.999142 0.482475
0.226471 0.993627 0.625490
0.527796 0.999954 0.743581
0.357093 1.000000 0.673392
0.515732 0.998736 0.733686
0.382016 0.997212 0.692463
0.519194 0.997312 0.728814
0.549985 1.000000 0.753845
0.430951 0.999839 0.683601
0.395711 1.000000 0.668750
0.492456 0.998897 0.715786
0.514553 0.996798 0.722396
0.568666 0.995335 0.738994
0.631127 1.000000 0.765686
0.547901 0.999563 0.726677
0.632062 1.000000 0.763205
0.748085 0.997963 0.822932
0.724142 1.000000 0.791299
0.765319 0.994922 0.814637
0.709589 0.997794 0.771492
0.826915 1.000000 0.842134
0.764461 0.999724 0.782598
0.703968 0.996944 0.729680
0.787776 0.994378 0.770665
0.778554 0.997503 0.741115
0.759069 1.000000 0.710478
0.793520 1.000000 0.699847
