public/luts/matrix.cube
#Generated with IWLTBAP LUT Generator 2.1.9571.30596
#Website: https://luts.iwltbap.com
TITLE "LUT convert-3"
LUT_3D_SIZE 9
0.003922 0.141176 0.125490
0.135784 0.082353 0.065196
0.211765 0.031373 0.018627
0.425980 0.134314 0.000000
0.621569 0.184314 0.001961
0.965686 0.344608 0.000000
0.999020 0.395098 0.044118
0.999020 0.322059 0.000000
1.000000 0.298039 0.003922
0.000490 0.089216 0.009804
0.000858 0.175123 0.054228
0.264216 0.244608 0.117892
0.417279 0.256127 0.057782
0.634314 0.297059 0.003676
0.892096 0.336949 0.000368
0.994853 0.388848 0.000735
0.993934 0.319792 0.004412
1.000000 0.586765 0.168627
0.000980 0.453922 0.256863
0.000368 0.291422 0.054534
0.045588 0.412010 0.117647
0.409436 0.437745 0.066789
0.612745 0.479902 0.186275
0.824877 0.489583 0.088971
0.999265 0.587990 0.147794
0.998284 0.517647 0.016422
0.997059 0.543137 0.086275
0.000000 0.590196 0.251961
0.008946 0.606127 0.249939
0.003799 0.636765 0.247059
0.134436 0.615012 0.123468
0.608824 0.657843 0.042892
0.836703 0.673897 0.143995
0.906740 0.596324 0.152328
0.999816 0.619424 0.177145
1.000000 0.632843 0.216667
0.000000 0.798039 0.347059
0.001716 0.797304 0.318627
0.003922 0.846569 0.329902
0.002451 0.837010 0.297794
0.365686 0.857843 0.226471
0.674020 0.763480 0.003431
0.974020 0.810784 0.062255
1.000000 0.783824 0.275490
0.998039 0.701961 0.319608
0.002941 0.860294 0.370588
0.007047 0.961458 0.474203
0.001103 0.980882 0.468260
0.003676 0.951287 0.403248
0.004412 0.912990 0.356618
0.490931 0.943199 0.290931
0.754167 0.876471 0.072426
0.996569 0.946324 0.166850
0.998529 0.939706 0.407843
0.244118 0.977451 0.658824
0.000000 0.987132 0.564951
0.013235 0.981863 0.579167
0.027574 0.978676 0.576103
0.402941 1.000000 0.631373
0.596078 0.974020 0.611642
0.760049 0.997549 0.550000
0.797059 0.976225 0.264828
1.000000 0.987255 0.282353
0.642157 1.000000 0.804412
0.620221 1.000000 0.793873
0.593750 1.000000 0.759926
0.698591 1.000000 0.808946
0.632598 0.996324 0.747059
0.658395 0.999816 0.745650
0.716912 0.998775 0.724265
0.754473 0.996936 0.634926
0.869608 0.999510 0.542157
1.000000 1.000000 0.992157
0.830882 1.000000 0.883333
0.788235 1.000000 0.865686
0.785784 1.000000 0.856863
0.858824 1.000000 0.898039
0.904902 0.996078 0.925000
0.845098 0.997059 0.881373
0.924510 1.000000 0.910784
0.988235 0.996078 0.913725
0.003431 0.000000 0.023529
0.168137 0.081189 0.209681
0.256250 0.048775 0.200735
0.431556 0.032292 0.148039
0.715686 0.210294 0.176225
0.921691 0.220343 0.093566
1.000000 0.313603 0.118505
1.000000 0.382537 0.150797
0.996569 0.431373 0.181863
0.009436 0.262745 0.259620
0.045841 0.177436 0.157560
0.346492 0.317800 0.284605
0.424517 0.239361 0.164040
0.736152 0.348805 0.210938
0.926317 0.326210 0.119049
0.999357 0.387500 0.126440
0.991690 0.465778 0.176723
0.998713 0.460233 0.177819
0.001838 0.466789 0.333211
0.005683 0.362117 0.230438
0.107169 0.444547 0.258425
0.405561 0.443275 0.209758
0.581924 0.449877 0.228799
0.871293 0.494301 0.186351
0.990778 0.480453 0.107598
0.999326 0.481373 0.083042
0.999755 0.534436 0.174755
0.000000 0.587132 0.301716
0.001900 0.759229 0.455132
0.003248 0.654366 0.308441
0.199288 0.680216 0.280339
0.606097 0.647917 0.098713
0.824908 0.647289 0.206993
0.927941 0.615794 0.248575
0.998675 0.628248 0.259942
0.999816 0.636703 0.288235
0.001961 0.852696 0.447794
0.001961 0.903738 0.484222
0.000368 0.936826 0.479596
0.001225 0.796507 0.312990
0.357966 0.839093 0.284681
0.821691 0.897457 0.240778
0.994792 0.877083 0.291912
0.999357 0.808180 0.374602
0.999755 0.812500 0.492402
0.000613 0.965257 0.557966
0.002099 0.983984 0.588733
0.000077 0.911428 0.479841
0.048974 0.965165 0.527152
0.188388 0.935968 0.464216
0.559612 0.957912 0.408264
0.843045 0.952282 0.298346
0.998407 0.878048 0.226103
1.000000 0.824939 0.389522
0.431740 0.999142 0.733211
0.365181 0.997993 0.687286
0.394393 0.992984 0.688817
0.382261 0.986121 0.654871
0.551961 0.997243 0.699387
0.619256 0.974908 0.659314
0.707721 0.993290 0.573836
0.776854 0.974510 0.362301
0.993750 0.910907 0.256863
0.599326 0.999571 0.761091
0.714637 0.999571 0.826486
0.721691 0.999571 0.827252
0.625605 0.999678 0.772005
0.802665 0.998468 0.858977
0.758640 0.998606 0.811726
0.882629 0.999249 0.850153
0.825337 0.999625 0.728676
0.991850 0.999939 0.713603
0.832843 1.000000 0.892647
0.922120 1.000000 0.948100
0.791789 0.997426 0.868505
0.907169 0.998713 0.936765
0.882843 0.999755 0.914461
0.969118 1.000000 0.973039
0.835049 0.997059 0.865074
0.968934 0.999571 0.966360
0.836765 1.000000 0.795588
0.000000 0.058824 0.323529
0.188358 0.037745 0.369485
0.363725 0.032108 0.390441
0.514093 0.143382 0.452206
0.777451 0.096569 0.496078
0.996324 0.020833 0.454902
0.997794 0.023529 0.258333
0.998897 0.181127 0.239093
1.000000 0.488235 0.399020
0.002574 0.204534 0.317157
0.096783 0.277512 0.393168
0.358548 0.285600 0.439828
0.440564 0.221921 0.389476
0.726838 0.158701 0.396936
0.976149 0.137745 0.354948
0.999112 0.380147 0.373284
0.995420 0.427558 0.356985
1.000000 0.470098 0.366667
0.001716 0.444853 0.411029
0.040196 0.505147 0.465349
0.209498 0.459436 0.405331
0.491085 0.507414 0.434681
0.707721 0.457230 0.351103
0.968229 0.504167 0.360999
0.993015 0.516850 0.365319
0.997488 0.498866 0.334804
0.998039 0.426225 0.282353
0.002451 0.700980 0.495343
0.001746 0.703048 0.494776
0.108915 0.733333 0.518995
0.253477 0.660800 0.414491
0.702574 0.732047 0.409620
0.835248 0.671599 0.406219
0.984651 0.664093 0.407782
0.999540 0.642479 0.387791
0.999632 0.702696 0.443873
0.002941 0.909804 0.615196
0.000306 0.924081 0.645221
0.216176 0.930147 0.637500
0.303738 0.930453 0.601348
0.485049 0.872794 0.500000
0.834988 0.890441 0.431311
0.978922 0.831618 0.440686
0.994853 0.822733 0.540993
0.998039 0.802941 0.573529
0.359926 0.968015 0.718137
0.385233 0.955990 0.702252
0.420527 0.960386 0.698162
0.415518 0.930009 0.637086
0.556863 0.977819 0.672181
0.643796 0.921415 0.567754
0.955086 0.982659 0.585110
0.998070 0.933609 0.507935
0.994730 0.849510 0.558333
0.499020 0.975490 0.730637
0.659130 0.998866 0.812898
0.629596 0.998529 0.786765
0.529749 0.966085 0.726808
0.647672 0.990809 0.750000
0.785478 0.994026 0.800214
0.726961 0.987132 0.668934
0.917157 0.994945 0.637623
0.999755 0.994118 0.608088
0.831495 0.997426 0.891912
0.857583 0.999847 0.918275
0.860539 0.998039 0.918137
0.842279 0.999923 0.894623
0.794853 0.998284 0.855331
0.932430 0.999770 0.935922
0.872518 0.999081 0.870680
0.854856 0.996569 0.800368
0.981863 0.999632 0.769608
0.987255 0.999020 0.996078
0.936152 0.996569 0.960907
0.901961 1.000000 0.936275
0.956985 1.000000 0.968015
0.921569 0.997059 0.939706
0.958333 0.998162 0.965441
0.950490 0.997059 0.955882
0.917770 0.999632 0.899632
0.993137 1.000000 0.984314
0.131863 0.054902 0.551471
0.164338 0.012194 0.510417
0.513358 0.142279 0.675490
0.580147 0.003002 0.573346
0.725980 0.018382 0.595833
0.965748 0.046507 0.712623
0.998162 0.042157 0.657230
0.999387 0.008211 0.485478
1.000000 0.483824 0.566176
0.027206 0.284620 0.579044
0.253508 0.350506 0.675689
0.369148 0.229473 0.599234
0.653485 0.217907 0.654190
0.791759 0.237776 0.662316
0.970213 0.191774 0.705492
0.999678 0.166161 0.598851
0.999839 0.345358 0.557070
1.000000 0.476900 0.533578
0.000735 0.506127 0.632353
0.019516 0.574096 0.687653
0.247212 0.531434 0.663450
0.528033 0.450245 0.628952
0.788113 0.480331 0.678493
0.971630 0.470619 0.671630
0.998621 0.455944 0.571170
1.000000 0.546538 0.544194
0.998162 0.561152 0.521691
0.003493 0.698223 0.647917
0.001570 0.706648 0.652551
0.083732 0.697901 0.633058
0.502849 0.766544 0.691460
0.738205 0.759436 0.666085
0.931756 0.731679 0.626654
0.996140 0.742433 0.623009
0.998966 0.721752 0.596967
0.999449 0.766176 0.630392
0.001225 0.903922 0.738725
0.072488 0.922426 0.754320
0.282414 0.899755 0.731127
0.559988 0.896078 0.737960
0.666667 0.895221 0.720833
0.877727 0.912990 0.687347
0.941912 0.835662 0.657353
0.997825 0.876225 0.727145
0.998529 0.806863 0.662990
0.502512 0.982169 0.826777
0.529473 0.985049 0.810976
0.610600 0.967923 0.810325
0.682874 0.935869 0.789714
0.690931 0.918045 0.756801
0.825092 0.985409 0.813220
0.873775 0.945542 0.693842
0.998905 0.933640 0.727842
0.999449 0.940074 0.800613
0.859314 1.000000 0.948652
0.826945 0.999234 0.920588
0.815625 0.997426 0.898866
0.844470 0.997181 0.904795
0.823284 0.994056 0.871078
0.843643 0.989890 0.863588
0.933793 0.994210 0.904504
0.940472 0.993934 0.785325
0.997059 0.960539 0.719363
0.708701 0.999694 0.831373
0.939400 0.995527 0.965648
0.903462 0.998759 0.934007
0.848185 0.999931 0.900406
0.905790 0.997488 0.931464
0.887914 1.000000 0.916008
0.885141 0.999954 0.894746
0.884023 0.999510 0.885669
0.865012 1.000000 0.733762
0.997059 1.000000 0.985784
0.946814 1.000000 0.963358
0.904289 0.997794 0.951348
0.943444 0.998162 0.965748
0.935294 0.998775 0.954657
0.936152 1.000000 0.950674
0.970833 0.999020 0.973407
0.982598 0.997672 0.975245
0.970098 1.000000 0.942647
0.245098 0.115686 0.813725
0.368137 0.155882 0.851471
0.541667 0.148039 0.890196
0.696569 0.052696 0.872794
0.869608 0.000000 0.842157
0.992157 0.024265 0.860784
0.994608 0.207353 0.887745
0.998284 0.308824 0.809804
1.000000 0.537255 0.786275
0.222059 0.375980 0.898039
0.185509 0.272304 0.806771
0.483824 0.334436 0.889706
0.695129 0.281036 0.899632
0.844363 0.058578 0.830025
0.973346 0.192188 0.867126
0.997365 0.355208 0.904473
0.998070 0.400184 0.798529
0.999755 0.479902 0.705392
0.000490 0.549510 0.862745
0.063542 0.582843 0.898100
0.362868 0.551593 0.864828
0.571630 0.500245 0.857230
0.799755 0.412745 0.829902
0.951777 0.470037 0.857904
0.994485 0.511397 0.838235
0.997120 0.539522 0.760233
0.994118 0.683824 0.777451
0.041667 0.741912 0.870833
0.125337 0.746324 0.861336
0.333578 0.745221 0.841850
0.540686 0.755729 0.834222
0.763603 0.762132 0.864706
0.923744 0.738235 0.849295
0.988358 0.764645 0.861458
0.998131 0.756189 0.791789
1.000000 0.793873 0.767892
0.063725 0.850000 0.824510
0.175735 0.863480 0.837500
0.396078 0.877941 0.841667
0.597794 0.892892 0.853309
0.704412 0.861275 0.811275
0.869485 0.899387 0.842279
0.957598 0.866176 0.797059
0.998897 0.889338 0.822181
0.999020 0.880392 0.799020
0.495833 0.975000 0.895833
0.516667 0.960417 0.873437
0.608946 0.965074 0.880453
0.713174 0.973223 0.886826
0.819730 0.969608 0.891789
0.872059 0.954534 0.885141
0.963787 0.976900 0.881985
0.994853 0.963419 0.871477
0.997794 0.929902 0.863971
0.867647 0.999510 0.967647
0.697488 0.991912 0.867953
0.749020 0.992647 0.882230
0.892157 0.996017 0.941422
0.882108 0.990931 0.921569
0.906740 0.990502 0.922733
0.971569 0.998162 0.956373
0.954412 0.987194 0.859007
0.998039 0.993627 0.929902
0.846078 0.999755 0.926961
0.961887 0.999571 0.986152
0.930453 0.999939 0.965931
0.907659 0.999908 0.944424
0.969363 0.999877 0.980147
0.927114 0.996538 0.947580
0.926164 0.999571 0.933885
0.951348 0.997825 0.923683
0.985784 0.999755 0.919118
0.935294 1.000000 0.962745
0.959069 0.998039 0.977696
0.996569 0.998039 0.996569
0.938725 0.998775 0.958088
0.984314 1.000000 0.987255
0.967647 0.998039 0.974510
0.967157 0.998529 0.974510
0.964216 0.998039 0.958578
0.998039 1.000000 0.992157
0.169608 0.154412 0.897059
0.380576 0.242402 0.962684
0.527451 0.262377 0.983456
0.677941 0.229412 0.989890
0.835539 0.097304 0.971078
0.986703 0.000919 0.960233
0.996324 0.215441 0.992157
0.996630 0.331863 0.956373
0.997549 0.568627 0.962745
0.343382 0.407782 0.961397
0.471530 0.461543 0.994585
0.473192 0.361366 0.966912
0.658104 0.352949 0.962309
0.828125 0.282598 0.978983
0.960133 0.115380 0.950214
0.996967 0.359651 0.987469
0.998123 0.393650 0.942586
0.997855 0.531924 0.888113
0.304534 0.597181 0.978431
0.322947 0.569225 0.942004
0.449786 0.571599 0.961091
0.581373 0.540441 0.962086
0.743873 0.477880 0.947978
0.952068 0.434697 0.960938
0.999571 0.472273 0.947304
0.999923 0.573192 0.944378
0.998162 0.706250 0.934191
0.210110 0.694485 0.898039
0.406510 0.757583 0.948100
0.515257 0.773453 0.956909
0.687377 0.820366 0.954450
0.716054 0.726991 0.925031
0.894922 0.690694 0.943987
0.977145 0.693980 0.929688
0.995404 0.735309 0.921301
0.997549 0.780208 0.903676
0.528676 0.932108 0.986765
0.465380 0.851808 0.917310
0.507475 0.823775 0.892402
0.643229 0.852696 0.898009
0.784436 0.895833 0.920221
0.858609 0.873100 0.915472
0.945956 0.870772 0.924755
0.997702 0.840472 0.899816
0.998775 0.842647 0.867402
0.516728 0.932659 0.922610
0.550689 0.919684 0.908096
0.611872 0.935524 0.927007
0.747549 0.951172 0.937783
0.798805 0.943168 0.920251
0.906840 0.960103 0.943658
0.957184 0.964706 0.945236
0.990127 0.891590 0.858402
1.000000 0.936152 0.912623
0.658824 0.996691 0.922304
0.822917 0.995787 0.957950
0.807843 0.998254 0.971507
0.820236 0.994332 0.946798
0.821630 0.981127 0.918137
0.942111 0.990610 0.959773
0.916973 0.979136 0.920190
0.991927 0.989752 0.950291
0.999387 0.980147 0.944853
0.919975 0.996569 0.971814
0.900934 0.999686 0.965602
0.948422 0.998392 0.975460
0.919593 0.995780 0.967027
0.921875 0.999847 0.961397
0.954971 0.997051 0.966222
0.982169 0.999188 0.985922
0.981526 0.998713 0.981694
0.997365 0.999694 0.995159
0.898039 1.000000 0.965686
0.947672 0.996385 0.980270
0.933456 0.997794 0.968627
0.971017 1.000000 0.979841
0.978186 1.000000 0.990931
0.981924 1.000000 0.988358
0.979412 0.998897 0.981127
0.961091 0.997855 0.955637
0.998529 1.000000 0.992647
0.266667 0.272549 0.985294
0.435172 0.347672 0.998775
0.549755 0.364461 0.995588
0.638725 0.336520 0.993382
0.721569 0.245588 0.998529
0.875490 0.094363 0.997426
0.993873 0.003186 0.994363
0.999265 0.329167 0.997059
0.994118 0.506863 1.000000
0.408701 0.445711 0.997549
0.500720 0.477635 0.999908
0.440625 0.389553 0.985509
0.538542 0.346369 0.983839
0.689400 0.319975 0.985907
0.817754 0.181817 0.971048
0.998529 0.225858 0.999877
0.997718 0.302528 0.993811
0.998407 0.331618 0.912500
0.355882 0.565441 0.968627
0.393873 0.565502 0.961550
0.503431 0.587561 0.993995
0.554534 0.537194 0.973621
0.769485 0.583946 0.993382
0.867525 0.487653 0.995895
0.988235 0.403064 0.992831
0.999326 0.577543 0.996691
0.997059 0.522794 0.933824
0.551348 0.783456 0.993505
0.563251 0.781756 0.989537
0.603860 0.766452 0.975460
0.718781 0.803753 0.985401
0.721507 0.733333 0.978799
0.851225 0.714752 0.987592
0.979626 0.662286 0.991728
0.991759 0.612132 0.954412
0.998529 0.758211 0.987990
0.587255 0.843627 0.960294
0.598775 0.836029 0.957414
0.621691 0.825858 0.945098
0.670588 0.829044 0.945588
0.781618 0.864216 0.959069
0.852757 0.869485 0.972181
0.967034 0.846201 0.989583
0.995956 0.854718 0.985846
0.997549 0.863725 0.966176
0.596324 0.875123 0.948039
0.696063 0.937577 0.976501
0.663971 0.880423 0.950306
0.816713 0.965074 0.987408
0.877512 0.969975 0.984498
0.912730 0.961596 0.978906
0.891942 0.903983 0.945864
0.996063 0.932858 0.971492
0.997672 0.989828 0.990564
0.819118 0.989216 0.990931
0.801164 0.987071 0.985018
0.790502 0.976471 0.981740
0.762990 0.954167 0.955025
0.799020 0.958578 0.949632
0.949724 0.991054 0.984712
0.950551 0.984988 0.973836
0.985294 0.979350 0.967923
0.999020 0.976471 0.964706
0.713113 0.994485 0.960049
0.735126 0.993934 0.966866
0.885417 0.998437 0.979013
0.952604 0.996706 0.990196
0.939400 0.998529 0.983946
0.974694 0.999923 0.983287
0.994301 0.996998 0.993842
0.982613 0.998238 0.990686
0.996936 0.996201 0.989951
0.988235 0.999020 1.000000
0.940319 0.999510 0.979657
0.947059 1.000000 0.984559
0.979044 0.999387 0.993873
0.967157 0.999020 0.990196
0.974142 0.997549 0.990686
0.985539 0.997059 0.994608
0.993627 0.996569 0.989216
0.994118 0.994118 0.988235
0.636765 0.553431 0.998529
0.459743 0.442586 0.996998
0.583211 0.484069 0.999387
0.694363 0.489890 0.999632
0.642402 0.368382 0.999755
0.764216 0.300123 0.999816
0.833824 0.113725 1.000000
0.991422 0.238051 0.999387
1.000000 0.433333 0.999510
0.350245 0.462439 0.996998
0.329557 0.445144 0.998445
0.442907 0.475873 0.997411
0.580400 0.480859 0.993061
0.757475 0.510355 0.999755
0.772281 0.381334 0.997319
0.987439 0.388404 0.999035
0.996515 0.251585 0.996622
1.000000 0.380270 0.996936
0.584436 0.688971 0.998775
0.549786 0.648882 0.998131
0.501563 0.600368 0.997855
0.668903 0.661029 0.999602
0.732108 0.627512 0.999571
0.766039 0.530116 0.998346
0.879933 0.446262 0.999234
0.993030 0.493536 0.998713
0.997426 0.562255 0.996446
0.736887 0.845650 0.999510
0.747909 0.855798 0.992203
0.643352 0.769256 0.998361
0.682407 0.767256 0.996216
0.732812 0.755576 0.994792
0.785340 0.717509 0.997403
0.887714 0.666575 0.996415
0.948016 0.566720 0.999548
0.995956 0.652941 0.999816
0.770588 0.901471 0.996324
0.809835 0.926317 0.999142
0.850368 0.935600 0.999939
0.867157 0.939982 0.999112
0.881863 0.922672 0.999755
0.888511 0.898009 0.998928
0.879779 0.818137 0.998591
0.952543 0.766023 0.999694
0.999510 0.873039 0.999510
0.686949 0.853554 0.991422
0.746255 0.886336 0.994156
0.789354 0.912975 0.994577
0.812960 0.914629 0.993505
0.868382 0.922978 0.995741
0.941636 0.968260 0.994102
0.955974 0.957782 0.993306
0.974249 0.902305 0.996622
0.999387 0.892034 0.987255
0.701716 0.890564 0.993627
0.802160 0.935110 0.993459
0.925306 0.983027 0.998009
0.898621 0.971201 0.996431
0.877267 0.963113 0.988113
0.883854 0.960340 0.984804
0.947702 0.971232 0.995282
0.992203 0.993061 0.998177
0.999142 0.958946 0.989338
0.970404 0.998284 0.998284
0.969301 0.998445 0.995381
0.734589 0.978906 0.986290
0.887178 0.989085 0.990870
0.864124 0.988419 0.988603
0.949464 0.994730 0.998215
0.952665 0.990962 0.988465
0.972365 0.989691 0.979465
0.993995 0.993137 0.991728
0.854902 1.000000 1.000000
0.837745 1.000000 0.998284
0.867892 1.000000 0.995833
0.984130 1.000000 0.999694
0.985784 1.000000 0.994363
0.981189 0.997855 0.998407
0.993015 0.999020 0.995588
0.999510 0.999571 0.998284
0.999510 1.000000 0.999020
0.619608 0.647059 1.000000
0.615686 0.640686 0.999020
0.689216 0.667647 0.995098
0.612255 0.576961 0.991176
0.758824 0.605882 0.994118
0.806863 0.540686 1.000000
0.874510 0.442157 1.000000
0.952941 0.307353 0.993137
0.968627 0.215686 0.996078
0.723039 0.743627 0.996569
0.738603 0.744056 0.998284
0.528554 0.603554 0.993750
0.682475 0.654167 0.998713
0.651961 0.581373 0.999755
0.758211 0.559375 0.998223
0.836642 0.465564 0.997426
0.969608 0.377941 0.999449
0.999510 0.375980 1.000000
0.630392 0.724510 0.999020
0.699510 0.765196 0.999755
0.683088 0.746078 0.997794
0.734314 0.757353 0.998162
0.783824 0.751471 0.995588
0.825858 0.704902 1.000000
0.808824 0.575245 0.996814
0.945221 0.486642 0.997426
1.000000 0.463725 0.998039
0.814706 0.888235 0.998529
0.826961 0.887194 0.997549
0.858088 0.907843 1.000000
0.753860 0.820588 0.996324
0.834069 0.848775 0.997794
0.874632 0.842831 0.996140
0.909926 0.782721 0.995956
0.923652 0.659375 0.999694
1.000000 0.662255 0.997059
0.807843 0.880392 0.992157
0.879167 0.932353 0.994853
0.905392 0.945098 0.997059
0.823775 0.881618 1.000000
0.880392 0.918627 0.998039
0.920098 0.921078 0.998775
0.925490 0.895588 0.997059
0.922794 0.821569 0.996078
1.000000 0.809804 0.996078
0.914706 0.966667 0.996078
0.914522 0.962929 0.999816
0.910907 0.960049 0.994975
0.950797 0.976042 0.996507
0.907353 0.951471 1.000000
0.919179 0.946691 1.000000
0.982475 0.977941 0.997794
0.926532 0.899694 1.000000
1.000000 0.915686 0.997549
0.836275 0.955882 0.997059
0.878922 0.956005 0.994485
0.981127 0.993137 0.997794
0.928309 0.977206 0.998162
0.941176 0.977451 0.997059
0.971691 0.982721 0.994485
0.971324 0.983088 0.995588
0.969240 0.964093 0.992279
0.999020 0.929412 1.000000
0.845098 0.979412 0.996569
0.980208 0.997426 0.992892
0.916667 0.990931 0.994485
0.989400 0.998407 1.000000
0.949755 0.994363 0.994853
0.978922 0.993260 0.999387
0.973529 0.992034 0.999755
0.999020 1.000000 0.999939
0.996569 0.996078 1.000000
0.956863 1.000000 1.000000
0.859314 0.996569 0.998039
0.875490 0.999020 0.996078
0.953431 0.996078 0.990196
0.941176 0.998039 1.000000
0.982353 1.000000 0.998529
0.992157 0.997059 0.997059
1.000000 0.996569 0.999020
1.000000 1.000000 1.000000
