video-api/assets/luts/dark-knight.cube
#Generated with IWLTBAP LUT Generator 2.1.9571.30596
#Website: https://luts.iwltbap.com
TITLE "LUT convert-4"
LUT_3D_SIZE 33
0.000000 0.247059 0.274510
0.000000 0.174755 0.206127
0.000245 0.003676 0.005882
0.000000 0.102574 0.150245
0.031863 0.175000 0.218627
0.003309 0.145588 0.194118
0.003922 0.003922 0.044608
0.006985 0.051838 0.099755
0.020588 0.056863 0.100000
0.251593 0.329412 0.361275
0.082108 0.131618 0.179902
0.054902 0.073407 0.111397
0.181373 0.177451 0.229412
0.275123 0.253922 0.286152
0.178186 0.145588 0.174265
0.192034 0.120956 0.166176
0.300000 0.186275 0.237255
0.465686 0.305637 0.364461
0.407843 0.211029 0.269363
0.493015 0.251225 0.313235
0.674020 0.380392 0.445588
0.506250 0.159436 0.240441
0.560049 0.157598 0.242402
0.852206 0.409191 0.487010
0.898039 0.440196 0.524510
0.965441 0.465074 0.554902
0.804167 0.255637 0.354657
0.886887 0.311887 0.404534
0.938235 0.326961 0.430392
0.879167 0.256005 0.371078
0.823775 0.176961 0.308578
0.802451 0.125245 0.282721
0.976471 0.313725 0.427451
0.000000 0.004044 0.005270
0.000008 0.115100 0.146595
0.007246 0.193015 0.226800
0.003454 0.172407 0.196890
0.086474 0.254565 0.287607
0.013117 0.097966 0.143631
0.067930 0.219838 0.265372
0.022534 0.088997 0.136209
0.022059 0.129841 0.171140
0.125107 0.207372 0.248166
0.086527 0.154680 0.199058
0.077397 0.104852 0.147672
0.343995 0.349632 0.387730
0.217636 0.195305 0.236160
0.231863 0.186979 0.221906
0.201785 0.118761 0.169841
0.391299 0.258456 0.307721
0.558421 0.373912 0.432418
0.481189 0.246301 0.306993
0.514652 0.226628 0.288986
0.696048 0.347227 0.421523
0.707479 0.311814 0.386206
0.654956 0.224433 0.317080
0.846308 0.373985 0.449410
0.821477 0.299479 0.392770
0.990954 0.452528 0.538745
0.909513 0.329542 0.432629
0.906441 0.303393 0.397821
0.936351 0.324494 0.420021
0.998763 0.487994 0.578719
0.804113 0.152397 0.287883
0.973912 0.339924 0.436654
0.995343 0.553186 0.628799
0.000245 0.040441 0.073529
0.000115 0.302911 0.339752
0.000919 0.092647 0.138557
0.055109 0.263771 0.293168
0.010233 0.194945 0.236673
0.004557 0.198223 0.242034
0.143581 0.267800 0.306127
0.006342 0.080323 0.122358
0.012500 0.082721 0.127574
0.152068 0.243842 0.272312
0.071783 0.134819 0.167754
0.187309 0.216797 0.257721
0.268168 0.273591 0.320404
0.299020 0.278592 0.306970
0.366452 0.311612 0.348330
0.251892 0.157169 0.206250
0.356740 0.215564 0.272426
0.528041 0.338113 0.393229
0.501042 0.251945 0.315671
0.574349 0.264759 0.336612
0.607782 0.262194 0.328523
0.676026 0.275881 0.349640
0.807889 0.375000 0.454473
0.952956 0.467195 0.549755
0.851654 0.337439 0.427819
0.885991 0.340617 0.431863
0.844041 0.266743 0.371875
0.893107 0.292953 0.400345
0.984314 0.382445 0.477512
0.999632 0.606204 0.679787
0.896599 0.285692 0.381403
0.992839 0.458624 0.537209
1.000000 0.400490 0.481373
0.003554 0.217157 0.245221
0.000345 0.186497 0.214897
0.000023 0.074686 0.105239
0.006476 0.107341 0.149743
0.001700 0.031541 0.070956
0.019301 0.169424 0.202880
0.002888 0.107138 0.146576
0.034287 0.164848 0.195971
0.067188 0.103462 0.114246
0.177187 0.308287 0.345768
0.023131 0.138802 0.167134
0.186899 0.256652 0.291950
0.104412 0.144072 0.172855
0.178937 0.192498 0.230829
0.354305 0.334245 0.371170
0.335643 0.272947 0.316697
0.199816 0.107966 0.156618
0.435662 0.296423 0.343627
0.359796 0.178661 0.235738
0.469635 0.241448 0.298231
0.720358 0.442999 0.491529
0.610581 0.248912 0.331438
0.748032 0.371193 0.428370
0.742230 0.311140 0.376137
0.635784 0.137592 0.245129
0.786665 0.303420 0.392551
0.816330 0.271316 0.363442
0.980947 0.487481 0.573591
0.887577 0.297350 0.396814
0.949357 0.357874 0.442456
0.992004 0.503056 0.582973
0.996488 0.498058 0.576601
0.960907 0.342279 0.434926
0.003431 0.010784 0.016176
0.000031 0.017341 0.017157
0.015257 0.255913 0.298192
0.003554 0.042019 0.055668
0.000061 0.138297 0.166667
0.061213 0.265778 0.272197
0.011949 0.193873 0.222886
0.017586 0.195221 0.215334
0.091667 0.255147 0.285907
0.103202 0.231480 0.266054
0.175705 0.298223 0.317065
0.187776 0.277221 0.301593
0.190257 0.249816 0.272978
0.175950 0.201210 0.235723
0.229596 0.224479 0.253891
0.315625 0.281541 0.312776
0.324755 0.252696 0.290196
0.382184 0.269026 0.306051
0.432812 0.272335 0.311581
0.487914 0.279825 0.325046
0.547059 0.283701 0.330637
0.689415 0.376562 0.422350
0.662868 0.306066 0.360937
0.640058 0.227956 0.299127
0.779044 0.336029 0.400980
0.789583 0.308624 0.381143
0.849540 0.357629 0.431158
0.824157 0.280055 0.372549
0.801409 0.232598 0.336887
0.958502 0.361857 0.453294
0.999540 0.675766 0.729626
0.996354 0.536627 0.605576
0.999510 0.706373 0.722059
0.005147 0.218382 0.238235
0.000283 0.104186 0.129488
0.000038 0.130193 0.171783
0.006307 0.198242 0.235742
0.003508 0.071645 0.107613
0.007135 0.115460 0.142609
0.001463 0.077198 0.088212
0.057828 0.274877 0.290675
0.005208 0.035233 0.052053
0.070470 0.224422 0.247201
0.101700 0.249602 0.272289
0.051945 0.104450 0.113557
0.211994 0.272917 0.300751
0.134409 0.148238 0.173212
0.284881 0.277574 0.306740
0.343053 0.297426 0.339338
0.321752 0.233824 0.265380
0.525008 0.384854 0.420761
0.536252 0.347549 0.385585
0.632372 0.391062 0.430296
0.620588 0.326854 0.372702
0.702202 0.358678 0.406139
0.667157 0.281265 0.332828
0.733586 0.306725 0.370994
0.860202 0.399418 0.461795
0.760168 0.256369 0.344504
0.790878 0.269010 0.343467
0.964557 0.496147 0.565878
0.836382 0.264966 0.359023
0.970830 0.387021 0.465828
0.964844 0.355346 0.436994
1.000000 0.505189 0.561271
0.870956 0.297181 0.375245
0.000735 0.174510 0.210784
0.000123 0.216353 0.245964
0.000000 0.163894 0.195313
0.000666 0.053577 0.087316
0.004075 0.065349 0.109191
0.015196 0.123200 0.165127
0.000597 0.240855 0.246109
0.220198 0.432774 0.435761
0.009681 0.186765 0.193199
0.090816 0.284566 0.291100
0.066713 0.141360 0.153845
0.187063 0.316759 0.332345
0.056587 0.163634 0.182721
0.248989 0.292969 0.317670
0.361749 0.370328 0.395787
0.362309 0.326654 0.357491
0.334681 0.252574 0.272426
0.445657 0.305653 0.334965
0.536075 0.339262 0.369256
0.681710 0.434191 0.465579
0.623529 0.326961 0.365533
0.786849 0.438021 0.481441
0.754213 0.364874 0.413205
0.881434 0.447174 0.503263
0.891850 0.425919 0.475919
0.867126 0.370404 0.427987
0.871170 0.361857 0.421477
0.972312 0.437408 0.495902
0.955423 0.415748 0.478278
0.963519 0.387201 0.446086
0.997840 0.525797 0.577543
0.994608 0.488189 0.533984
1.000000 0.563725 0.597794
0.006127 0.122549 0.159191
0.002968 0.193241 0.224023
0.000858 0.262584 0.291245
0.002777 0.209655 0.239143
0.005362 0.209206 0.245190
0.046664 0.329239 0.357617
0.000574 0.174709 0.192440
0.002011 0.192685 0.202263
0.011703 0.254933 0.257751
0.037148 0.151409 0.156805
0.084689 0.277711 0.273767
0.025387 0.196339 0.201976
0.177512 0.315472 0.322794
0.119397 0.218631 0.234440
0.334804 0.390349 0.406778
0.284861 0.302543 0.321557
0.393811 0.360846 0.381556
0.452076 0.379561 0.389522
0.469286 0.334206 0.354412
0.563618 0.382556 0.405955
0.485309 0.243796 0.267203
0.731683 0.446144 0.467199
0.580821 0.248790 0.287125
0.800276 0.426114 0.455534
0.866820 0.457138 0.494914
0.902171 0.503676 0.544225
0.943834 0.460126 0.496829
0.932184 0.426907 0.471167
0.998744 0.522227 0.564200
0.905025 0.395650 0.443313
0.973828 0.414377 0.459589
0.944638 0.371549 0.419022
0.995221 0.595098 0.636520
0.111765 0.384314 0.418627
0.001164 0.328401 0.362286
0.005576 0.153370 0.166176
0.000000 0.265901 0.291330
0.000368 0.091422 0.105392
0.002941 0.215839 0.252359
0.001164 0.262745 0.287010
0.002941 0.275490 0.292004
0.000000 0.282108 0.282598
0.031005 0.162408 0.152390
0.102696 0.333456 0.316789
0.077543 0.248070 0.233395
0.156127 0.305147 0.299877
0.162408 0.293229 0.297947
0.360049 0.438235 0.446998
0.234099 0.280147 0.297365
0.410294 0.403431 0.421569
0.319730 0.271385 0.287071
0.467831 0.379289 0.393199
0.528033 0.384161 0.401225
0.555760 0.363480 0.381740
0.535509 0.296538 0.315472
0.685294 0.394853 0.419914
0.671477 0.334528 0.361244
0.922304 0.547794 0.573039
0.700950 0.283364 0.322702
0.785294 0.335846 0.374877
0.769669 0.279687 0.336152
0.947672 0.460907 0.495711
0.904749 0.373254 0.420282
0.754105 0.190380 0.259252
0.956066 0.494669 0.540257
0.957843 0.548039 0.583333
0.000000 0.044118 0.071078
0.005461 0.288886 0.311577
0.000000 0.158372 0.193712
0.001264 0.255434 0.279435
0.000138 0.197702 0.229305
0.004239 0.353788 0.387240
0.000000 0.360754 0.391567
0.003546 0.321706 0.345473
0.003646 0.380331 0.391544
0.004714 0.263109 0.254956
0.158824 0.409965 0.399357
0.086604 0.327815 0.306166
0.134574 0.332996 0.311535
0.229205 0.381633 0.366766
0.239691 0.336520 0.328194
0.295102 0.337856 0.338048
0.434191 0.431373 0.429963
0.454048 0.396615 0.395592
0.447718 0.344278 0.339400
0.565242 0.398081 0.394857
0.541866 0.325597 0.321982
0.727439 0.456549 0.463902
0.778156 0.469930 0.475123
0.858617 0.522848 0.531966
0.860049 0.468811 0.474786
0.893313 0.461095 0.482391
0.936305 0.490694 0.500483
0.855327 0.384884 0.409785
0.917111 0.421936 0.454519
0.935432 0.488676 0.508119
0.997449 0.652934 0.667172
0.971151 0.456702 0.472373
0.972794 0.425490 0.440564
0.000000 0.332843 0.344363
0.002543 0.399073 0.421615
0.000245 0.288496 0.308594
0.001363 0.372763 0.405622
0.079350 0.410662 0.437040
0.000000 0.266828 0.295979
0.063343 0.424050 0.454642
0.002106 0.352642 0.375873
0.000000 0.278002 0.291728
0.087707 0.442027 0.445703
0.006158 0.241544 0.242555
0.115265 0.377191 0.344010
0.170803 0.393260 0.356127
0.143444 0.322924 0.284903
0.250980 0.364032 0.330653
0.268980 0.336742 0.309206
0.390319 0.391789 0.367647
0.504703 0.447886 0.427979
0.507430 0.390395 0.375245
0.588304 0.416889 0.402022
0.629228 0.417984 0.405607
0.625896 0.365020 0.356028
0.859835 0.556679 0.548744
0.745941 0.402482 0.396408
0.871814 0.542525 0.537255
0.796668 0.397702 0.395573
0.929458 0.497886 0.500291
0.876563 0.412623 0.418957
0.923958 0.447763 0.455852
0.997557 0.612730 0.609413
0.938771 0.454933 0.464231
0.946576 0.455231 0.472181
0.978186 0.453922 0.452451
0.002574 0.245833 0.266789
0.005185 0.297315 0.316713
0.000161 0.358586 0.383847
0.031778 0.476731 0.492670
0.002528 0.342356 0.369194
0.001137 0.370768 0.400023
0.002344 0.419899 0.455967
0.002106 0.395140 0.422691
0.081434 0.371170 0.389032
0.000758 0.370745 0.377014
0.001854 0.300965 0.306733
0.080986 0.425176 0.404082
0.021308 0.243413 0.216192
0.159272 0.380699 0.329626
0.217402 0.376792 0.341460
0.273445 0.384390 0.343045
0.231005 0.294792 0.249020
0.443693 0.443172 0.411064
0.504098 0.448851 0.416307
0.496687 0.390185 0.372063
0.681740 0.512209 0.496967
0.610673 0.401455 0.382774
0.551356 0.301348 0.289744
0.885846 0.579986 0.563419
0.702114 0.368597 0.355974
0.854186 0.482617 0.479776
0.894493 0.513258 0.497794
0.735857 0.303941 0.310512
0.975291 0.597503 0.597166
0.943838 0.511359 0.511952
0.870879 0.458977 0.457590
0.910168 0.454071 0.453301
0.950123 0.492892 0.489093
0.000000 0.274020 0.295098
0.002420 0.413297 0.426471
0.001471 0.447089 0.459406
0.000000 0.340334 0.361091
0.003431 0.318934 0.333517
0.007537 0.341085 0.363496
0.001991 0.215380 0.237653
0.000536 0.280423 0.314078
0.001103 0.373407 0.392034
0.148652 0.507843 0.518980
0.002022 0.238511 0.246354
0.069746 0.375888 0.361458
0.066667 0.325613 0.306801
0.159436 0.424234 0.391314
0.109896 0.303125 0.251685
0.187056 0.351670 0.304718
0.307353 0.410539 0.358824
0.373315 0.427129 0.379488
0.423621 0.426716 0.379871
0.502681 0.447503 0.406648
0.610723 0.501900 0.470098
0.629626 0.470879 0.442647
0.684712 0.471998 0.445680
0.793964 0.539905 0.511183
0.683456 0.392525 0.361887
0.852711 0.525123 0.495251
0.850245 0.493903 0.467341
0.841958 0.455775 0.438511
0.877819 0.467034 0.448346
0.889384 0.453968 0.438281
0.927298 0.468199 0.458027
0.961045 0.594746 0.590502
0.981373 0.551471 0.536765
0.000000 0.474510 0.481618
0.001593 0.287787 0.291046
0.001494 0.476248 0.474372
0.002259 0.437197 0.438733
0.100123 0.479458 0.486428
0.034011 0.420041 0.430090
0.000437 0.388480 0.411535
0.001367 0.404753 0.423560
0.002145 0.390135 0.410325
0.002945 0.395523 0.398346
0.031311 0.384352 0.383333
0.022036 0.368861 0.357169
0.077543 0.415165 0.391284
0.068953 0.377857 0.339710
0.117555 0.339124 0.288327
0.302164 0.482418 0.410995
0.349510 0.464032 0.386458
0.332004 0.384478 0.312309
0.521821 0.518666 0.450574
0.503458 0.443267 0.373537
0.693306 0.576379 0.512653
0.768800 0.606357 0.548897
0.687998 0.481296 0.428117
0.730890 0.477953 0.434364
0.913450 0.623437 0.574939
0.893359 0.617766 0.572829
0.946630 0.593459 0.555262
0.900195 0.511420 0.475027
0.941314 0.556051 0.517019
0.941364 0.558758 0.515265
0.949050 0.529067 0.493306
0.989181 0.557146 0.523303
0.995343 0.643260 0.603431
0.001716 0.544608 0.532843
0.001662 0.468076 0.453822
0.000383 0.463235 0.451425
0.001555 0.502704 0.491360
0.000214 0.370129 0.359804
0.006618 0.437232 0.437768
0.003186 0.353768 0.355806
0.002206 0.421821 0.432621
0.009436 0.479657 0.493137
0.000620 0.393964 0.398759
0.102650 0.522763 0.513343
0.002206 0.348131 0.329657
0.097304 0.387010 0.356740
0.079979 0.416797 0.378071
0.138557 0.416253 0.356449
0.258172 0.451838 0.378171
0.445711 0.576716 0.483701
0.399349 0.469462 0.364246
0.510493 0.518045 0.415640
0.567915 0.526739 0.422488
0.664737 0.563143 0.466238
0.705913 0.563197 0.466039
0.767616 0.578355 0.494378
0.812837 0.583410 0.511098
0.846201 0.563297 0.501103
0.852229 0.539223 0.477321
0.876792 0.536320 0.478569
0.926386 0.587937 0.522741
0.915564 0.534589 0.472702
0.875590 0.473422 0.428853
0.999586 0.622932 0.577129
0.973032 0.538496 0.485555
0.996078 0.717402 0.647549
0.110294 0.631863 0.621691
0.005342 0.421557 0.393892
0.000260 0.448139 0.424885
0.000000 0.490767 0.465445
0.003876 0.488526 0.479075
0.004128 0.365380 0.355450
0.008387 0.471684 0.467762
0.024127 0.424020 0.423457
0.074969 0.457629 0.462224
0.002600 0.353837 0.360348
0.001302 0.425268 0.414392
0.008333 0.420393 0.399701
0.139844 0.496186 0.473208
0.145745 0.468367 0.428282
0.111259 0.395090 0.346078
0.252355 0.492157 0.429557
0.338725 0.517892 0.445588
0.395807 0.523633 0.419233
0.420251 0.483111 0.367984
0.543712 0.555741 0.431200
0.538925 0.491069 0.382858
0.652244 0.563009 0.453696
0.783448 0.640993 0.542915
0.647626 0.461703 0.368513
0.831863 0.613787 0.531526
0.770868 0.494585 0.419727
0.832246 0.529994 0.450314
0.858655 0.531897 0.456936
0.986657 0.671170 0.605285
0.896519 0.528309 0.461447
0.904511 0.527880 0.473752
0.882211 0.503374 0.458433
0.954167 0.547181 0.492525
0.001961 0.398039 0.386275
0.003922 0.422059 0.418076
0.000490 0.354167 0.338480
0.001777 0.454044 0.451348
0.006127 0.368382 0.362990
0.064093 0.541544 0.536887
0.015441 0.388358 0.391054
0.127145 0.481311 0.478676
0.000000 0.462745 0.470098
0.103125 0.477941 0.484069
0.114583 0.537132 0.528922
0.081066 0.478676 0.475368
0.130637 0.467157 0.444118
0.146324 0.484865 0.459436
0.098652 0.444975 0.401103
0.076532 0.375858 0.317953
0.276471 0.510784 0.440196
0.263419 0.449632 0.361397
0.422549 0.547549 0.441054
0.411642 0.484007 0.365564
0.385294 0.399755 0.275245
0.584375 0.548100 0.424632
0.620098 0.525858 0.406250
0.839522 0.699020 0.583885
0.751961 0.569608 0.461765
0.799939 0.568444 0.469730
0.901225 0.626225 0.534559
0.965809 0.662255 0.579289
0.933088 0.602451 0.528186
0.887623 0.555208 0.483885
0.857721 0.493260 0.420588
0.995527 0.664522 0.597733
0.905882 0.500000 0.433333
0.003922 0.395833 0.374877
0.002018 0.521343 0.490208
0.002068 0.351777 0.322373
0.091820 0.486428 0.458464
0.018459 0.487852 0.470236
0.000977 0.481932 0.460968
0.000391 0.377351 0.364537
0.031265 0.474092 0.457847
0.099816 0.497610 0.492034
0.000586 0.375839 0.363526
0.048752 0.408509 0.396913
0.185398 0.539660 0.520420
0.065870 0.470956 0.440487
0.152409 0.529151 0.486217
0.294187 0.619248 0.563695
0.142452 0.454174 0.386891
0.213909 0.470466 0.384191
0.330844 0.516755 0.413055
0.445029 0.580729 0.462607
0.550257 0.630047 0.483456
0.552604 0.576823 0.416360
0.540479 0.516582 0.352489
0.630377 0.551823 0.395412
0.733923 0.601815 0.452129
0.751869 0.573438 0.433548
0.775712 0.567218 0.433395
0.833946 0.586849 0.473552
0.874081 0.596913 0.482732
0.908502 0.635371 0.531434
0.946875 0.682958 0.587366
0.994585 0.677589 0.571798
0.991965 0.627991 0.531338
0.993750 0.672426 0.576225
0.000000 0.518627 0.463725
0.003002 0.524372 0.459995
0.000107 0.429458 0.364522
0.053876 0.557759 0.495581
0.106893 0.514430 0.458578
0.000345 0.486719 0.433418
0.070726 0.548284 0.504749
0.197419 0.638771 0.601494
0.054044 0.454902 0.414400
0.102528 0.536443 0.505025
0.131970 0.515702 0.487163
0.222403 0.607835 0.555316
0.166636 0.500827 0.451072
0.186282 0.554159 0.481824
0.205561 0.534681 0.459145
0.348889 0.623820 0.527229
0.251471 0.496078 0.389338
0.403156 0.593536 0.474525
0.398100 0.542739 0.404519
0.494684 0.586719 0.428761
0.530239 0.571906 0.404075
0.578255 0.564162 0.371714
0.665395 0.603048 0.417938
0.710700 0.601141 0.421109
0.690441 0.535049 0.361336
0.939078 0.746224 0.582598
0.905040 0.677819 0.526593
0.944095 0.689001 0.546599
0.861029 0.591850 0.463787
0.974962 0.687538 0.567119
0.955530 0.690870 0.567249
0.992915 0.729649 0.612975
0.962255 0.805392 0.672794
0.001593 0.351225 0.287010
0.005293 0.603508 0.528163
0.002949 0.585355 0.508563
0.146036 0.654056 0.584314
0.152619 0.607475 0.539828
0.130270 0.550931 0.482437
0.021546 0.520259 0.469386
0.016479 0.511719 0.456177
0.211581 0.645282 0.597978
0.201589 0.599682 0.549441
0.084038 0.463366 0.421063
0.081350 0.510202 0.465119
0.129059 0.530561 0.469715
0.234953 0.596764 0.522028
0.174265 0.520680 0.439943
0.221925 0.510160 0.417291
0.283824 0.546998 0.438051
0.396810 0.613408 0.496063
0.441000 0.621791 0.487040
0.508724 0.644945 0.497258
0.503079 0.592096 0.430208
0.595155 0.631667 0.448292
0.630974 0.603539 0.408793
0.704266 0.635470 0.437102
0.744271 0.622089 0.438634
0.815246 0.664962 0.481637
0.900184 0.704511 0.535440
0.941173 0.715675 0.548863
0.907292 0.656449 0.502497
0.976811 0.741207 0.594244
0.990357 0.708150 0.570818
0.921335 0.611064 0.479305
1.000000 0.726716 0.610539
0.003922 0.382843 0.331863
0.004366 0.579136 0.506051
0.049632 0.565472 0.511550
0.008655 0.465273 0.404657
0.035846 0.552206 0.500490
0.014629 0.527191 0.472028
0.149357 0.610815 0.560417
0.048897 0.550306 0.504565
0.116912 0.583211 0.538603
0.002482 0.489813 0.441575
0.094056 0.498683 0.453033
0.178692 0.573483 0.528217
0.139645 0.544240 0.488051
0.171002 0.520006 0.460263
0.094669 0.483854 0.409099
0.325613 0.640686 0.561719
0.194853 0.505637 0.403186
0.297289 0.551409 0.443551
0.393566 0.604963 0.476777
0.450414 0.617770 0.473805
0.461152 0.586029 0.429167
0.475230 0.560126 0.387745
0.647335 0.683150 0.491544
0.523300 0.503906 0.290043
0.569485 0.497059 0.286397
0.768980 0.652742 0.451562
0.746936 0.592494 0.395098
0.897212 0.695450 0.516881
0.955453 0.725735 0.548468
0.994593 0.808900 0.651348
0.857690 0.590196 0.434406
0.910371 0.731526 0.571998
1.000000 0.831373 0.683824
0.000000 0.501225 0.414706
0.041491 0.600892 0.507878
0.077374 0.610700 0.514040
0.021006 0.553493 0.457560
0.185294 0.678768 0.593214
0.151294 0.646002 0.562178
0.059145 0.569324 0.496170
0.131909 0.597618 0.512473
0.098897 0.472641 0.402145
0.194861 0.625471 0.557200
0.074992 0.490211 0.416176
0.139396 0.540755 0.474008
0.238526 0.607613 0.534115
0.197775 0.570121 0.487726
0.189315 0.532881 0.435746
0.259609 0.574690 0.458081
0.411458 0.672181 0.558150
0.343639 0.587963 0.445787
0.414331 0.619807 0.459789
0.453240 0.617946 0.452072
0.469485 0.592172 0.412822
0.611317 0.700260 0.505626
0.721538 0.761619 0.549517
0.653401 0.643964 0.416648
0.780453 0.728860 0.488634
0.771879 0.678573 0.429848
0.855806 0.713902 0.480867
0.963936 0.803470 0.594891
0.993796 0.914951 0.707904
0.952930 0.722710 0.527470
0.970849 0.765150 0.581641
0.944347 0.665993 0.497400
0.946078 0.741054 0.574632
0.416667 0.816176 0.685539
0.001838 0.446461 0.322802
0.276363 0.701042 0.571109
0.131671 0.634122 0.501915
0.226991 0.659498 0.535325
0.117440 0.596377 0.483954
0.063741 0.504151 0.390610
0.222327 0.644677 0.532399
0.318137 0.692770 0.582108
0.289675 0.655699 0.546446
0.280790 0.633349 0.532047
0.279665 0.629534 0.522725
0.296048 0.603094 0.503156
0.211190 0.539591 0.424556
0.376409 0.653079 0.527145
0.303638 0.572733 0.439384
0.451471 0.685907 0.537132
0.461673 0.663611 0.511742
0.454550 0.634206 0.470604
0.502995 0.661788 0.475927
0.512592 0.638327 0.442034
0.649418 0.735616 0.523775
0.598729 0.651639 0.423177
0.649341 0.652842 0.417134
0.851164 0.817341 0.563971
0.820098 0.744156 0.483938
0.959988 0.935677 0.684467
0.811826 0.662155 0.411964
0.908854 0.751471 0.509712
0.880905 0.677956 0.460639
0.971124 0.802742 0.598146
0.998690 0.829979 0.627926
0.981127 0.741422 0.555392
0.428922 0.810784 0.664583
0.150754 0.594451 0.453397
0.158701 0.600092 0.460371
0.205978 0.637366 0.501195
0.253294 0.674985 0.546982
0.178481 0.624866 0.504010
0.126218 0.473974 0.348369
0.248376 0.671044 0.542111
0.286060 0.662745 0.544638
0.341261 0.693409 0.577351
0.285999 0.635309 0.514308
0.410206 0.724353 0.608054
0.350506 0.645650 0.537531
0.395860 0.681154 0.564526
0.394095 0.667218 0.538557
0.407763 0.674380 0.532575
0.476103 0.718137 0.566850
0.380124 0.614886 0.455967
0.501555 0.702849 0.529419
0.498196 0.670745 0.487657
0.535294 0.689568 0.491559
0.570002 0.684249 0.487423
0.643873 0.727597 0.506916
0.654971 0.715062 0.471442
0.856985 0.858272 0.612898
0.876651 0.833770 0.582043
0.681733 0.604496 0.320910
0.823805 0.703339 0.433628
0.893290 0.746032 0.489063
0.934141 0.757483 0.518248
0.826164 0.656028 0.424655
0.965028 0.756541 0.544604
0.874387 0.629534 0.417279
0.368627 0.771569 0.627451
0.203462 0.635386 0.501930
0.138848 0.603799 0.472426
0.222335 0.665778 0.530821
0.163603 0.619975 0.486887
0.354779 0.776654 0.652574
0.252574 0.667096 0.546446
0.133272 0.598621 0.464645
0.237255 0.644363 0.527451
0.102451 0.497273 0.378983
0.339032 0.688358 0.563542
0.241054 0.583885 0.468444
0.303309 0.620221 0.501716
0.440257 0.723437 0.605790
0.386152 0.665441 0.540564
0.412806 0.675460 0.535815
0.496569 0.749510 0.602451
0.394210 0.634467 0.472641
0.449449 0.661642 0.494240
0.432108 0.633456 0.453401
0.622059 0.779289 0.594240
0.658088 0.790533 0.593781
0.558456 0.665012 0.450797
0.690564 0.759988 0.534926
0.801961 0.837745 0.599510
0.793413 0.781127 0.531863
0.768321 0.735233 0.465012
0.880668 0.801072 0.523468
0.767157 0.648529 0.367157
0.915533 0.812347 0.544577
0.727083 0.555086 0.302757
0.869056 0.671048 0.421415
0.977451 0.820588 0.593137
0.420711 0.775000 0.607230
0.335332 0.687309 0.522289
0.205507 0.596806 0.431870
0.382161 0.744608 0.585838
0.078416 0.446369 0.293827
0.322300 0.685551 0.531396
0.378960 0.735371 0.584314
0.329251 0.680974 0.530917
0.435386 0.757721 0.612040
0.364959 0.684321 0.545952
0.529358 0.818796 0.667547
0.370933 0.657935 0.512764
0.420190 0.676746 0.532889
0.401283 0.647350 0.502600
0.545703 0.764844 0.613894
0.548939 0.763752 0.598242
0.385600 0.592218 0.420588
0.635191 0.818543 0.642421
0.572557 0.747442 0.556350
0.613986 0.770519 0.572281
0.651716 0.781909 0.573591
0.727183 0.838944 0.620125
0.671270 0.762201 0.528056
0.683540 0.732399 0.501180
0.775735 0.800980 0.565778
0.642670 0.651298 0.380415
0.810286 0.777742 0.502734
0.849851 0.785681 0.482927
0.678385 0.576042 0.262699
0.896649 0.772296 0.475601
0.838434 0.699885 0.404749
0.777849 0.614752 0.325375
1.000000 0.923162 0.665319
0.282598 0.571078 0.380392
0.491766 0.746255 0.564346
0.359191 0.643352 0.452237
0.460654 0.737699 0.555538
0.353707 0.641483 0.463909
0.455162 0.735983 0.553991
0.486734 0.763664 0.584605
0.393367 0.666820 0.494370
0.403554 0.656373 0.488051
0.448698 0.693137 0.523935
0.484988 0.715456 0.537561
0.524617 0.741085 0.576517
0.584069 0.780208 0.615288
0.543750 0.724946 0.560263
0.607338 0.764292 0.609666
0.735976 0.829274 0.709758
0.681250 0.823652 0.641912
0.700574 0.843589 0.649494
0.662454 0.797227 0.597013
0.766039 0.889775 0.680637
0.719087 0.822855 0.606066
0.670221 0.760800 0.535800
0.767800 0.846584 0.612086
0.777895 0.830936 0.585968
0.762929 0.788848 0.536397
0.800919 0.811006 0.528707
