video-api/assets/luts/dark-knight.cube
#Generated with IWLTBAP LUT Generator 2.1.9571.30596
#Website: https://luts.iwltbap.com
TITLE "LUT convert-4"
LUT_3D_SIZE 9
0.000000 0.247059 0.274510
0.031863 0.175000 0.218627
0.020588 0.056863 0.100000
0.181373 0.177451 0.229412
0.300000 0.186275 0.237255
0.674020 0.380392 0.445588
0.898039 0.440196 0.524510
0.938235 0.326961 0.430392
0.976471 0.313725 0.427451
0.003431 0.010784 0.016176
0.000061 0.138297 0.166667
0.091667 0.255147 0.285907
0.190257 0.249816 0.272978
0.324755 0.252696 0.290196
0.547059 0.283701 0.330637
0.779044 0.336029 0.400980
0.801409 0.232598 0.336887
0.999510 0.706373 0.722059
0.111765 0.384314 0.418627
0.000368 0.091422 0.105392
0.000000 0.282108 0.282598
0.156127 0.305147 0.299877
0.410294 0.403431 0.421569
0.555760 0.363480 0.381740
0.922304 0.547794 0.573039
0.947672 0.460907 0.495711
0.957843 0.548039 0.583333
0.000000 0.274020 0.295098
0.003431 0.318934 0.333517
0.001103 0.373407 0.392034
0.066667 0.325613 0.306801
0.307353 0.410539 0.358824
0.610723 0.501900 0.470098
0.683456 0.392525 0.361887
0.877819 0.467034 0.448346
0.981373 0.551471 0.536765
0.001961 0.398039 0.386275
0.006127 0.368382 0.362990
0.000000 0.462745 0.470098
0.130637 0.467157 0.444118
0.276471 0.510784 0.440196
0.385294 0.399755 0.275245
0.751961 0.569608 0.461765
0.933088 0.602451 0.528186
0.905882 0.500000 0.433333
0.003922 0.382843 0.331863
0.035846 0.552206 0.500490
0.116912 0.583211 0.538603
0.139645 0.544240 0.488051
0.194853 0.505637 0.403186
0.461152 0.586029 0.429167
0.569485 0.497059 0.286397
0.955453 0.725735 0.548468
1.000000 0.831373 0.683824
0.368627 0.771569 0.627451
0.163603 0.619975 0.486887
0.237255 0.644363 0.527451
0.303309 0.620221 0.501716
0.496569 0.749510 0.602451
0.622059 0.779289 0.594240
0.801961 0.837745 0.599510
0.767157 0.648529 0.367157
0.977451 0.820588 0.593137
0.587255 0.836275 0.632843
0.560600 0.810049 0.613051
0.552819 0.780515 0.585294
0.665196 0.853554 0.667770
0.604412 0.750000 0.557598
0.629963 0.752512 0.529167
0.726716 0.794730 0.541912
0.777267 0.752390 0.454657
0.905882 0.798529 0.447059
0.996078 1.000000 0.874510
0.753431 0.854412 0.669608
0.715686 0.804902 0.613725
0.749020 0.817647 0.635294
0.827451 0.878431 0.713725
0.861275 0.906863 0.720098
0.824510 0.837255 0.643137
0.937745 0.937745 0.740686
1.000000 0.984314 0.745098
0.000000 0.003431 0.000980
0.001348 0.214767 0.308027
0.009191 0.132353 0.236642
0.120772 0.193260 0.291728
0.348039 0.279657 0.389951
0.521875 0.273958 0.389890
0.804902 0.348529 0.467157
0.994853 0.466422 0.573775
0.998039 0.553431 0.620098
0.006005 0.322304 0.396201
0.027880 0.151126 0.226172
0.174740 0.384115 0.465165
0.077704 0.214177 0.294324
0.383517 0.363297 0.447672
0.539085 0.298491 0.397871
0.816896 0.383425 0.481480
0.989116 0.526808 0.619455
0.993566 0.572610 0.621078
0.000368 0.389338 0.441054
0.008563 0.164813 0.220052
0.011489 0.312714 0.367004
0.095604 0.305867 0.363266
0.306740 0.332047 0.379596
0.548146 0.360830 0.408931
0.750705 0.376961 0.432935
0.914277 0.435080 0.480990
0.994485 0.585907 0.596936
0.007966 0.205760 0.243689
0.127727 0.502282 0.536336
0.006434 0.335218 0.376394
0.073713 0.395872 0.414782
0.249234 0.356250 0.345619
0.555208 0.432812 0.428186
0.707675 0.419638 0.409283
0.906863 0.509612 0.495956
0.999816 0.607659 0.584436
0.003431 0.440931 0.427451
0.002420 0.526440 0.505178
0.205270 0.575919 0.574632
0.006679 0.350245 0.338725
0.230882 0.465931 0.409314
0.626471 0.614246 0.514154
0.885110 0.686091 0.602635
0.904442 0.653799 0.580484
0.926961 0.712010 0.615686
0.008517 0.582292 0.494792
0.183678 0.639262 0.547794
0.075934 0.479350 0.403615
0.315679 0.612431 0.550789
0.312714 0.557751 0.458517
0.520389 0.626248 0.471706
0.731817 0.657093 0.462270
0.857881 0.647970 0.484429
0.946814 0.663358 0.518566
0.478799 0.781740 0.629044
0.379948 0.686351 0.533134
0.428493 0.700613 0.558977
0.432935 0.656311 0.524847
0.563664 0.749510 0.601532
0.622503 0.744822 0.556235
0.724632 0.749479 0.521232
0.750077 0.642846 0.369516
0.862745 0.695221 0.468015
0.535846 0.716544 0.514828
0.632506 0.804879 0.605101
0.659268 0.828876 0.636795
0.623407 0.729596 0.564116
0.770772 0.871967 0.690165
0.709237 0.778539 0.574831
0.876563 0.911152 0.680668
0.839047 0.812431 0.531472
0.996507 0.951716 0.634069
0.771569 0.847549 0.670098
0.860110 0.934804 0.758272
0.732843 0.803309 0.627206
0.861765 0.915625 0.750674
0.843873 0.886029 0.721569
0.963542 0.974449 0.867341
0.789951 0.819118 0.631740
0.968873 0.968811 0.835110
0.824020 0.792157 0.550490
0.000980 0.144118 0.337255
0.000000 0.178799 0.388113
0.002206 0.217157 0.424020
0.181005 0.302328 0.487623
0.397059 0.329902 0.521078
0.687132 0.392279 0.589461
0.699755 0.218382 0.418627
0.784314 0.262500 0.400490
1.000000 0.674510 0.694118
0.005147 0.171446 0.300613
0.001011 0.282460 0.424862
0.075214 0.372794 0.529933
0.078202 0.224678 0.378845
0.272181 0.251593 0.407230
0.603217 0.351180 0.518122
0.882200 0.452911 0.599387
0.969684 0.533150 0.609344
0.994363 0.619853 0.632598
0.000245 0.343382 0.438725
0.000919 0.431189 0.527757
0.002574 0.322181 0.420221
0.173009 0.415411 0.526685
0.278799 0.327941 0.434804
0.577145 0.409344 0.504749
0.816422 0.483088 0.565319
0.908762 0.506127 0.537837
0.901471 0.488235 0.483333
0.005270 0.371201 0.422059
0.002482 0.386259 0.439874
0.053646 0.449632 0.501348
0.038281 0.338909 0.389308
0.383088 0.482414 0.528860
0.564338 0.465012 0.494608
0.741238 0.494669 0.502267
0.892080 0.552191 0.531250
0.997917 0.737132 0.694608
0.027941 0.527451 0.510294
0.097365 0.568873 0.551716
0.218382 0.584191 0.574387
0.321385 0.594975 0.605699
0.315441 0.509559 0.488235
0.596569 0.582475 0.530760
0.787255 0.618015 0.554044
0.914154 0.668260 0.602757
0.952941 0.679902 0.596569
0.272059 0.633578 0.542157
0.229963 0.596431 0.507460
0.302911 0.612439 0.541391
0.307920 0.543551 0.487745
0.473346 0.653309 0.575551
0.511320 0.594684 0.480040
0.885049 0.806893 0.651501
0.914568 0.728232 0.593735
0.904534 0.678799 0.550000
0.373775 0.610539 0.462745
0.515717 0.742494 0.590319
0.490686 0.701900 0.560172
0.453676 0.619148 0.487377
0.556127 0.686520 0.550735
0.706893 0.796385 0.636642
0.679963 0.684926 0.487745
0.887714 0.804136 0.579779
0.997059 0.899020 0.702941
0.712255 0.841667 0.648162
0.746201 0.872610 0.697641
0.727543 0.853002 0.668229
0.747641 0.848713 0.676884
0.714216 0.778309 0.620221
0.852849 0.905775 0.724112
0.818199 0.845129 0.631740
0.855346 0.825383 0.584881
0.984069 0.906985 0.631005
0.937255 0.997059 0.844118
0.854167 0.911887 0.758456
0.833824 0.889216 0.734559
0.932353 0.952696 0.838603
0.872059 0.902451 0.757353
0.927574 0.939216 0.818750
0.911765 0.920588 0.751961
0.868260 0.864828 0.660907
1.000000 0.990196 0.830392
0.002941 0.212745 0.464216
0.000613 0.118995 0.383640
0.148897 0.413235 0.682843
0.125245 0.185968 0.450613
0.330637 0.220098 0.482843
0.605637 0.276225 0.539645
0.853922 0.368505 0.591912
0.849142 0.347672 0.485355
0.997549 0.720098 0.760784
0.005086 0.303002 0.496324
0.006457 0.427466 0.637040
0.000766 0.254090 0.475368
0.274242 0.375222 0.597587
0.411336 0.351225 0.570282
0.593321 0.310623 0.540342
0.776118 0.347702 0.541330
0.984329 0.554956 0.662385
0.994914 0.630882 0.663174
0.002328 0.347549 0.481127
0.000092 0.464262 0.595757
0.012377 0.407047 0.545895
0.111320 0.346752 0.502267
0.401471 0.417402 0.571078
0.639400 0.445925 0.598729
0.806464 0.470374 0.589553
0.970404 0.587975 0.642525
0.956127 0.581127 0.582721
0.002635 0.442647 0.519301
0.000980 0.428577 0.510233
0.000000 0.398698 0.482430
0.234605 0.530308 0.601264
0.463909 0.537316 0.608548
0.620067 0.527282 0.587554
0.833732 0.606020 0.633624
0.919715 0.650513 0.637707
0.974265 0.800613 0.747243
0.063725 0.541422 0.551961
0.087255 0.576624 0.575613
0.105086 0.529657 0.528125
0.311458 0.561029 0.554473
0.472794 0.586275 0.575735
0.665288 0.643627 0.614461
0.736949 0.605637 0.557108
0.951317 0.728094 0.661795
0.932353 0.686275 0.619118
0.358272 0.716360 0.638174
0.342180 0.659842 0.580078
0.400214 0.657399 0.572426
0.428768 0.595688 0.526877
0.457230 0.570987 0.512929
0.668796 0.721186 0.634153
0.728217 0.645312 0.535953
0.900314 0.752780 0.650276
0.954044 0.836949 0.724081
0.697794 0.883333 0.742647
0.653738 0.824127 0.682981
0.618168 0.765809 0.636091
0.663526 0.784881 0.655224
0.669301 0.741912 0.632292
0.698652 0.746324 0.617846
0.885018 0.883456 0.723897
0.896354 0.798100 0.624663
0.949142 0.791054 0.628309
0.567892 0.674081 0.509804
0.783686 0.885501 0.719064
0.788373 0.864920 0.718612
0.730346 0.792770 0.643635
0.795680 0.841759 0.700153
0.818061 0.832981 0.718750
0.806955 0.813511 0.642279
0.864430 0.839369 0.658157
0.787990 0.697304 0.463174
0.985294 0.997549 0.951471
0.858333 0.905086 0.764522
0.781005 0.823407 0.680760
0.861336 0.897978 0.764767
0.881127 0.898284 0.775490
0.860662 0.871752 0.747365
0.946078 0.949877 0.845098
0.976225 0.972365 0.810968
0.947059 0.927451 0.744118
0.000000 0.311765 0.588235
0.000735 0.338480 0.639216
0.072059 0.390686 0.681373
0.289706 0.357108 0.646324
0.533333 0.341176 0.640196
0.704657 0.362500 0.663480
0.905882 0.429412 0.708333
0.921078 0.450245 0.631863
1.000000 0.696078 0.780392
0.000000 0.466912 0.688480
0.004963 0.272304 0.509375
0.100061 0.412316 0.677328
0.334743 0.444271 0.695588
0.484804 0.350123 0.603554
0.705852 0.408885 0.663174
0.910294 0.496017 0.721936
0.919761 0.478033 0.632996
0.968627 0.558333 0.630147
0.001961 0.454412 0.603922
0.025368 0.519975 0.662868
0.012132 0.440686 0.615074
0.220833 0.416728 0.599387
0.466912 0.421814 0.599510
0.689461 0.490931 0.667096
0.769363 0.446078 0.601103
0.880515 0.497365 0.596691
0.977451 0.736765 0.769118
0.002451 0.523529 0.629412
0.002267 0.499602 0.590748
0.032721 0.474081 0.574816
0.197243 0.483211 0.587010
0.533456 0.590074 0.690564
0.667953 0.570527 0.656127
0.838848 0.619608 0.686336
0.949050 0.666023 0.705025
0.993137 0.768382 0.761520
0.005882 0.516667 0.548039
0.002941 0.535417 0.563848
0.018137 0.560539 0.586765
0.229779 0.577451 0.612132
0.395588 0.529412 0.551471
0.672549 0.642157 0.643750
0.755882 0.618382 0.607108
0.926103 0.720588 0.690809
0.994118 0.770588 0.719608
0.198284 0.678922 0.626225
0.258150 0.656281 0.599142
0.323652 0.647426 0.595282
0.456127 0.667034 0.607782
0.592647 0.688235 0.622181
0.686826 0.694730 0.631189
0.848162 0.777819 0.703186
0.918873 0.784865 0.706158
0.923284 0.774510 0.689461
0.710784 0.899020 0.786765
0.486275 0.688909 0.567892
0.532843 0.710784 0.582353
0.684069 0.802880 0.686091
0.701471 0.753922 0.650980
0.750613 0.762377 0.669792
0.887377 0.865686 0.753799
0.866850 0.773836 0.647672
0.979902 0.928431 0.822549
0.707353 0.812745 0.655392
0.843566 0.941085 0.794301
0.823468 0.899877 0.762316
0.777420 0.836029 0.706771
0.881373 0.909804 0.807843
0.820190 0.826134 0.708946
0.823223 0.816054 0.677390
0.881556 0.851685 0.695343
0.966422 0.889706 0.724265
0.796078 0.841176 0.729412
0.863725 0.910539 0.791422
0.983333 0.990196 0.945098
0.803676 0.830637 0.709804
0.949020 0.958824 0.880392
0.901471 0.901471 0.813725
0.901471 0.900490 0.816667
0.870833 0.864706 0.760294
0.996078 0.998039 0.849020
0.000000 0.257353 0.546078
0.000613 0.402512 0.710355
0.041544 0.456373 0.766054
0.347549 0.479105 0.789706
0.533578 0.450245 0.757353
0.703738 0.447672 0.723652
0.953922 0.573284 0.839706
0.948284 0.519240 0.763174
1.000000 0.658824 0.813235
0.006801 0.509375 0.759804
0.075781 0.607407 0.858410
0.005239 0.439614 0.720971
0.314154 0.488388 0.766904
0.570895 0.514706 0.783272
0.704335 0.480339 0.723009
0.963603 0.634835 0.876026
0.937615 0.519056 0.728531
0.971814 0.566238 0.707659
0.018627 0.540809 0.712868
0.036933 0.477956 0.658395
0.054902 0.497304 0.695496
0.258946 0.491422 0.703294
0.488235 0.491973 0.690993
0.737837 0.576762 0.752589
0.819945 0.551164 0.725919
0.921339 0.559850 0.721124
0.981250 0.688971 0.791299
0.000919 0.456189 0.560478
0.045512 0.557131 0.666207
0.172105 0.586244 0.691636
0.372656 0.636305 0.757437
0.450214 0.528002 0.656434
0.690740 0.600130 0.706786
0.798560 0.597089 0.699479
0.882399 0.596392 0.688771
0.908578 0.687929 0.740809
0.073529 0.734804 0.783088
0.043811 0.562960 0.610784
0.009743 0.482475 0.541115
0.183303 0.524081 0.585202
0.481373 0.618627 0.667647
0.664890 0.637684 0.676869
0.788480 0.663297 0.701777
0.860447 0.634130 0.667555
0.875000 0.695833 0.691422
0.095772 0.642647 0.626164
0.113381 0.621538 0.597786
0.201838 0.632521 0.618306
0.356633 0.679473 0.661811
0.444853 0.641636 0.624142
0.682284 0.718436 0.688764
0.845374 0.781924 0.750123
0.810807 0.665188 0.625567
0.955699 0.815441 0.768750
0.355392 0.691912 0.597181
0.537423 0.831235 0.750781
0.518321 0.781036 0.686857
0.557889 0.745466 0.656066
0.607475 0.704228 0.614400
0.779197 0.788603 0.714752
0.754933 0.723437 0.641422
0.927803 0.869638 0.804779
0.975368 0.866544 0.789706
0.844914 0.912132 0.851900
0.756602 0.884298 0.759436
0.802558 0.913649 0.793076
0.752650 0.847258 0.723169
0.776562 0.817218 0.705882
0.834743 0.834291 0.732797
0.930561 0.918321 0.864828
0.945680 0.912240 0.811405
0.992525 0.978309 0.896875
0.768627 0.833824 0.712745
0.876777 0.902451 0.828186
0.823039 0.862255 0.762990
0.908211 0.935784 0.854718
0.905147 0.921078 0.847794
0.924020 0.922181 0.844608
0.902574 0.890196 0.803676
0.743873 0.739645 0.642525
0.998529 0.988725 0.944118
0.002941 0.372549 0.664706
0.000368 0.513358 0.809069
0.197549 0.564216 0.861765
0.373039 0.551348 0.845833
0.526961 0.519608 0.804412
0.686397 0.536275 0.798529
0.786275 0.528186 0.764216
0.963603 0.660417 0.904779
0.998039 0.680392 0.907843
0.011029 0.569240 0.832108
0.191468 0.614384 0.889507
0.076593 0.461703 0.744914
0.257399 0.454963 0.726930
0.483456 0.488725 0.742953
0.624816 0.490043 0.731265
0.849877 0.607169 0.827022
0.890763 0.551716 0.781924
0.858946 0.465196 0.677696
0.130882 0.486520 0.684069
0.146262 0.499571 0.703002
0.178922 0.555025 0.764032
0.301869 0.512806 0.730453
0.639951 0.667525 0.878431
0.711612 0.613603 0.804320
0.795037 0.586887 0.769424
0.978585 0.746967 0.923468
0.891422 0.518873 0.696324
0.332230 0.682353 0.800858
0.343015 0.657399 0.775996
0.318474 0.598192 0.739461
0.478998 0.663496 0.817999
0.534681 0.596936 0.748162
0.718474 0.654335 0.792218
0.869087 0.707721 0.831618
0.785187 0.545910 0.673698
0.985662 0.703799 0.830882
0.124020 0.620588 0.690196
0.150919 0.596630 0.670588
0.208456 0.566299 0.640196
0.342463 0.558088 0.625368
0.497549 0.605147 0.693627
0.688297 0.676471 0.758333
0.861275 0.744730 0.816789
0.924877 0.743015 0.817034
0.972549 0.716176 0.787745
0.010662 0.590931 0.596814
0.226547 0.713266 0.725567
0.122549 0.596446 0.608946
0.397442 0.736688 0.751501
0.552574 0.738113 0.755453
0.691590 0.731909 0.756173
0.746630 0.676348 0.690809
0.895205 0.754718 0.772901
0.998897 0.862623 0.877451
0.496569 0.861520 0.802451
0.458180 0.814461 0.763879
0.451409 0.768995 0.723468
0.430699 0.685907 0.642831
0.485294 0.664093 0.620588
0.701042 0.795588 0.751103
0.782292 0.771140 0.725797
0.891942 0.806127 0.765227
0.959559 0.842157 0.807108
0.487990 0.712377 0.614461
0.503401 0.724403 0.619347
0.700980 0.864737 0.774847
0.770404 0.897426 0.807399
0.779718 0.875245 0.781618
0.856235 0.895864 0.809176
0.968137 0.950214 0.874050
0.956066 0.908946 0.832491
0.987745 0.953309 0.894485
0.947059 1.000000 0.944118
0.824755 0.907721 0.823284
0.855392 0.934314 0.845833
0.948529 0.967279 0.934804
0.889706 0.917157 0.845098
0.857721 0.863725 0.797304
0.928186 0.921324 0.858088
0.969975 0.941054 0.888358
0.961765 0.938235 0.882353
0.661765 0.827941 1.000000
0.457169 0.641912 0.897855
0.577083 0.718995 0.950735
0.689583 0.759069 0.969485
0.602451 0.604902 0.837745
0.687806 0.610355 0.834069
0.713113 0.563480 0.754902
0.966115 0.720650 0.927451
0.993137 0.812745 0.986275
0.347549 0.542831 0.760110
0.360126 0.535823 0.762783
0.446921 0.597243 0.829090
0.546729 0.628362 0.851945
0.771783 0.758885 0.937990
0.718704 0.637354 0.855959
0.961091 0.814369 0.982184
0.886374 0.647503 0.849196
0.966850 0.680208 0.872855
0.580760 0.728431 0.918260
0.524004 0.674694 0.855362
0.448315 0.574632 0.770711
0.648591 0.719608 0.920496
0.712684 0.723897 0.886949
0.724096 0.648177 0.847595
0.802757 0.657353 0.838113
0.954151 0.811765 0.933931
0.986152 0.759804 0.932721
0.642586 0.780453 0.911703
0.658019 0.778408 0.891406
0.526563 0.642371 0.789047
0.553546 0.639193 0.797771
0.636887 0.663113 0.825613
0.723438 0.681817 0.824563
0.823912 0.705836 0.858732
0.809896 0.637791 0.768581
0.884252 0.676042 0.813664
0.628922 0.796078 0.886029
0.678278 0.826838 0.925490
0.741667 0.849265 0.924081
0.730116 0.817494 0.922426
0.763358 0.802328 0.893260
0.805147 0.784620 0.901440
0.806985 0.721017 0.828064
0.870650 0.715686 0.821201
0.949020 0.834069 0.894608
0.346507 0.631373 0.694485
0.459352 0.701080 0.758349
0.516805 0.720864 0.773897
0.570244 0.718727 0.777964
0.700398 0.772825 0.827206
0.795650 0.813810 0.886190
0.877742 0.831541 0.886994
0.900682 0.794317 0.845604
0.929779 0.760110 0.827328
0.410539 0.668627 0.667402
0.534911 0.773376 0.769026
0.685631 0.907108 0.910754
0.641927 0.839920 0.845573
0.632169 0.784804 0.793015
0.668765 0.743398 0.756189
0.797610 0.786612 0.806403
0.977742 0.947304 0.958655
0.889828 0.768750 0.788358
0.808701 0.974265 0.959252
0.766759 0.959452 0.935631
0.576394 0.738725 0.714246
0.744861 0.854619 0.833954
0.662439 0.785509 0.747181
0.779052 0.861060 0.818934
0.775781 0.802359 0.769072
0.795244 0.750406 0.718275
0.948529 0.882904 0.854473
0.668627 0.817647 0.759804
0.677696 0.798407 0.740012
0.698039 0.820588 0.746691
0.897917 0.981556 0.933333
0.903922 0.980392 0.918627
0.905637 0.948713 0.888971
0.921201 0.924755 0.881863
0.993995 0.989706 0.974265
1.000000 1.000000 1.000000
0.709804 0.764706 0.956863
0.737745 0.771078 0.945098
0.800980 0.820588 0.980392
0.702941 0.703922 0.884804
0.876471 0.815686 0.949020
0.909804 0.810294 0.954412
0.906863 0.774510 0.950000
0.935784 0.749020 0.922549
0.847059 0.607843 0.780392
0.807843 0.851961 1.000000
0.837684 0.859375 0.983578
0.608088 0.632721 0.807721
0.753922 0.746078 0.935600
0.738480 0.698775 0.841176
0.840319 0.746630 0.907475
0.884559 0.750735 0.918873
0.959498 0.782169 0.934069
0.978431 0.760784 0.920588
0.611765 0.662745 0.835294
0.675613 0.714951 0.876961
0.681863 0.712990 0.893382
0.758578 0.767647 0.925490
0.843627 0.808824 0.953922
0.878676 0.806740 0.943015
0.850000 0.730147 0.886029
0.942525 0.779534 0.932966
0.957843 0.744118 0.894118
0.746569 0.805392 0.934804
0.750919 0.801042 0.939400
0.811642 0.842402 0.962010
0.689828 0.708885 0.858211
0.822794 0.793627 0.922549
0.880821 0.825123 0.966299
0.937623 0.826593 0.959804
0.898591 0.783150 0.890074
1.000000 0.834314 0.965686
0.654902 0.717647 0.825490
0.760294 0.824755 0.923284
0.778431 0.820588 0.930882
0.705882 0.723775 0.824510
0.798039 0.797059 0.920588
0.876225 0.833578 0.945343
0.913235 0.831373 0.929902
0.903676 0.807353 0.888480
0.988235 0.841176 0.950980
0.763725 0.864706 0.938725
0.803493 0.871140 0.922365
0.779412 0.862500 0.906005
0.847243 0.896569 0.949203
0.779902 0.797549 0.866422
0.799387 0.793505 0.877880
0.946446 0.904167 0.968260
0.875306 0.808824 0.852635
0.951471 0.871569 0.929412
0.650000 0.777451 0.818627
0.681373 0.823162 0.853922
0.826716 0.948775 0.980637
0.754657 0.858824 0.895343
0.780882 0.854902 0.888235
0.873529 0.889338 0.921691
0.880392 0.859314 0.908824
0.881495 0.810784 0.862255
0.846078 0.753922 0.787255
0.677451 0.800980 0.800000
0.939522 0.969485 0.969118
0.745098 0.878554 0.885172
0.857047 0.964522 0.962255
0.808088 0.906373 0.910294
0.869179 0.911520 0.917953
0.819240 0.838848 0.833456
0.965380 0.941054 0.933150
0.952451 0.887255 0.884804
0.854902 0.972549 0.941176
0.672549 0.795098 0.764216
0.684314 0.794118 0.768627
0.838725 0.906863 0.884314
0.796078 0.858824 0.829412
0.923039 0.966176 0.934804
0.951961 0.942157 0.922549
0.952451 0.921569 0.879902
0.976471 0.941176 0.913725
