video-api/assets/luts/dark-knight.cube
#Generated with IWLTBAP LUT Generator 2.1.9571.30596
#Website: https://luts.iwltbap.com
TITLE "LUT convert-4"
LUT_3D_SIZE 5
0.000000 0.247059 0.274510
0.020588 0.056863 0.100000
0.300000 0.186275 0.237255
0.898039 0.440196 0.524510
0.976471 0.313725 0.427451
0.111765 0.384314 0.418627
0.000000 0.282108 0.282598
0.410294 0.403431 0.421569
0.922304 0.547794 0.573039
0.957843 0.548039 0.583333
0.001961 0.398039 0.386275
0.000000 0.462745 0.470098
0.276471 0.510784 0.440196
0.751961 0.569608 0.461765
0.905882 0.500000 0.433333
0.368627 0.771569 0.627451
0.237255 0.644363 0.527451
0.496569 0.749510 0.602451
0.801961 0.837745 0.599510
0.977451 0.820588 0.593137
0.996078 1.000000 0.874510
0.715686 0.804902 0.613725
0.827451 0.878431 0.713725
0.824510 0.837255 0.643137
1.000000 0.984314 0.745098
0.000980 0.144118 0.337255
0.002206 0.217157 0.424020
0.397059 0.329902 0.521078
0.699755 0.218382 0.418627
1.000000 0.674510 0.694118
0.000245 0.343382 0.438725
0.002574 0.322181 0.420221
0.278799 0.327941 0.434804
0.816422 0.483088 0.565319
0.901471 0.488235 0.483333
0.027941 0.527451 0.510294
0.218382 0.584191 0.574387
0.315441 0.509559 0.488235
0.787255 0.618015 0.554044
0.952941 0.679902 0.596569
0.373775 0.610539 0.462745
0.490686 0.701900 0.560172
0.556127 0.686520 0.550735
0.679963 0.684926 0.487745
0.997059 0.899020 0.702941
0.937255 0.997059 0.844118
0.833824 0.889216 0.734559
0.872059 0.902451 0.757353
0.911765 0.920588 0.751961
1.000000 0.990196 0.830392
0.000000 0.311765 0.588235
0.072059 0.390686 0.681373
0.533333 0.341176 0.640196
0.905882 0.429412 0.708333
1.000000 0.696078 0.780392
0.001961 0.454412 0.603922
0.012132 0.440686 0.615074
0.466912 0.421814 0.599510
0.769363 0.446078 0.601103
0.977451 0.736765 0.769118
0.005882 0.516667 0.548039
0.018137 0.560539 0.586765
0.395588 0.529412 0.551471
0.755882 0.618382 0.607108
0.994118 0.770588 0.719608
0.710784 0.899020 0.786765
0.532843 0.710784 0.582353
0.701471 0.753922 0.650980
0.887377 0.865686 0.753799
0.979902 0.928431 0.822549
0.796078 0.841176 0.729412
0.983333 0.990196 0.945098
0.949020 0.958824 0.880392
0.901471 0.900490 0.816667
0.996078 0.998039 0.849020
0.002941 0.372549 0.664706
0.197549 0.564216 0.861765
0.526961 0.519608 0.804412
0.786275 0.528186 0.764216
0.998039 0.680392 0.907843
0.130882 0.486520 0.684069
0.178922 0.555025 0.764032
0.639951 0.667525 0.878431
0.795037 0.586887 0.769424
0.891422 0.518873 0.696324
0.124020 0.620588 0.690196
0.208456 0.566299 0.640196
0.497549 0.605147 0.693627
0.861275 0.744730 0.816789
0.972549 0.716176 0.787745
0.496569 0.861520 0.802451
0.451409 0.768995 0.723468
0.485294 0.664093 0.620588
0.782292 0.771140 0.725797
0.959559 0.842157 0.807108
0.947059 1.000000 0.944118
0.855392 0.934314 0.845833
0.889706 0.917157 0.845098
0.928186 0.921324 0.858088
0.961765 0.938235 0.882353
0.709804 0.764706 0.956863
0.800980 0.820588 0.980392
0.876471 0.815686 0.949020
0.906863 0.774510 0.950000
0.847059 0.607843 0.780392
0.611765 0.662745 0.835294
0.681863 0.712990 0.893382
0.843627 0.808824 0.953922
0.850000 0.730147 0.886029
0.957843 0.744118 0.894118
0.654902 0.717647 0.825490
0.778431 0.820588 0.930882
0.798039 0.797059 0.920588
0.913235 0.831373 0.929902
0.988235 0.841176 0.950980
0.650000 0.777451 0.818627
0.826716 0.948775 0.980637
0.780882 0.854902 0.888235
0.880392 0.859314 0.908824
0.846078 0.753922 0.787255
0.854902 0.972549 0.941176
0.684314 0.794118 0.768627
0.796078 0.858824 0.829412
0.951961 0.942157 0.922549
0.976471 0.941176 0.913725
